;FLAVOR:Marlin
;TIME:9704
;Filament used: 3.26521m
;Layer height: 0.09
;MINX:76.5
;MINY:60
;MINZ:0.09
;MAXX:158.5
;MAXY:175
;MAXZ:3.6
;Generated with Cura_SteamEngine 5.2.2
M140 S50
M105
M190 S50
M104 S200
M105
M109 S200
M82 ;absolute extrusion mode
; Ender 3 Custom Start G-code
G92 E0 ; Reset Extruder
G28 ; Home all axes
G1 Z2.0 F3000 ; Move Z Axis up little to prevent scratching of Heat Bed
G1 X0.1 Y20 Z0.3 F5000.0 ; Move to start position
G1 X0.1 Y200.0 Z0.3 F1500.0 E15 ; Draw the first line
G1 X0.4 Y200.0 Z0.3 F5000.0 ; Move to side a little
G1 X0.4 Y20 Z0.3 F1500.0 E30 ; Draw the second line
G92 E0 ; Reset Extruder
G1 Z2.0 F3000 ; Move Z Axis up little to prevent scratching of Heat Bed
G1 X5 Y20 Z0.3 F5000.0 ; Move over to prevent blob squish
G92 E0
G92 E0
G1 F2700 E-5
;LAYER_COUNT:40
;LAYER:0
M107
G0 F6000 X82 Y68.724 Z0.09
;TYPE:SKIRT
G1 F2700 E0
G1 F1200 X82.358 Y68.301 E0.00829
G1 X82.788 Y67.818 E0.01797
G1 X83.166 Y67.414 E0.02625
G1 X83.616 Y66.957 E0.03585
G1 X83.991 Y66.594 E0.04366
G1 X84.475 Y66.147 E0.05353
G1 X84.866 Y65.803 E0.06132
G1 X85.308 Y65.432 E0.06996
G1 X85.73 Y65.094 E0.07805
G1 X86.265 Y64.688 E0.0881
G1 X86.719 Y64.362 E0.09647
G1 X87.25 Y64 E0.10609
G1 X87.707 Y63.705 E0.11423
G1 X88.245 Y63.376 E0.12367
G1 X88.697 Y63.114 E0.13148
G1 X89.259 Y62.806 E0.14108
G1 X89.719 Y62.567 E0.14884
G1 X90.274 Y62.296 E0.15808
G1 X90.786 Y62.063 E0.1665
G1 X91.398 Y61.802 E0.17646
G1 X91.891 Y61.605 E0.1844
G1 X92.455 Y61.396 E0.19341
G1 X92.981 Y61.216 E0.20173
G1 X93.586 Y61.026 E0.21122
G1 X94.103 Y60.878 E0.21927
G1 X94.754 Y60.708 E0.22934
G1 X95.262 Y60.588 E0.23715
G1 X95.878 Y60.458 E0.24657
G1 X96.451 Y60.353 E0.25529
G1 X97.104 Y60.251 E0.26518
G1 X97.638 Y60.181 E0.27324
G1 X98.258 Y60.115 E0.28258
G1 X98.75 Y60.074 E0.28996
G1 X99.371 Y60.036 E0.29928
G1 X99.885 Y60.016 E0.30698
G1 X100.931 Y60.001 E0.32263
G1 X133.883 Y60 E0.81583
G1 X134.89 Y60.012 E0.8309
G1 X135.764 Y60.043 E0.84399
G1 X136.278 Y60.075 E0.8517
G1 X136.921 Y60.131 E0.86136
G1 X137.513 Y60.199 E0.87028
G1 X138.175 Y60.293 E0.88028
G1 X138.664 Y60.374 E0.8877
G1 X139.259 Y60.486 E0.89676
G1 X139.802 Y60.602 E0.90507
G1 X140.42 Y60.751 E0.91459
G1 X140.919 Y60.884 E0.92232
G1 X141.523 Y61.06 E0.93173
G1 X142.054 Y61.23 E0.94008
G1 X142.679 Y61.447 E0.94998
G1 X143.19 Y61.638 E0.95815
G1 X143.762 Y61.869 E0.96738
G1 X144.232 Y62.072 E0.97504
G1 X144.805 Y62.335 E0.98448
G1 X145.286 Y62.57 E0.99249
G1 X145.854 Y62.865 E1.00207
G1 X146.357 Y63.143 E1.01067
G1 X146.922 Y63.475 E1.02048
G1 X147.363 Y63.749 E1.02825
G1 X147.873 Y64.082 E1.03737
G1 X148.319 Y64.389 E1.04547
G1 X148.84 Y64.767 E1.05511
G1 X149.275 Y65.1 E1.06331
G1 X149.802 Y65.524 E1.07343
G1 X150.24 Y65.895 E1.08202
G1 X150.723 Y66.327 E1.09172
G1 X151.113 Y66.693 E1.09972
G1 X151.543 Y67.117 E1.10876
G1 X151.892 Y67.477 E1.11627
G1 X152.341 Y67.962 E1.12616
G1 X152.699 Y68.368 E1.13426
G1 X153.088 Y68.832 E1.14332
G1 X153.411 Y69.237 E1.15108
G1 X153.787 Y69.731 E1.16037
G1 X154.123 Y70.197 E1.16897
G1 X154.5 Y70.75 E1.17898
G1 X154.795 Y71.206 E1.18711
G1 X155.129 Y71.752 E1.19669
G1 X155.391 Y72.205 E1.20452
G1 X155.699 Y72.767 E1.21412
G1 X155.936 Y73.225 E1.22183
G1 X156.173 Y73.71 E1.22991
G1 X156.398 Y74.2 E1.23798
G1 X156.689 Y74.878 E1.24903
G1 X156.898 Y75.402 E1.25747
G1 X157.094 Y75.932 E1.26593
G1 X157.267 Y76.437 E1.27392
G1 X157.48 Y77.112 E1.28451
G1 X157.635 Y77.65 E1.29289
G1 X157.797 Y78.272 E1.30251
G1 X157.92 Y78.797 E1.31058
G1 X158.05 Y79.42 E1.32011
G1 X158.151 Y79.975 E1.32855
G1 X158.248 Y80.598 E1.33799
G1 X158.316 Y81.111 E1.34573
G1 X158.385 Y81.751 E1.35537
G1 X158.43 Y82.296 E1.36355
G1 X158.469 Y82.972 E1.37369
G1 X158.486 Y83.466 E1.38108
G1 X158.5 Y84.624 E1.39842
G1 X158.499 Y150.523 E2.38473
G1 X158.488 Y151.39 E2.39771
G1 X158.457 Y152.264 E2.4108
G1 X158.424 Y152.784 E2.4186
G1 X158.368 Y153.423 E2.4282
G1 X158.309 Y153.952 E2.43616
G1 X158.227 Y154.552 E2.44523
G1 X158.145 Y155.063 E2.45297
G1 X158.025 Y155.712 E2.46285
G1 X157.9 Y156.295 E2.47178
G1 X157.749 Y156.92 E2.4814
G1 X157.614 Y157.426 E2.48924
G1 X157.437 Y158.031 E2.49867
G1 X157.275 Y158.538 E2.50664
G1 X157.065 Y159.145 E2.51625
G1 X156.874 Y159.657 E2.52443
G1 X156.628 Y160.268 E2.53429
G1 X156.42 Y160.751 E2.54216
G1 X156.166 Y161.304 E2.55127
G1 X155.932 Y161.782 E2.55923
G1 X155.636 Y162.352 E2.56885
G1 X155.353 Y162.865 E2.57762
G1 X155.025 Y163.422 E2.58729
G1 X154.763 Y163.844 E2.59473
G1 X154.421 Y164.369 E2.6041
G1 X154.112 Y164.819 E2.61227
G1 X153.749 Y165.32 E2.62153
G1 X153.423 Y165.747 E2.62957
G1 X152.994 Y166.282 E2.63984
G1 X152.624 Y166.72 E2.64842
G1 X152.206 Y167.189 E2.65782
G1 X151.844 Y167.576 E2.66575
G1 X151.415 Y168.013 E2.67492
G1 X151.049 Y168.369 E2.68256
G1 X150.561 Y168.822 E2.69253
G1 X150.129 Y169.202 E2.70114
G1 X149.649 Y169.603 E2.7105
G1 X149.256 Y169.917 E2.71803
G1 X148.78 Y170.279 E2.72698
G1 X148.34 Y170.596 E2.7351
G1 X147.79 Y170.973 E2.74508
G1 X147.302 Y171.289 E2.75378
G1 X146.722 Y171.643 E2.76395
G1 X146.265 Y171.908 E2.77185
G1 X145.714 Y172.209 E2.78125
G1 X145.255 Y172.445 E2.78898
G1 X144.721 Y172.705 E2.79786
G1 X144.223 Y172.932 E2.80606
G1 X143.616 Y173.191 E2.81593
G1 X143.119 Y173.389 E2.82394
G1 X142.533 Y173.606 E2.83329
G1 X142.01 Y173.785 E2.84157
G1 X141.383 Y173.982 E2.8514
G1 X140.856 Y174.133 E2.85961
G1 X140.222 Y174.298 E2.86941
G1 X139.703 Y174.42 E2.87739
G1 X139.105 Y174.545 E2.88654
G1 X138.586 Y174.641 E2.89444
G1 X137.959 Y174.741 E2.90394
G1 X137.413 Y174.814 E2.91218
G1 X136.777 Y174.883 E2.92176
G1 X136.261 Y174.927 E2.92951
G1 X135.622 Y174.966 E2.93909
G1 X135.1 Y174.985 E2.94691
G1 X133.911 Y175 E2.96471
G1 X100.949 Y174.999 E3.45805
G1 X100.114 Y174.989 E3.47055
G1 X99.28 Y174.96 E3.48304
G1 X98.762 Y174.928 E3.49081
G1 X98.082 Y174.869 E3.50102
G1 X97.535 Y174.808 E3.50926
G1 X96.953 Y174.728 E3.51805
G1 X96.445 Y174.646 E3.52576
G1 X95.771 Y174.521 E3.53602
G1 X95.178 Y174.393 E3.5451
G1 X94.553 Y174.241 E3.55472
G1 X94.082 Y174.116 E3.56202
G1 X93.497 Y173.946 E3.57113
G1 X92.964 Y173.776 E3.57951
G1 X92.315 Y173.551 E3.58979
G1 X91.811 Y173.362 E3.59785
G1 X91.247 Y173.135 E3.60694
G1 X90.709 Y172.902 E3.61572
G1 X90.08 Y172.609 E3.62611
G1 X89.637 Y172.39 E3.6335
G1 X89.154 Y172.138 E3.64166
G1 X88.684 Y171.879 E3.64969
G1 X88.105 Y171.54 E3.65973
G1 X87.65 Y171.258 E3.66774
G1 X87.097 Y170.897 E3.67763
G1 X86.642 Y170.584 E3.68589
G1 X86.133 Y170.214 E3.69531
G1 X85.71 Y169.89 E3.70328
G1 X85.221 Y169.497 E3.71267
G1 X84.786 Y169.128 E3.72121
G1 X84.282 Y168.678 E3.73132
G1 X83.885 Y168.306 E3.73947
G1 X83.456 Y167.883 E3.74848
G1 X83.111 Y167.527 E3.7559
G1 X82.668 Y167.049 E3.76566
G1 X82.298 Y166.629 E3.77404
G1 X81.894 Y166.146 E3.78346
G1 X81.568 Y165.736 E3.7913
G1 X81.188 Y165.235 E3.80071
G1 X80.852 Y164.768 E3.80932
G1 X80.49 Y164.235 E3.81897
G1 X80.207 Y163.796 E3.82678
G1 X79.868 Y163.242 E3.8365
G1 X79.603 Y162.785 E3.84441
G1 X79.299 Y162.23 E3.85388
G1 X79.053 Y161.753 E3.86192
G1 X78.813 Y161.259 E3.87014
G1 X78.599 Y160.791 E3.87784
G1 X78.311 Y160.12 E3.88877
G1 X78.107 Y159.609 E3.897
G1 X77.911 Y159.081 E3.90543
G1 X77.733 Y158.563 E3.91363
G1 X77.52 Y157.888 E3.92422
G1 X77.367 Y157.357 E3.93249
G1 X77.22 Y156.794 E3.9412
G1 X77.103 Y156.299 E3.94882
G1 X76.958 Y155.616 E3.95927
G1 X76.85 Y155.028 E3.96821
G1 X76.752 Y154.4 E3.97773
G1 X76.682 Y153.873 E3.98568
G1 X76.614 Y153.237 E3.99526
G1 X76.57 Y152.703 E4.00328
G1 X76.531 Y152.029 E4.01338
G1 X76.514 Y151.534 E4.02079
G1 X76.5 Y150.376 E4.03813
G1 X76.501 Y84.451 E5.02483
G1 X76.511 Y83.614 E5.03736
G1 X76.541 Y82.755 E5.05022
G1 X76.574 Y82.235 E5.05802
G1 X76.632 Y81.573 E5.06797
G1 X76.693 Y81.029 E5.07616
G1 X76.774 Y80.442 E5.08503
G1 X76.86 Y79.915 E5.09302
G1 X76.987 Y79.239 E5.10332
G1 X77.105 Y78.688 E5.11175
G1 X77.253 Y78.075 E5.12119
G1 X77.382 Y77.591 E5.12869
G1 X77.557 Y76.988 E5.13808
G1 X77.728 Y76.452 E5.1465
G1 X77.946 Y75.823 E5.15647
G1 X78.133 Y75.321 E5.16449
G1 X78.355 Y74.769 E5.17339
G1 X78.573 Y74.264 E5.18162
G1 X78.86 Y73.642 E5.19188
G1 X79.089 Y73.176 E5.19965
G1 X79.361 Y72.653 E5.20847
G1 X79.642 Y72.146 E5.21715
G1 X79.983 Y71.567 E5.2272
G1 X80.256 Y71.126 E5.23497
G1 X80.608 Y70.588 E5.24459
G1 X80.914 Y70.145 E5.25265
G1 X81.286 Y69.633 E5.26212
G1 X81.611 Y69.208 E5.27013
G1 X82 Y68.724 E5.27942
G0 F6000 X82.312 Y68.975
G1 F1200 X82.657 Y68.567 E5.28742
G1 X83.087 Y68.084 E5.2971
G1 X83.451 Y67.695 E5.30507
G1 X83.901 Y67.238 E5.31467
G1 X84.262 Y66.888 E5.3222
G1 X84.746 Y66.441 E5.33206
G1 X85.123 Y66.109 E5.33958
G1 X85.565 Y65.738 E5.34821
G1 X85.972 Y65.413 E5.35601
G1 X86.507 Y65.007 E5.36606
G1 X86.944 Y64.693 E5.37411
G1 X87.475 Y64.331 E5.38373
G1 X87.916 Y64.046 E5.39159
G1 X88.454 Y63.717 E5.40103
G1 X88.89 Y63.464 E5.40857
G1 X89.452 Y63.156 E5.41817
G1 X89.895 Y62.927 E5.42563
G1 X90.45 Y62.656 E5.43487
G1 X90.943 Y62.431 E5.44299
G1 X91.555 Y62.17 E5.45294
G1 X92.03 Y61.981 E5.46059
G1 X92.594 Y61.772 E5.4696
G1 X93.101 Y61.598 E5.47762
G1 X93.706 Y61.408 E5.48711
G1 X94.204 Y61.265 E5.49487
G1 X94.855 Y61.095 E5.50494
G1 X95.344 Y60.979 E5.51246
G1 X95.96 Y60.849 E5.52188
G1 X96.513 Y60.748 E5.53029
G1 X97.166 Y60.646 E5.54019
G1 X97.68 Y60.579 E5.54794
G1 X98.3 Y60.513 E5.55728
G1 X98.775 Y60.473 E5.56441
G1 X99.396 Y60.435 E5.57372
G1 X99.891 Y60.416 E5.58114
G1 X100.937 Y60.401 E5.59679
G1 X133.883 Y60.4 E6.0899
G1 X135.174 Y60.419 E6.10922
G1 X135.748 Y60.442 E6.11782
G1 X136.244 Y60.474 E6.12526
G1 X136.887 Y60.53 E6.13492
G1 X137.457 Y60.595 E6.14351
G1 X138.119 Y60.689 E6.15352
G1 X138.59 Y60.767 E6.16066
G1 X139.185 Y60.879 E6.16972
G1 X139.708 Y60.991 E6.17773
G1 X140.326 Y61.14 E6.18724
G1 X140.807 Y61.268 E6.19469
G1 X141.411 Y61.444 E6.20411
G1 X141.923 Y61.607 E6.21215
G1 X142.548 Y61.824 E6.22205
G1 X143.04 Y62.009 E6.22992
G1 X143.612 Y62.24 E6.23915
G1 X144.065 Y62.435 E6.24653
G1 X144.638 Y62.698 E6.25597
G1 X145.102 Y62.925 E6.2637
G1 X145.67 Y63.22 E6.27328
G1 X146.154 Y63.488 E6.28156
G1 X146.719 Y63.82 E6.29137
G1 X147.144 Y64.083 E6.29885
G1 X147.654 Y64.416 E6.30797
G1 X148.084 Y64.712 E6.31578
G1 X148.605 Y65.09 E6.32541
G1 X149.025 Y65.411 E6.33333
G1 X149.552 Y65.835 E6.34345
G1 X149.974 Y66.193 E6.35173
G1 X150.457 Y66.625 E6.36143
G1 X150.832 Y66.978 E6.36914
G1 X151.262 Y67.402 E6.37818
G1 X151.598 Y67.749 E6.38541
G1 X152.047 Y68.234 E6.3953
G1 X152.392 Y68.625 E6.4031
G1 X152.781 Y69.089 E6.41217
G1 X153.093 Y69.479 E6.41964
G1 X153.469 Y69.973 E6.42893
G1 X153.792 Y70.422 E6.43721
G1 X154.169 Y70.975 E6.44723
G1 X154.453 Y71.415 E6.45507
G1 X154.787 Y71.961 E6.46465
G1 X155.041 Y72.398 E6.47221
G1 X155.349 Y72.96 E6.4818
G1 X155.577 Y73.4 E6.48922
G1 X155.814 Y73.885 E6.4973
G1 X156.031 Y74.358 E6.50509
G1 X156.322 Y75.036 E6.51613
G1 X156.523 Y75.54 E6.52425
G1 X156.719 Y76.07 E6.53271
G1 X156.886 Y76.557 E6.54042
G1 X157.099 Y77.232 E6.55101
G1 X157.248 Y77.75 E6.55908
G1 X157.41 Y78.372 E6.5687
G1 X157.528 Y78.879 E6.57649
G1 X157.658 Y79.502 E6.58601
G1 X157.756 Y80.036 E6.59414
G1 X157.853 Y80.659 E6.60358
G1 X157.918 Y81.154 E6.61105
G1 X157.987 Y81.794 E6.62068
G1 X158.03 Y82.319 E6.62857
G1 X158.069 Y82.995 E6.6387
G1 X158.086 Y83.471 E6.64583
G1 X158.1 Y84.624 E6.66309
G1 X158.099 Y150.517 E7.64931
G1 X158.081 Y151.674 E7.66663
G1 X158.058 Y152.248 E7.67523
G1 X158.026 Y152.749 E7.68274
G1 X157.97 Y153.388 E7.69234
G1 X157.912 Y153.898 E7.70003
G1 X157.83 Y154.498 E7.70909
G1 X157.751 Y154.99 E7.71655
G1 X157.631 Y155.639 E7.72643
G1 X157.512 Y156.201 E7.73503
G1 X157.361 Y156.826 E7.74465
G1 X157.231 Y157.313 E7.75219
G1 X157.054 Y157.918 E7.76163
G1 X156.897 Y158.408 E7.76933
G1 X156.687 Y159.015 E7.77894
G1 X156.503 Y159.508 E7.78682
G1 X156.257 Y160.119 E7.79668
G1 X156.057 Y160.584 E7.80425
G1 X155.803 Y161.137 E7.81336
G1 X155.577 Y161.598 E7.82104
G1 X155.281 Y162.168 E7.83066
G1 X155.008 Y162.662 E7.83911
G1 X154.68 Y163.219 E7.84878
G1 X154.428 Y163.626 E7.85594
G1 X154.086 Y164.151 E7.86532
G1 X153.788 Y164.584 E7.87319
G1 X153.425 Y165.085 E7.88245
G1 X153.111 Y165.497 E7.8902
G1 X152.682 Y166.032 E7.90047
G1 X152.325 Y166.454 E7.90874
G1 X151.907 Y166.923 E7.91814
G1 X151.558 Y167.296 E7.92579
G1 X151.129 Y167.733 E7.93495
G1 X150.777 Y168.076 E7.94231
G1 X150.289 Y168.529 E7.95228
G1 X149.873 Y168.895 E7.96057
G1 X149.393 Y169.296 E7.96993
G1 X149.014 Y169.598 E7.97718
G1 X148.538 Y169.96 E7.98613
G1 X148.114 Y170.266 E7.99396
G1 X147.564 Y170.643 E8.00394
G1 X147.093 Y170.948 E8.01234
G1 X146.513 Y171.302 E8.02251
G1 X146.073 Y171.556 E8.03011
G1 X145.522 Y171.857 E8.03951
G1 X145.08 Y172.085 E8.04695
G1 X144.546 Y172.345 E8.05584
G1 X144.066 Y172.565 E8.06375
G1 X143.459 Y172.824 E8.07362
G1 X142.98 Y173.014 E8.08134
G1 X142.394 Y173.231 E8.09069
G1 X141.89 Y173.404 E8.09866
G1 X141.263 Y173.601 E8.1085
G1 X140.756 Y173.746 E8.11639
G1 X140.122 Y173.911 E8.1262
G1 X139.621 Y174.029 E8.1339
G1 X139.023 Y174.154 E8.14305
G1 X138.523 Y174.246 E8.15065
G1 X137.896 Y174.346 E8.16016
G1 X137.37 Y174.416 E8.1681
G1 X136.734 Y174.485 E8.17767
G1 X136.237 Y174.527 E8.18514
G1 X135.598 Y174.566 E8.19472
G1 X135.095 Y174.585 E8.20226
G1 X133.911 Y174.6 E8.21998
G1 X100.954 Y174.599 E8.71325
G1 X99.829 Y174.582 E8.73009
G1 X99.296 Y174.561 E8.73807
G1 X98.797 Y174.529 E8.74555
G1 X98.117 Y174.47 E8.75577
G1 X97.59 Y174.411 E8.76371
G1 X97.008 Y174.331 E8.7725
G1 X96.518 Y174.252 E8.77993
G1 X95.844 Y174.127 E8.79019
G1 X95.272 Y174.005 E8.79894
G1 X94.647 Y173.853 E8.80857
G1 X94.194 Y173.732 E8.81559
G1 X93.609 Y173.562 E8.8247
G1 X93.095 Y173.398 E8.83278
G1 X92.446 Y173.173 E8.84306
G1 X91.96 Y172.991 E8.85083
G1 X91.396 Y172.764 E8.85993
G1 X90.878 Y172.54 E8.86837
G1 X90.249 Y172.247 E8.87876
G1 X89.822 Y172.036 E8.88589
G1 X89.339 Y171.784 E8.89404
G1 X88.886 Y171.533 E8.90179
G1 X88.307 Y171.194 E8.91184
G1 X87.869 Y170.923 E8.91954
G1 X87.316 Y170.562 E8.92943
G1 X86.877 Y170.26 E8.9374
G1 X86.368 Y169.89 E8.94682
G1 X85.961 Y169.578 E8.9545
G1 X85.472 Y169.185 E8.96389
G1 X85.052 Y168.83 E8.97212
G1 X84.548 Y168.38 E8.98223
G1 X84.166 Y168.021 E8.99008
G1 X83.737 Y167.598 E8.99909
G1 X83.404 Y167.255 E9.00625
G1 X82.961 Y166.777 E9.016
G1 X82.605 Y166.373 E9.02406
G1 X82.201 Y165.89 E9.03349
G1 X81.887 Y165.495 E9.04104
G1 X81.507 Y164.994 E9.05045
G1 X81.183 Y164.544 E9.05875
G1 X80.821 Y164.011 E9.06839
G1 X80.548 Y163.588 E9.07593
G1 X80.209 Y163.034 E9.08565
G1 X79.954 Y162.593 E9.09327
G1 X79.65 Y162.038 E9.10275
G1 X79.413 Y161.578 E9.11049
G1 X79.173 Y161.084 E9.11871
G1 X78.966 Y160.633 E9.12614
G1 X78.678 Y159.962 E9.13707
G1 X78.482 Y159.47 E9.14499
G1 X78.286 Y158.942 E9.15342
G1 X78.114 Y158.443 E9.16132
G1 X77.901 Y157.768 E9.17192
G1 X77.754 Y157.256 E9.17989
G1 X77.607 Y156.693 E9.1886
G1 X77.494 Y156.216 E9.19594
G1 X77.349 Y155.533 E9.20639
G1 X77.245 Y154.966 E9.21501
G1 X77.147 Y154.338 E9.22453
G1 X77.08 Y153.831 E9.23218
G1 X77.012 Y153.195 E9.24175
G1 X76.97 Y152.68 E9.24949
G1 X76.931 Y152.006 E9.25959
G1 X76.914 Y151.529 E9.26674
G1 X76.9 Y150.376 E9.28399
G1 X76.901 Y84.455 E10.27064
G1 X76.918 Y83.321 E10.28761
G1 X76.94 Y82.771 E10.29585
G1 X76.972 Y82.27 E10.30337
G1 X77.03 Y81.608 E10.31331
G1 X77.089 Y81.084 E10.3212
G1 X77.17 Y80.497 E10.33007
G1 X77.253 Y79.989 E10.33778
G1 X77.38 Y79.313 E10.34807
G1 X77.494 Y78.782 E10.3562
G1 X77.642 Y78.169 E10.36564
G1 X77.766 Y77.703 E10.37286
G1 X77.941 Y77.1 E10.38225
G1 X78.105 Y76.583 E10.39037
G1 X78.323 Y75.954 E10.40033
G1 X78.505 Y75.47 E10.40807
G1 X78.727 Y74.918 E10.41698
G1 X78.936 Y74.432 E10.4249
G1 X79.223 Y73.81 E10.43515
G1 X79.444 Y73.36 E10.44265
G1 X79.716 Y72.837 E10.45148
G1 X79.986 Y72.349 E10.45982
G1 X80.327 Y71.77 E10.46988
G1 X80.591 Y71.345 E10.47737
G1 X80.943 Y70.807 E10.48699
G1 X81.238 Y70.38 E10.49476
G1 X81.61 Y69.868 E10.50423
G1 X81.923 Y69.459 E10.51194
G1 X82.312 Y68.975 E10.52123
G0 F6000 X82.624 Y69.225
G1 F1200 X82.956 Y68.833 E10.52892
G1 X83.386 Y68.35 E10.5386
G1 X83.736 Y67.975 E10.54628
G1 X84.186 Y67.518 E10.55588
G1 X84.534 Y67.182 E10.56312
