;FLAVOR:Marlin
;TIME:5276
;Filament used: 3.76014m
;Layer height: 0.2
;MINX:78
;MINY:60
;MINZ:0.2
;MAXX:157
;MAXY:175
;MAXZ:3
;Generated with Cura_SteamEngine 5.2.2
M140 S50
M105
M190 S50
M104 S200
M105
M109 S200
M82 ;absolute extrusion mode
; Ender 3 Custom Start G-code
G92 E0 ; Reset Extruder
G28 ; Home all axes
G1 Z2.0 F3000 ; Move Z Axis up little to prevent scratching of Heat Bed
G1 X0.1 Y20 Z0.3 F5000.0 ; Move to start position
G1 X0.1 Y200.0 Z0.3 F1500.0 E15 ; Draw the first line
G1 X0.4 Y200.0 Z0.3 F5000.0 ; Move to side a little
G1 X0.4 Y20 Z0.3 F1500.0 E30 ; Draw the second line
G92 E0 ; Reset Extruder
G1 Z2.0 F3000 ; Move Z Axis up little to prevent scratching of Heat Bed
G1 X5 Y20 Z0.3 F5000.0 ; Move over to prevent blob squish
G92 E0
G92 E0
G1 F2700 E-5
;LAYER_COUNT:15
;LAYER:0
M107
G0 F6000 X83.551 Y68.665 Z0.2
;TYPE:SKIRT
G1 F2700 E0
G1 F1200 X83.88 Y68.277 E0.01692
G1 X84.304 Y67.801 E0.03812
G1 X84.68 Y67.4 E0.0564
G1 X85.128 Y66.945 E0.07764
G1 X85.506 Y66.579 E0.09514
G1 X85.96 Y66.16 E0.11569
G1 X86.356 Y65.812 E0.13323
G1 X86.843 Y65.404 E0.15436
G1 X87.283 Y65.054 E0.17306
G1 X87.812 Y64.655 E0.19509
G1 X88.224 Y64.359 E0.21197
G1 X88.718 Y64.021 E0.23188
G1 X89.192 Y63.714 E0.25066
G1 X89.771 Y63.36 E0.27323
G1 X90.242 Y63.088 E0.29132
G1 X90.792 Y62.788 E0.31216
G1 X91.251 Y62.551 E0.32934
G1 X91.786 Y62.291 E0.34912
G1 X92.269 Y62.071 E0.36678
G1 X92.877 Y61.811 E0.38877
G1 X93.379 Y61.611 E0.40674
G1 X93.951 Y61.399 E0.42703
G1 X94.463 Y61.223 E0.44504
G1 X95.084 Y61.027 E0.4667
G1 X95.631 Y60.87 E0.48563
G1 X96.282 Y60.701 E0.508
G1 X96.789 Y60.582 E0.52532
G1 X97.39 Y60.456 E0.54574
G1 X97.915 Y60.359 E0.5635
G1 X98.542 Y60.259 E0.58462
G1 X99.086 Y60.186 E0.60287
G1 X99.721 Y60.117 E0.62412
G1 X100.239 Y60.073 E0.64141
G1 X100.878 Y60.034 E0.6627
G1 X101.4 Y60.015 E0.68007
G1 X102.589 Y60 E0.71962
G1 X132.346 Y60 E1.70934
G1 X133.437 Y60.013 E1.74563
G1 X134.329 Y60.046 E1.77532
G1 X134.845 Y60.08 E1.79252
G1 X135.456 Y60.135 E1.81293
G1 X135.988 Y60.196 E1.83074
G1 X136.634 Y60.286 E1.85243
G1 X137.159 Y60.372 E1.87012
G1 X137.778 Y60.489 E1.89108
G1 X138.335 Y60.61 E1.91003
G1 X138.968 Y60.764 E1.9317
G1 X139.464 Y60.897 E1.94878
G1 X140.064 Y61.073 E1.96958
G1 X140.554 Y61.229 E1.98668
G1 X141.163 Y61.439 E2.00811
G1 X141.712 Y61.645 E2.02761
G1 X142.274 Y61.873 E2.04778
G1 X142.772 Y62.089 E2.06584
G1 X143.39 Y62.376 E2.0885
G1 X143.854 Y62.605 E2.10571
G1 X144.399 Y62.89 E2.12617
G1 X144.879 Y63.157 E2.14443
G1 X145.423 Y63.477 E2.16543
G1 X145.855 Y63.745 E2.18233
G1 X146.387 Y64.092 E2.20346
G1 X146.837 Y64.401 E2.22162
G1 X147.325 Y64.755 E2.24167
G1 X147.769 Y65.095 E2.26027
G1 X148.295 Y65.519 E2.28274
G1 X148.696 Y65.858 E2.3002
G1 X149.187 Y66.294 E2.32204
G1 X149.601 Y66.681 E2.34089
G1 X150.055 Y67.128 E2.36208
G1 X150.414 Y67.499 E2.37925
G1 X150.83 Y67.949 E2.39964
G1 X151.207 Y68.379 E2.41866
G1 X151.644 Y68.904 E2.44138
G1 X151.964 Y69.306 E2.45847
G1 X152.33 Y69.79 E2.47865
G1 X152.637 Y70.217 E2.49614
G1 X152.974 Y70.71 E2.516
G1 X153.273 Y71.172 E2.53431
G1 X153.635 Y71.763 E2.55736
G1 X153.908 Y72.234 E2.57546
G1 X154.208 Y72.783 E2.59627
G1 X154.445 Y73.243 E2.61348
G1 X154.705 Y73.777 E2.63324
G1 X154.934 Y74.279 E2.65159
G1 X155.194 Y74.889 E2.67364
G1 X155.39 Y75.38 E2.69123
G1 X155.606 Y75.963 E2.71191
G1 X155.784 Y76.482 E2.73016
G1 X155.976 Y77.092 E2.75143
G1 X156.13 Y77.631 E2.77007
G1 X156.299 Y78.282 E2.79244
G1 X156.418 Y78.789 E2.80976
G1 X156.544 Y79.39 E2.83018
G1 X156.641 Y79.917 E2.84801
G1 X156.741 Y80.545 E2.86916
G1 X156.813 Y81.085 E2.88728
G1 X156.882 Y81.719 E2.90849
G1 X156.927 Y82.238 E2.92582
G1 X156.966 Y82.876 E2.94708
G1 X156.985 Y83.399 E2.96448
G1 X157 Y84.589 E3.00406
G1 X156.999 Y150.539 E5.19757
G1 X156.979 Y151.741 E5.23755
G1 X156.956 Y152.299 E5.25613
G1 X156.922 Y152.815 E5.27333
G1 X156.866 Y153.448 E5.29446
G1 X156.802 Y154.013 E5.31338
G1 X156.714 Y154.638 E5.33437
G1 X156.629 Y155.148 E5.35157
G1 X156.511 Y155.772 E5.37269
G1 X156.393 Y156.321 E5.39137
G1 X156.238 Y156.96 E5.41323
G1 X156.105 Y157.458 E5.43038
G1 X155.929 Y158.059 E5.45121
G1 X155.766 Y158.57 E5.46905
G1 X155.556 Y159.176 E5.49038
G1 X155.361 Y159.694 E5.50879
G1 X155.134 Y160.256 E5.52895
G1 X154.914 Y160.765 E5.54739
G1 X154.619 Y161.401 E5.57071
G1 X154.382 Y161.879 E5.58845
G1 X154.101 Y162.415 E5.60858
G1 X153.835 Y162.894 E5.62681
G1 X153.519 Y163.43 E5.6475
G1 X153.259 Y163.85 E5.66393
G1 X152.911 Y164.384 E5.68513
G1 X152.599 Y164.837 E5.70342
G1 X152.245 Y165.325 E5.72348
G1 X151.905 Y165.769 E5.74208
G1 X151.481 Y166.295 E5.76455
G1 X151.142 Y166.696 E5.78201
G1 X150.706 Y167.187 E5.80385
G1 X150.33 Y167.59 E5.82218
G1 X149.896 Y168.032 E5.84279
G1 X149.523 Y168.394 E5.86007
G1 X149.06 Y168.823 E5.88107
G1 X148.636 Y169.196 E5.89985
G1 X148.144 Y169.607 E5.92117
G1 X147.713 Y169.949 E5.93947
G1 X147.185 Y170.347 E5.96146
G1 X146.776 Y170.641 E5.97822
G1 X146.282 Y170.979 E5.99813
G1 X145.813 Y171.283 E6.01672
G1 X145.238 Y171.635 E6.03914
G1 X144.76 Y171.911 E6.0575
G1 X144.206 Y172.213 E6.07848
G1 X143.749 Y172.449 E6.09559
G1 X143.214 Y172.709 E6.11537
G1 X142.731 Y172.929 E6.13303
G1 X142.123 Y173.189 E6.15502
G1 X141.621 Y173.389 E6.17299
G1 X141.049 Y173.601 E6.19328
G1 X140.537 Y173.777 E6.21129
G1 X139.916 Y173.973 E6.23295
G1 X139.369 Y174.13 E6.25188
G1 X138.718 Y174.299 E6.27425
G1 X138.211 Y174.418 E6.29157
G1 X137.61 Y174.544 E6.31199
G1 X137.088 Y174.64 E6.32965
G1 X136.462 Y174.74 E6.35073
G1 X135.913 Y174.814 E6.36916
G1 X135.277 Y174.883 E6.39043
G1 X134.761 Y174.927 E6.40766
G1 X134.122 Y174.966 E6.42895
G1 X133.6 Y174.985 E6.44632
G1 X132.411 Y175 E6.48587
G1 X130.549 Y174.999 E6.5478
G1 X129.852 Y174.989 E6.57099
G1 X128.786 Y174.922 E6.60651
G1 X126.328 Y174.647 E6.68878
G1 X123.781 Y174.431 E6.77379
G1 X121.322 Y174.291 E6.85571
G1 X118.764 Y174.219 E6.94083
G1 X116.275 Y174.219 E7.02361
G1 X113.717 Y174.291 E7.10872
G1 X111.233 Y174.432 E7.19148
G1 X108.736 Y174.645 E7.27483
G1 X106.196 Y174.925 E7.35982
G1 X105.299 Y174.987 E7.38973
G1 X104.67 Y175 E7.41065
G1 X102.457 Y174.999 E7.48426
G1 X101.326 Y174.982 E7.52188
G1 X100.761 Y174.96 E7.54068
G1 X100.211 Y174.924 E7.55902
G1 X99.561 Y174.866 E7.58072
G1 X99.023 Y174.805 E7.59873
G1 X98.362 Y174.713 E7.62093
G1 X97.833 Y174.626 E7.63876
G1 X97.22 Y174.51 E7.65951
G1 X96.686 Y174.395 E7.67767
G1 X96.089 Y174.251 E7.6981
G1 X95.582 Y174.116 E7.71555
G1 X94.949 Y173.931 E7.73749
G1 X94.432 Y173.766 E7.75554
G1 X93.884 Y173.576 E7.77483
G1 X93.399 Y173.395 E7.79204
G1 X92.747 Y173.134 E7.8154
G1 X92.219 Y172.906 E7.83453
G1 X91.661 Y172.648 E7.85498
G1 X91.205 Y172.425 E7.87186
G1 X90.645 Y172.134 E7.89285
G1 X90.148 Y171.859 E7.91174
G1 X89.591 Y171.532 E7.93323
G1 X89.149 Y171.258 E7.95052
G1 X88.608 Y170.905 E7.97201
G1 X88.158 Y170.595 E7.99018
G1 X87.673 Y170.243 E8.01012
G1 X87.253 Y169.923 E8.02768
G1 X86.718 Y169.494 E8.05049
G1 X86.28 Y169.124 E8.06956
G1 X85.811 Y168.706 E8.09045
G1 X85.424 Y168.344 E8.10808
G1 X84.987 Y167.915 E8.12844
G1 X84.618 Y167.534 E8.14609
G1 X84.162 Y167.041 E8.16842
G1 X83.804 Y166.634 E8.18645
G1 X83.397 Y166.148 E8.20753
G1 X83.055 Y165.719 E8.22578
G1 X82.668 Y165.207 E8.24713
G1 X82.361 Y164.781 E8.26459
G1 X82.022 Y164.285 E8.28457
G1 X81.72 Y163.817 E8.3031
G1 X81.361 Y163.23 E8.32599
G1 X81.107 Y162.792 E8.34283
G1 X80.843 Y162.312 E8.36105
G1 X80.6 Y161.845 E8.37856
G1 X80.304 Y161.24 E8.40096
G1 X80.071 Y160.731 E8.41958
G1 X79.811 Y160.123 E8.44157
G1 X79.612 Y159.625 E8.45941
G1 X79.399 Y159.051 E8.47977
G1 X79.22 Y158.529 E8.49812
G1 X79.025 Y157.91 E8.51971
G1 X78.87 Y157.368 E8.53846
G1 X78.699 Y156.709 E8.5611
G1 X78.58 Y156.205 E8.57833
G1 X78.456 Y155.614 E8.59841
G1 X78.358 Y155.079 E8.6165
G1 X78.258 Y154.449 E8.63772
G1 X78.187 Y153.915 E8.65564
G1 X78.118 Y153.281 E8.67685
G1 X78.073 Y152.761 E8.69421
G1 X78.034 Y152.122 E8.7155
G1 X78.015 Y151.6 E8.73287
G1 X78 Y150.411 E8.77242
G1 X78.001 Y84.455 E10.96613
G1 X78.013 Y83.576 E10.99537
G1 X78.043 Y82.736 E11.02332
G1 X78.077 Y82.2 E11.04119
G1 X78.136 Y81.536 E11.06336
G1 X78.199 Y80.987 E11.08174
G1 X78.285 Y80.372 E11.10239
G1 X78.37 Y79.854 E11.11985
G1 X78.485 Y79.245 E11.14046
G1 X78.6 Y78.71 E11.15866
G1 X78.758 Y78.054 E11.18111
G1 X78.901 Y77.519 E11.19953
G1 X79.077 Y76.922 E11.22023
G1 X79.236 Y76.428 E11.23749
G1 X79.44 Y75.84 E11.25819
G1 X79.637 Y75.315 E11.27684
G1 X79.889 Y74.693 E11.29916
G1 X80.097 Y74.212 E11.31659
G1 X80.356 Y73.651 E11.33714
G1 X80.599 Y73.159 E11.35539
G1 X80.897 Y72.59 E11.37676
G1 X81.162 Y72.112 E11.39493
G1 X81.487 Y71.56 E11.41624
G1 X81.76 Y71.12 E11.43346
G1 X82.106 Y70.591 E11.45449
G1 X82.422 Y70.133 E11.47299
G1 X82.809 Y69.602 E11.49485
G1 X83.156 Y69.152 E11.51375
G1 X83.551 Y68.665 E11.5346
G0 F6000 X83.862 Y68.917
G1 F1200 X84.179 Y68.543 E11.55091
G1 X84.603 Y68.067 E11.57211
G1 X84.965 Y67.681 E11.58971
G1 X85.413 Y67.226 E11.61095
G1 X85.777 Y66.873 E11.62781
G1 X86.231 Y66.454 E11.64836
G1 X86.613 Y66.119 E11.66526
G1 X87.1 Y65.711 E11.68639
G1 X87.524 Y65.373 E11.70443
G1 X88.053 Y64.974 E11.72647
G1 X88.45 Y64.689 E11.74272
G1 X88.944 Y64.351 E11.76263
G1 X89.401 Y64.055 E11.78074
G1 X89.98 Y63.701 E11.80331
G1 X90.433 Y63.439 E11.82072
G1 X90.983 Y63.139 E11.84155
G1 X91.426 Y62.911 E11.85812
G1 X91.961 Y62.651 E11.87791
G1 X92.426 Y62.439 E11.89491
G1 X93.034 Y62.179 E11.9169
G1 X93.518 Y61.986 E11.93423
G1 X94.09 Y61.774 E11.95452
G1 X94.584 Y61.605 E11.97188
G1 X95.205 Y61.409 E11.99354
G1 X95.732 Y61.257 E12.01179
G1 X96.383 Y61.088 E12.03416
G1 X96.871 Y60.974 E12.05082
G1 X97.472 Y60.848 E12.07125
G1 X97.978 Y60.754 E12.08837
G1 X98.605 Y60.654 E12.10948
G1 X99.129 Y60.584 E12.12707
G1 X99.764 Y60.515 E12.14831
G1 X100.263 Y60.473 E12.16497
G1 X100.902 Y60.434 E12.18626
G1 X101.405 Y60.415 E12.203
G1 X102.589 Y60.4 E12.24238
G1 X132.346 Y60.4 E13.23211
G1 X133.432 Y60.413 E13.26823
G1 X134.312 Y60.446 E13.29752
G1 X134.809 Y60.479 E13.31409
G1 X135.42 Y60.534 E13.33449
G1 X135.933 Y60.592 E13.35166
G1 X136.579 Y60.682 E13.37335
G1 X137.085 Y60.765 E13.39041
G1 X137.704 Y60.882 E13.41136
G1 X138.241 Y60.998 E13.42963
G1 X138.874 Y61.152 E13.4513
G1 X139.352 Y61.281 E13.46777
G1 X139.952 Y61.457 E13.48857
G1 X140.424 Y61.607 E13.50504
G1 X141.033 Y61.817 E13.52646
G1 X141.562 Y62.016 E13.54526
G1 X142.124 Y62.244 E13.56543
G1 X142.604 Y62.452 E13.58283
G1 X143.222 Y62.739 E13.6055
G1 X143.669 Y62.96 E13.62208
G1 X144.214 Y63.245 E13.64254
G1 X144.676 Y63.501 E13.6601
G1 X145.22 Y63.821 E13.6811
G1 X145.637 Y64.08 E13.69742
G1 X146.169 Y64.427 E13.71855
G1 X146.602 Y64.725 E13.73603
G1 X147.09 Y65.079 E13.75608
G1 X147.518 Y65.406 E13.774
G1 X148.044 Y65.83 E13.79647
G1 X148.43 Y66.157 E13.8133
G1 X148.921 Y66.593 E13.83514
G1 X149.32 Y66.966 E13.8533
G1 X149.774 Y67.413 E13.87449
G1 X150.121 Y67.77 E13.89105
G1 X150.537 Y68.22 E13.91143
G1 X150.9 Y68.635 E13.92977
G1 X151.337 Y69.16 E13.95249
G1 X151.645 Y69.548 E13.96897
G1 X152.011 Y70.032 E13.98915
G1 X152.307 Y70.443 E14.006
G1 X152.644 Y70.936 E14.02586
G1 X152.932 Y71.381 E14.04349
G1 X153.294 Y71.972 E14.06654
G1 X153.557 Y72.426 E14.08399
G1 X153.857 Y72.975 E14.1048
G1 X154.085 Y73.418 E14.12137
G1 X154.345 Y73.952 E14.14112
G1 X154.566 Y74.436 E14.15882
G1 X154.826 Y75.046 E14.18088
G1 X155.015 Y75.519 E14.19782
G1 X155.231 Y76.102 E14.2185
G1 X155.402 Y76.603 E14.2361
G1 X155.594 Y77.213 E14.25737
G1 X155.743 Y77.732 E14.27533
G1 X155.912 Y78.383 E14.2977
G1 X156.026 Y78.871 E14.31437
G1 X156.152 Y79.472 E14.33479
G1 X156.246 Y79.98 E14.35198
G1 X156.346 Y80.608 E14.37313
G1 X156.416 Y81.128 E14.39058
G1 X156.485 Y81.762 E14.41179
G1 X156.527 Y82.262 E14.42848
G1 X156.566 Y82.9 E14.44974
G1 X156.585 Y83.405 E14.46655
G1 X156.6 Y84.589 E14.50593
G1 X156.599 Y150.534 E16.69927
G1 X156.587 Y151.43 E16.72907
G1 X156.556 Y152.283 E16.75746
G1 X156.524 Y152.78 E16.77403
G1 X156.468 Y153.413 E16.79516
G1 X156.405 Y153.957 E16.81338
G1 X156.317 Y154.582 E16.83437
G1 X156.236 Y155.074 E16.85095
G1 X156.118 Y155.698 E16.87208
G1 X156.004 Y156.227 E16.89008
G1 X155.849 Y156.866 E16.91195
G1 X155.721 Y157.346 E16.92847
G1 X155.545 Y157.947 E16.9493
G1 X155.388 Y158.439 E16.96647
G1 X155.178 Y159.045 E16.98781
G1 X154.991 Y159.544 E17.00553
G1 X154.764 Y160.106 E17.02569
G1 X154.551 Y160.596 E17.04346
G1 X154.256 Y161.232 E17.06678
G1 X154.028 Y161.694 E17.08391
G1 X153.747 Y162.23 E17.10404
G1 X153.49 Y162.691 E17.1216
G1 X153.174 Y163.227 E17.14229
G1 X152.924 Y163.631 E17.15809
G1 X152.576 Y164.165 E17.17929
G1 X152.275 Y164.602 E17.19694
G1 X151.921 Y165.09 E17.21699
G1 X151.594 Y165.518 E17.23491
G1 X151.17 Y166.044 E17.25738
G1 X150.843 Y166.43 E17.2742
G1 X150.407 Y166.921 E17.29604
G1 X150.044 Y167.31 E17.31374
G1 X149.61 Y167.752 E17.33434
G1 X149.251 Y168.1 E17.35097
G1 X148.788 Y168.529 E17.37197
G1 X148.38 Y168.889 E17.39006
G1 X147.888 Y169.3 E17.41139
G1 X147.473 Y169.63 E17.42902
G1 X146.945 Y170.028 E17.45101
G1 X146.55 Y170.311 E17.46718
G1 X146.056 Y170.649 E17.48708
G1 X145.604 Y170.942 E17.505
G1 X145.029 Y171.294 E17.52742
G1 X144.568 Y171.56 E17.54513
G1 X144.014 Y171.862 E17.56611
G1 X143.574 Y172.089 E17.58258
G1 X143.039 Y172.349 E17.60236
G1 X142.574 Y172.561 E17.61936
G1 X141.966 Y172.821 E17.64135
G1 X141.482 Y173.014 E17.65868
G1 X140.91 Y173.226 E17.67897
G1 X140.416 Y173.395 E17.69634
G1 X139.795 Y173.591 E17.718
G1 X139.268 Y173.743 E17.73624
G1 X138.617 Y173.912 E17.75861
G1 X138.129 Y174.026 E17.77528
G1 X137.528 Y174.152 E17.7957
G1 X137.025 Y174.245 E17.81272
G1 X136.399 Y174.345 E17.8338
G1 X135.87 Y174.416 E17.85155
G1 X135.234 Y174.485 E17.87283
G1 X134.737 Y174.527 E17.88942
G1 X134.098 Y174.566 E17.91071
G1 X133.595 Y174.585 E17.92745
G1 X132.411 Y174.6 E17.96684
G1 X130.555 Y174.599 E18.02857
G1 X129.858 Y174.589 E18.05175
G1 X128.83 Y174.524 E18.08601
G1 X126.367 Y174.248 E18.16845
G1 X123.839 Y174.034 E18.25283
G1 X121.32 Y173.891 E18.33675
G1 X118.775 Y173.819 E18.42143
G1 X116.264 Y173.819 E18.50494
G1 X113.719 Y173.891 E18.58962
G1 X111.21 Y174.033 E18.67321
G1 X108.658 Y174.25 E18.75839
G1 X106.152 Y174.527 E18.84225
G1 X105.288 Y174.587 E18.87106
G1 X104.67 Y174.6 E18.89162
G1 X102.462 Y174.599 E18.96505
G1 X101.342 Y174.582 E19.00231
G1 X100.777 Y174.56 E19.02112
G1 X100.247 Y174.526 E19.03878
G1 X99.597 Y174.468 E19.06048
G1 X99.078 Y174.409 E19.07786
G1 X98.417 Y174.317 E19.10005
G1 X97.907 Y174.233 E19.11725
G1 X97.294 Y174.117 E19.138
G1 X96.779 Y174.006 E19.15552
G1 X96.182 Y173.862 E19.17594
G1 X95.694 Y173.732 E19.19274
G1 X95.061 Y173.547 E19.21468
G1 X94.563 Y173.388 E19.23206
G1 X94.015 Y173.198 E19.25135
G1 X93.548 Y173.024 E19.26793
G1 X92.896 Y172.763 E19.29129
G1 X92.386 Y172.543 E19.30976
G1 X91.828 Y172.285 E19.33021
G1 X91.389 Y172.07 E19.34647
G1 X90.829 Y171.779 E19.36746
G1 X90.35 Y171.514 E19.38566
G1 X89.793 Y171.187 E19.40715
G1 X89.368 Y170.923 E19.42379
G1 X88.827 Y170.57 E19.44527
G1 X88.393 Y170.272 E19.46278
G1 X87.908 Y169.92 E19.48272
G1 X87.503 Y169.611 E19.49966
G1 X86.968 Y169.182 E19.52247
G1 X86.546 Y168.825 E19.54085
G1 X86.077 Y168.407 E19.56175
G1 X85.704 Y168.058 E19.57874
G1 X85.267 Y167.629 E19.5991
G1 X84.911 Y167.263 E19.61609
G1 X84.455 Y166.77 E19.63842
G1 X84.11 Y166.378 E19.65579
G1 X83.703 Y165.892 E19.67687
G1 X83.374 Y165.478 E19.69446
G1 X82.987 Y164.966 E19.71581
G1 X82.692 Y164.555 E19.73264
G1 X82.353 Y164.059 E19.75262
G1 X82.061 Y163.608 E19.77049
G1 X81.702 Y163.021 E19.79337
G1 X81.457 Y162.599 E19.8096
G1 X81.193 Y162.119 E19.82782
G1 X80.96 Y161.669 E19.84468
G1 X80.664 Y161.064 E19.86708
G1 X80.439 Y160.574 E19.88501
G1 X80.179 Y159.966 E19.90701
G1 X79.987 Y159.486 E19.9242
G1 X79.774 Y158.912 E19.94456
G1 X79.602 Y158.409 E19.96225
G1 X79.407 Y157.79 E19.98383
G1 X79.257 Y157.267 E20.00193
G1 X79.086 Y156.608 E20.02457
G1 X78.972 Y156.123 E20.04114
G1 X78.848 Y155.532 E20.06123
G1 X78.753 Y155.017 E20.07865
G1 X78.653 Y154.387 E20.09986
G1 X78.584 Y153.872 E20.11714
G1 X78.515 Y153.238 E20.13835
