;FLAVOR:Marlin
;TIME:5534
;Filament used: 2.54785m
;Layer height: 0.2
;MINX:81.199
;MINY:58.702
;MINZ:0.2
;MAXX:153.799
;MAXY:176.299
;MAXZ:3.6
;Generated with Cura_SteamEngine 5.2.2
M140 S50
M105
M190 S50
M104 S200
M105
M109 S200
M82 ;absolute extrusion mode
; Ender 3 Custom Start G-code
G92 E0 ; Reset Extruder
G28 ; Home all axes
G1 Z2.0 F3000 ; Move Z Axis up little to prevent scratching of Heat Bed
G1 X0.1 Y20 Z0.3 F5000.0 ; Move to start position
G1 X0.1 Y200.0 Z0.3 F1500.0 E15 ; Draw the first line
G1 X0.4 Y200.0 Z0.3 F5000.0 ; Move to side a little
G1 X0.4 Y20 Z0.3 F1500.0 E30 ; Draw the second line
G92 E0 ; Reset Extruder
G1 Z2.0 F3000 ; Move Z Axis up little to prevent scratching of Heat Bed
G1 X5 Y20 Z0.3 F5000.0 ; Move over to prevent blob squish
G92 E0
G92 E0
G1 F2700 E-5
;LAYER_COUNT:18
;LAYER:0
M107
G0 F6000 X101.809 Y66.494 Z0.2
;TYPE:SKIRT
G1 F2700 E0
G1 F1200 X102.006 Y66.213 E0.01141
G1 X102.346 Y65.753 E0.03044
G1 X102.711 Y65.29 E0.05005
G1 X102.916 Y65.043 E0.06072
G1 X103.292 Y64.615 E0.07967
G1 X103.525 Y64.362 E0.09111
G1 X103.934 Y63.941 E0.11064
G1 X104.355 Y63.533 E0.13013
G1 X104.592 Y63.316 E0.14082
G1 X105.049 Y62.919 E0.16096
G1 X105.5 Y62.553 E0.18027
G1 X105.989 Y62.183 E0.20067
G1 X106.459 Y61.85 E0.21983
G1 X106.745 Y61.658 E0.23129
G1 X107.104 Y61.431 E0.24541
G1 X107.682 Y61.087 E0.26778
G1 X108.029 Y60.893 E0.28101
G1 X108.568 Y60.613 E0.30121
G1 X109.117 Y60.351 E0.32144
G1 X109.646 Y60.12 E0.34064
G1 X109.952 Y59.995 E0.35163
G1 X110.357 Y59.843 E0.36602
G1 X111.003 Y59.62 E0.38875
G1 X111.368 Y59.504 E0.40149
G1 X111.935 Y59.343 E0.42109
G1 X112.268 Y59.258 E0.43252
G1 X112.854 Y59.125 E0.45251
G1 X113.723 Y58.966 E0.48189
G1 X114.317 Y58.883 E0.50184
G1 X114.936 Y58.817 E0.52255
G1 X115.462 Y58.774 E0.5401
G1 X116.167 Y58.732 E0.56359
G1 X117.397 Y58.702 E0.60451
G1 X117.742 Y58.702 E0.61599
G1 X118.655 Y58.724 E0.64636
G1 X119.028 Y58.742 E0.65878
G1 X120.012 Y58.813 E0.6916
G1 X120.816 Y58.9 E0.71849
G1 X121.566 Y59.014 E0.74372
G1 X121.947 Y59.085 E0.75662
G1 X122.744 Y59.262 E0.78377
G1 X123.512 Y59.469 E0.81022
G1 X124.28 Y59.714 E0.83704
G1 X125.021 Y59.986 E0.86329
G1 X125.426 Y60.151 E0.87784
G1 X125.777 Y60.305 E0.89058
G1 X126.492 Y60.645 E0.91692
G1 X127.219 Y61.031 E0.94429
G1 X127.887 Y61.426 E0.97011
G1 X128.413 Y61.765 E0.99092
G1 X128.911 Y62.111 E1.01109
G1 X129.188 Y62.315 E1.02253
G1 X129.67 Y62.691 E1.04286
G1 X130.141 Y63.084 E1.06326
G1 X130.573 Y63.47 E1.08253
G1 X131.021 Y63.898 E1.10314
G1 X131.44 Y64.327 E1.12309
G1 X132.025 Y64.977 E1.15217
G1 X132.417 Y65.452 E1.17266
G1 X132.779 Y65.923 E1.19241
G1 X133.127 Y66.407 E1.21224
G1 X133.321 Y66.692 E1.22371
G1 X133.549 Y67.047 E1.23774
G1 X133.897 Y67.623 E1.26012
G1 X134.248 Y68.254 E1.28414
G1 X134.431 Y68.615 E1.2976
G1 X134.72 Y69.224 E1.32002
G1 X134.878 Y69.581 E1.333
G1 X135.11 Y70.153 E1.35353
G1 X135.357 Y70.84 E1.37782
G1 X135.561 Y71.481 E1.40019
G1 X135.679 Y71.89 E1.41435
G1 X135.765 Y72.222 E1.42576
G1 X135.898 Y72.797 E1.44538
G1 X135.972 Y73.163 E1.4578
G1 X136.088 Y73.824 E1.48013
G1 X136.165 Y74.386 E1.49899
G1 X136.234 Y75.067 E1.52176
G1 X136.269 Y75.561 E1.53823
G1 X136.3 Y76.548 E1.57107
G1 X136.304 Y87.297 E1.92859
G1 X136.359 Y87.692 E1.94185
G1 X136.508 Y88.116 E1.9568
G1 X136.676 Y88.414 E1.96818
G1 X150.276 Y106.683 E2.72569
G1 X150.681 Y107.254 E2.74897
G1 X151.148 Y107.972 E2.77746
G1 X151.348 Y108.304 E2.79035
G1 X151.777 Y109.076 E2.81973
G1 X151.991 Y109.498 E2.83546
G1 X152.17 Y109.877 E2.8494
G1 X152.503 Y110.651 E2.87743
G1 X152.681 Y111.109 E2.89377
G1 X152.82 Y111.497 E2.90748
G1 X153.082 Y112.321 E2.93624
G1 X153.213 Y112.794 E2.95256
G1 X153.304 Y113.156 E2.96498
G1 X153.413 Y113.638 E2.98141
G1 X153.572 Y114.493 E3.01034
G1 X153.632 Y114.892 E3.02376
G1 X153.728 Y115.744 E3.05228
G1 X153.765 Y116.234 E3.06862
G1 X153.785 Y116.632 E3.08187
G1 X153.799 Y117.316 E3.10463
G1 X153.797 Y129.197 E3.49979
G1 X153.769 Y130.934 E3.55757
G1 X153.653 Y133.264 E3.63516
G1 X153.471 Y135.385 E3.70597
G1 X153.217 Y137.493 E3.77659
G1 X152.937 Y139.317 E3.83797
G1 X152.549 Y141.39 E3.90811
G1 X152.022 Y143.719 E3.98753
G1 X151.48 Y145.742 E4.05719
G1 X150.957 Y147.46 E4.11692
G1 X150.29 Y149.412 E4.18553
G1 X149.551 Y151.334 E4.25402
G1 X149.435 Y151.618 E4.26422
G1 X148.742 Y153.217 E4.32218
G1 X147.87 Y155.045 E4.38955
G1 X147.733 Y155.316 E4.39965
G1 X146.906 Y156.872 E4.45826
G1 X146.328 Y157.885 E4.49705
G1 X145.518 Y159.212 E4.54876
G1 X144.786 Y160.334 E4.59331
G1 X144.033 Y161.416 E4.63716
G1 X143.274 Y162.441 E4.67958
G1 X142.614 Y163.283 E4.71516
G1 X141.786 Y164.281 E4.75829
G1 X140.731 Y165.465 E4.81104
G1 X139.859 Y166.378 E4.85303
G1 X139.127 Y167.099 E4.8872
G1 X138.199 Y167.961 E4.92933
G1 X136.992 Y168.997 E4.98223
G1 X136.243 Y169.597 E5.01415
G1 X135.228 Y170.357 E5.05633
G1 X134.985 Y170.531 E5.06627
G1 X133.925 Y171.252 E5.10891
G1 X133.138 Y171.752 E5.13992
G1 X132.875 Y171.911 E5.15014
G1 X131.755 Y172.556 E5.19313
G1 X130.916 Y173.001 E5.22471
G1 X129.823 Y173.533 E5.26514
G1 X128.658 Y174.045 E5.30747
G1 X127.501 Y174.498 E5.3488
G1 X126.348 Y174.895 E5.38935
G1 X126.043 Y174.991 E5.39999
G1 X124.82 Y175.343 E5.44232
G1 X123.937 Y175.562 E5.47258
G1 X122.754 Y175.809 E5.51277
G1 X122.422 Y175.869 E5.52399
G1 X121.5 Y176.015 E5.55504
G1 X121.163 Y176.061 E5.56635
G1 X120.268 Y176.163 E5.59631
G1 X119.932 Y176.194 E5.60754
G1 X119.036 Y176.257 E5.63741
G1 X118.698 Y176.273 E5.64867
G1 X117.801 Y176.297 E5.67851
G1 X117.466 Y176.299 E5.68965
G1 X116.598 Y176.285 E5.71853
G1 X115.367 Y176.219 E5.75953
G1 X115.023 Y176.191 E5.77101
G1 X114.127 Y176.098 E5.80097
G1 X113.799 Y176.057 E5.81196
G1 X112.907 Y175.926 E5.84195
G1 X112.568 Y175.869 E5.85338
G1 X111.678 Y175.698 E5.88353
G1 X110.472 Y175.42 E5.92469
G1 X110.155 Y175.338 E5.93558
G1 X108.955 Y174.994 E5.9771
G1 X108.083 Y174.708 E6.00762
G1 X106.808 Y174.236 E6.05284
G1 X106.451 Y174.092 E6.06565
G1 X105.393 Y173.634 E6.10399
G1 X105.052 Y173.477 E6.11648
G1 X104.008 Y172.964 E6.15517
G1 X103.676 Y172.79 E6.16763
G1 X102.646 Y172.221 E6.20677
G1 X102.317 Y172.029 E6.21944
G1 X101.306 Y171.404 E6.25897
G1 X101.012 Y171.213 E6.27063
G1 X100.018 Y170.535 E6.31065
G1 X99.727 Y170.326 E6.32257
G1 X98.753 Y169.594 E6.36309
G1 X98.487 Y169.385 E6.37434
G1 X97.533 Y168.601 E6.41541
G1 X97.278 Y168.382 E6.42659
G1 X96.349 Y167.549 E6.4681
G1 X96.094 Y167.31 E6.47972
G1 X95.09 Y166.325 E6.5265
G1 X94.837 Y166.065 E6.53857
G1 X93.756 Y164.901 E6.5914
G1 X93.502 Y164.614 E6.60415
G1 X92.463 Y163.379 E6.65783
G1 X92.234 Y163.093 E6.67001
G1 X91.24 Y161.792 E6.72447
G1 X91.028 Y161.502 E6.73642
G1 X90.08 Y160.135 E6.79175
G1 X89.893 Y159.851 E6.80306
G1 X88.993 Y158.424 E6.85917
G1 X88.816 Y158.13 E6.87058
G1 X87.967 Y156.643 E6.92754
G1 X87.805 Y156.345 E6.93882
G1 X86.923 Y154.631 E7.00293
G1 X86.759 Y154.293 E7.01543
G1 X85.858 Y152.313 E7.08778
G1 X85.71 Y151.965 E7.10036
G1 X84.895 Y149.916 E7.1737
G1 X84.766 Y149.568 E7.18604
G1 X84.04 Y147.455 E7.26035
G1 X83.931 Y147.112 E7.27232
G1 X83.296 Y144.943 E7.34749
G1 X83.203 Y144.594 E7.35951
G1 X82.664 Y142.378 E7.43536
G1 X82.591 Y142.046 E7.44667
G1 X82.145 Y139.787 E7.52325
G1 X82.085 Y139.447 E7.53473
G1 X81.737 Y137.156 E7.61181
G1 X81.694 Y136.82 E7.62307
G1 X81.445 Y134.506 E7.70048
G1 X81.416 Y134.172 E7.71163
G1 X81.266 Y131.842 E7.78929
G1 X81.252 Y131.508 E7.80041
G1 X81.2 Y129.001 E7.88381
G1 X81.199 Y117.305 E8.27282
G1 X81.215 Y116.605 E8.29611
G1 X81.233 Y116.239 E8.3083
G1 X81.269 Y115.749 E8.32464
G1 X81.31 Y115.34 E8.33831
G1 X81.425 Y114.498 E8.36657
G1 X81.509 Y114.014 E8.38291
G1 X81.583 Y113.643 E8.3955
G1 X81.691 Y113.161 E8.41192
G1 X81.792 Y112.759 E8.42571
G1 X81.925 Y112.285 E8.44208
G1 X82.038 Y111.916 E8.45492
G1 X82.194 Y111.45 E8.47126
G1 X82.497 Y110.647 E8.49981
G1 X82.647 Y110.286 E8.51281
G1 X82.848 Y109.836 E8.5292
G1 X83.227 Y109.067 E8.55772
G1 X83.406 Y108.733 E8.57032
G1 X83.655 Y108.295 E8.58708
G1 X83.86 Y107.955 E8.60029
G1 X84.322 Y107.246 E8.62843
G1 X84.605 Y106.845 E8.64476
G1 X98.22 Y88.557 E9.40307
G1 X98.45 Y88.218 E9.4167
G1 X98.602 Y87.829 E9.43059
G1 X98.695 Y87.415 E9.4447
G1 X98.699 Y76.537 E9.8065
G1 X98.711 Y75.915 E9.8272
G1 X98.755 Y75.135 E9.85318
G1 X98.789 Y74.767 E9.86547
G1 X98.888 Y73.962 E9.89245
G1 X98.959 Y73.517 E9.90744
G1 X99.103 Y72.772 E9.93267
G1 X99.196 Y72.368 E9.94646
G1 X99.312 Y71.918 E9.96192
G1 X99.532 Y71.17 E9.98785
G1 X99.646 Y70.823 E10
G1 X99.908 Y70.102 E10.02551
G1 X100.072 Y69.693 E10.04017
G1 X100.222 Y69.344 E10.0528
G1 X100.416 Y68.921 E10.06828
G1 X100.722 Y68.306 E10.09113
G1 X100.917 Y67.946 E10.10475
G1 X101.254 Y67.362 E10.12717
G1 X101.451 Y67.04 E10.13973
G1 X101.809 Y66.494 E10.16144
G0 F6000 X102.137 Y66.724
G1 F1200 X102.468 Y66.258 E10.18046
G1 X102.809 Y65.808 E10.19923
G1 X103.023 Y65.54 E10.21064
G1 X103.442 Y65.048 E10.23213
G1 X103.986 Y64.458 E10.25883
G1 X104.383 Y64.059 E10.27755
G1 X104.856 Y63.616 E10.2991
G1 X105.303 Y63.228 E10.31879
G1 X105.744 Y62.87 E10.33768
G1 X106.222 Y62.508 E10.35762
G1 X106.682 Y62.182 E10.37638
G1 X106.968 Y61.99 E10.38783
G1 X107.308 Y61.775 E10.40121
G1 X107.886 Y61.431 E10.42358
G1 X108.216 Y61.246 E10.43617
G1 X108.742 Y60.973 E10.45588
G1 X109.051 Y60.823 E10.4673
G1 X109.593 Y60.578 E10.48709
G1 X110.104 Y60.366 E10.50549
G1 X110.487 Y60.221 E10.51911
G1 X111.133 Y59.998 E10.54184
G1 X111.795 Y59.796 E10.56486
G1 X112.367 Y59.646 E10.58453
G1 X112.94 Y59.516 E10.60407
G1 X113.548 Y59.4 E10.62466
G1 X114.106 Y59.314 E10.64343
G1 X114.744 Y59.237 E10.66481
G1 X115.679 Y59.16 E10.69601
G1 X116.46 Y59.12 E10.72202
G1 X117.405 Y59.101 E10.75346
G1 X117.732 Y59.102 E10.76433
G1 X118.645 Y59.124 E10.79471
G1 X119 Y59.141 E10.80653
G1 X119.984 Y59.212 E10.83934
G1 X120.769 Y59.297 E10.86561
G1 X121.502 Y59.409 E10.89027
G1 X121.863 Y59.476 E10.90248
G1 X122.32 Y59.573 E10.91802
G1 X123.083 Y59.764 E10.94418
G1 X123.825 Y59.984 E10.96992
G1 X124.57 Y60.242 E10.99614
G1 X125.275 Y60.522 E11.02137
G1 X125.608 Y60.667 E11.03345
G1 X126.033 Y60.865 E11.04905
G1 X126.711 Y61.209 E11.07433
G1 X127.018 Y61.377 E11.08597
G1 X127.672 Y61.763 E11.11123
G1 X128.187 Y62.095 E11.13161
G1 X128.674 Y62.434 E11.15135
G1 X129.154 Y62.792 E11.17126
G1 X129.619 Y63.165 E11.19109
G1 X129.883 Y63.389 E11.20261
G1 X130.305 Y63.766 E11.22143
G1 X130.914 Y64.357 E11.24965
G1 X131.327 Y64.792 E11.2696
G1 X131.558 Y65.049 E11.2811
G1 X131.929 Y65.485 E11.30014
G1 X132.314 Y65.97 E11.32073
G1 X132.658 Y66.436 E11.34
G1 X132.99 Y66.917 E11.35944
G1 X133.207 Y67.254 E11.37277
G1 X133.555 Y67.83 E11.39515
G1 X133.896 Y68.444 E11.41851
G1 X134.069 Y68.786 E11.43126
G1 X134.358 Y69.395 E11.45368
G1 X134.64 Y70.05 E11.4774
G1 X134.855 Y70.614 E11.49747
G1 X134.976 Y70.961 E11.5097
G1 X135.18 Y71.602 E11.53207
G1 X135.292 Y71.99 E11.5455
G1 X135.378 Y72.322 E11.55691
G1 X135.508 Y72.885 E11.57613
G1 X135.578 Y73.232 E11.5879
G1 X135.694 Y73.893 E11.61022
G1 X135.767 Y74.426 E11.62811
G1 X135.836 Y75.107 E11.65088
G1 X135.869 Y75.576 E11.66652
G1 X135.9 Y76.548 E11.69886
G1 X135.899 Y87.106 E12.05002
G1 X135.914 Y87.444 E12.06128
G1 X135.968 Y87.811 E12.07361
G1 X136.095 Y88.17 E12.08628
G1 X136.215 Y88.424 E12.09562
G1 X136.37 Y88.679 E12.10555
G1 X149.955 Y106.922 E12.86207
G1 X150.354 Y107.484 E12.88499
G1 X150.811 Y108.187 E12.91288
G1 X151 Y108.502 E12.9251
G1 X151.42 Y109.257 E12.95383
G1 X151.634 Y109.679 E12.96957
G1 X151.804 Y110.039 E12.98281
G1 X152.13 Y110.796 E13.01023
G1 X152.308 Y111.254 E13.02657
G1 X152.44 Y111.622 E13.03957
G1 X152.697 Y112.428 E13.06771
G1 X152.828 Y112.901 E13.08403
G1 X153.023 Y113.726 E13.11223
G1 X153.178 Y114.562 E13.14051
G1 X153.235 Y114.941 E13.15326
G1 X153.329 Y115.774 E13.18114
G1 X153.366 Y116.264 E13.19748
G1 X153.385 Y116.641 E13.21004
G1 X153.399 Y117.316 E13.23249
G1 X153.397 Y129.19 E13.62742
G1 X153.361 Y131.176 E13.69349
G1 X153.271 Y132.982 E13.75363
G1 X153.074 Y135.338 E13.83227
G1 X152.856 Y137.179 E13.89393
G1 X152.498 Y139.511 E13.9724
G1 X152.156 Y141.316 E14.0335
G1 X151.701 Y143.348 E14.10276
G1 X151.097 Y145.625 E14.18111
G1 X150.492 Y147.598 E14.24975
G1 X149.912 Y149.282 E14.30899
G1 X149.178 Y151.19 E14.37698
G1 X149.068 Y151.459 E14.38665
G1 X148.375 Y153.058 E14.44461
G1 X147.38 Y155.129 E14.52103
G1 X146.672 Y156.467 E14.57138
G1 X145.869 Y157.875 E14.62529
G1 X145.289 Y158.825 E14.66231
G1 X144.457 Y160.107 E14.71314
G1 X143.835 Y161.005 E14.74947
G1 X142.959 Y162.194 E14.79859
G1 X142.158 Y163.211 E14.84165
G1 X141.32 Y164.209 E14.88499
G1 X140.441 Y165.19 E14.9288
G1 X139.578 Y166.093 E14.97035
G1 X138.674 Y166.978 E15.01243
G1 X137.719 Y167.853 E15.05551
G1 X136.927 Y168.531 E15.09018
G1 X135.993 Y169.284 E15.13009
G1 X134.99 Y170.036 E15.17178
G1 X133.926 Y170.772 E15.21481
G1 X132.923 Y171.414 E15.25442
G1 X131.819 Y172.063 E15.29701
G1 X130.728 Y172.647 E15.33817
G1 X130.469 Y172.778 E15.34782
G1 X129.385 Y173.294 E15.38776
G1 X128.499 Y173.678 E15.41987
G1 X127.357 Y174.125 E15.46066
G1 X127.063 Y174.231 E15.47106
G1 X125.93 Y174.608 E15.51077
G1 X125.022 Y174.874 E15.54224
G1 X123.84 Y175.173 E15.58279
G1 X123.531 Y175.243 E15.59333
G1 X122.359 Y175.474 E15.63306
G1 X121.437 Y175.62 E15.66411
G1 X121.118 Y175.663 E15.67482
G1 X119.904 Y175.795 E15.71543
G1 X119.008 Y175.858 E15.74531
G1 X117.79 Y175.897 E15.78584
G1 X117.473 Y175.899 E15.79638
G1 X116.605 Y175.885 E15.82525
G1 X116.287 Y175.873 E15.83584
G1 X115.391 Y175.82 E15.86569
G1 X115.064 Y175.793 E15.8766
G1 X113.857 Y175.661 E15.91699
G1 X112.644 Y175.476 E15.9578
G1 X111.449 Y175.24 E15.99831
G1 X110.564 Y175.031 E16.02856
G1 X109.384 Y174.706 E16.06927
G1 X109.08 Y174.613 E16.07984
G1 X107.913 Y174.224 E16.12075
G1 X106.949 Y173.862 E16.155
G1 X106.61 Y173.725 E16.16716
G1 X105.552 Y173.267 E16.20551
G1 X105.229 Y173.118 E16.21734
G1 X104.185 Y172.605 E16.25603
G1 X103.87 Y172.44 E16.26786
G1 X102.84 Y171.871 E16.30699
G1 X102.527 Y171.688 E16.31905
G1 X101.516 Y171.063 E16.35859
G1 X101.237 Y170.882 E16.36965
G1 X100.243 Y170.204 E16.40967
G1 X99.967 Y170.007 E16.42095
G1 X98.993 Y169.275 E16.46147
G1 X97.787 Y168.292 E16.51322
G1 X97.545 Y168.085 E16.52381
G1 X96.616 Y167.252 E16.56531
G1 X96.374 Y167.024 E16.57637
G1 X95.37 Y166.039 E16.62315
G1 X95.13 Y165.793 E16.63458
G1 X94.049 Y164.629 E16.68742
G1 X93.808 Y164.357 E16.6995
G1 X92.769 Y163.122 E16.75318
G1 X92.552 Y162.851 E16.76473
G1 X91.558 Y161.55 E16.81918
G1 X91.357 Y161.274 E16.83054
G1 X90.409 Y159.907 E16.88587
G1 X90.231 Y159.638 E16.8966
G1 X89.331 Y158.211 E16.95271
G1 X89.164 Y157.932 E16.96353
G1 X88.315 Y156.445 E17.02048
G1 X88.161 Y156.162 E17.03119
G1 X87.279 Y154.448 E17.09531
G1 X87.124 Y154.127 E17.10716
G1 X86.223 Y152.147 E17.17952
G1 X86.082 Y151.817 E17.19145
G1 X85.267 Y149.768 E17.2648
G1 X85.145 Y149.438 E17.2765
G1 X84.419 Y147.325 E17.35081
G1 X84.315 Y146.999 E17.36219
G1 X83.68 Y144.83 E17.43736
G1 X83.592 Y144.5 E17.44872
G1 X83.053 Y142.284 E17.52457
G1 X82.983 Y141.968 E17.53534
G1 X82.537 Y139.709 E17.61192
G1 X82.481 Y139.387 E17.62279
G1 X82.133 Y137.096 E17.69987
G1 X82.091 Y136.777 E17.71057
G1 X81.842 Y134.463 E17.78797
G1 X81.815 Y134.146 E17.79856
G1 X81.665 Y131.816 E17.87621
G1 X81.652 Y131.499 E17.88677
G1 X81.6 Y129.001 E17.96987
G1 X81.599 Y117.305 E18.35888
G1 X81.615 Y116.616 E18.3818
G1 X81.668 Y115.779 E18.40969
G1 X81.707 Y115.39 E18.4227
G1 X81.819 Y114.567 E18.45032
G1 X81.973 Y113.73 E18.47863
G1 X82.081 Y113.248 E18.49506
G1 X82.177 Y112.867 E18.50813
G1 X82.31 Y112.393 E18.5245
G1 X82.418 Y112.043 E18.53668
G1 X82.692 Y111.25 E18.56459
G1 X83.012 Y110.449 E18.59328
G1 X83.213 Y109.999 E18.60967
G1 X83.584 Y109.248 E18.63753
G1 X83.754 Y108.931 E18.64949
G1 X84.003 Y108.493 E18.66625
G1 X84.197 Y108.17 E18.67878
G1 X84.649 Y107.477 E18.7063
G1 X85.043 Y106.923 E18.72891
G1 X98.65 Y88.643 E19.48686
G1 X98.907 Y88.194 E19.50406
G1 X99.042 Y87.743 E19.51972
G1 X99.095 Y87.305 E19.53439
G1 X99.099 Y76.537 E19.89254
G1 X99.111 Y75.924 E19.91293
G1 X99.154 Y75.162 E19.93832
