;FLAVOR:Marlin
;TIME:5481
;Filament used: 4.0874m
;Layer height: 0.2
;MINX:78
;MINY:60.003
;MINZ:0.2
;MAXX:157
;MAXY:174.997
;MAXZ:3
;Generated with Cura_SteamEngine 5.2.2
M140 S50
M105
M190 S50
M104 S200
M105
M109 S200
M82 ;absolute extrusion mode
; Ender 3 Custom Start G-code
G92 E0 ; Reset Extruder
G28 ; Home all axes
G1 Z2.0 F3000 ; Move Z Axis up little to prevent scratching of Heat Bed
G1 X0.1 Y20 Z0.3 F5000.0 ; Move to start position
G1 X0.1 Y200.0 Z0.3 F1500.0 E15 ; Draw the first line
G1 X0.4 Y200.0 Z0.3 F5000.0 ; Move to side a little
G1 X0.4 Y20 Z0.3 F1500.0 E30 ; Draw the second line
G92 E0 ; Reset Extruder
G1 Z2.0 F3000 ; Move Z Axis up little to prevent scratching of Heat Bed
G1 X5 Y20 Z0.3 F5000.0 ; Move over to prevent blob squish
G92 E0
G92 E0
G1 F2700 E-5
;LAYER_COUNT:15
;LAYER:0
M107
G0 F6000 X83.551 Y68.665 Z0.2
;TYPE:SKIRT
G1 F2700 E0
G1 F1200 X83.88 Y68.277 E0.01692
G1 X84.304 Y67.801 E0.03812
G1 X84.68 Y67.4 E0.0564
G1 X85.128 Y66.945 E0.07764
G1 X85.506 Y66.579 E0.09514
G1 X85.96 Y66.16 E0.11569
G1 X86.356 Y65.812 E0.13323
G1 X86.843 Y65.404 E0.15436
G1 X87.283 Y65.054 E0.17306
G1 X87.812 Y64.655 E0.19509
G1 X88.224 Y64.359 E0.21197
G1 X88.718 Y64.021 E0.23188
G1 X89.192 Y63.714 E0.25066
G1 X89.771 Y63.36 E0.27323
G1 X90.242 Y63.088 E0.29132
G1 X90.792 Y62.788 E0.31216
G1 X91.251 Y62.551 E0.32934
G1 X91.786 Y62.291 E0.34912
G1 X92.269 Y62.071 E0.36678
G1 X92.877 Y61.811 E0.38877
G1 X93.379 Y61.611 E0.40674
G1 X93.951 Y61.399 E0.42703
G1 X94.463 Y61.223 E0.44504
G1 X95.084 Y61.027 E0.4667
G1 X95.631 Y60.87 E0.48563
G1 X96.282 Y60.701 E0.508
G1 X96.789 Y60.582 E0.52532
G1 X97.39 Y60.456 E0.54574
G1 X97.915 Y60.359 E0.5635
G1 X98.542 Y60.259 E0.58462
G1 X99.086 Y60.186 E0.60287
G1 X99.721 Y60.117 E0.62412
G1 X100.239 Y60.073 E0.64141
G1 X100.878 Y60.034 E0.6627
G1 X101.387 Y60.015 E0.67964
G1 X102.003 Y60.006 E0.70013
G1 X102.701 Y60.013 E0.72335
G1 X104.032 Y60.117 E0.76775
G1 X106.164 Y60.415 E0.83935
G1 X108.683 Y60.701 E0.92367
G1 X111.19 Y60.915 E1.00736
G1 X113.706 Y61.057 E1.09117
G1 X116.201 Y61.129 E1.17419
G1 X118.725 Y61.129 E1.25814
G1 X121.275 Y61.058 E1.34299
G1 X123.739 Y60.918 E1.42507
G1 X126.276 Y60.703 E1.50976
G1 X128.787 Y60.418 E1.59381
G1 X131.054 Y60.105 E1.66993
G1 X131.988 Y60.017 E1.70113
G1 X132.708 Y60.003 E1.72508
G1 X133.447 Y60.013 E1.74966
G1 X134.329 Y60.046 E1.77902
G1 X134.845 Y60.08 E1.79622
G1 X135.456 Y60.135 E1.81662
G1 X135.988 Y60.196 E1.83443
G1 X136.634 Y60.286 E1.85612
G1 X137.159 Y60.372 E1.87382
G1 X137.778 Y60.489 E1.89477
G1 X138.335 Y60.61 E1.91373
G1 X138.968 Y60.764 E1.9354
G1 X139.464 Y60.897 E1.95248
G1 X140.064 Y61.073 E1.97327
G1 X140.554 Y61.229 E1.99038
G1 X141.163 Y61.439 E2.0118
G1 X141.712 Y61.645 E2.03131
G1 X142.274 Y61.873 E2.05148
G1 X142.772 Y62.089 E2.06953
G1 X143.39 Y62.376 E2.0922
G1 X143.854 Y62.605 E2.10941
G1 X144.399 Y62.89 E2.12986
G1 X144.879 Y63.157 E2.14813
G1 X145.423 Y63.477 E2.16912
G1 X145.855 Y63.745 E2.18603
G1 X146.387 Y64.092 E2.20716
G1 X146.837 Y64.401 E2.22531
G1 X147.325 Y64.755 E2.24536
G1 X147.769 Y65.095 E2.26396
G1 X148.295 Y65.519 E2.28643
G1 X148.696 Y65.858 E2.3039
G1 X149.187 Y66.294 E2.32574
G1 X149.601 Y66.681 E2.34459
G1 X150.055 Y67.128 E2.36578
G1 X150.414 Y67.499 E2.38295
G1 X150.83 Y67.949 E2.40333
G1 X151.207 Y68.379 E2.42235
G1 X151.644 Y68.904 E2.44507
G1 X151.964 Y69.306 E2.46216
G1 X152.33 Y69.79 E2.48234
G1 X152.637 Y70.217 E2.49984
G1 X152.974 Y70.71 E2.5197
G1 X153.273 Y71.172 E2.538
G1 X153.635 Y71.763 E2.56105
G1 X153.908 Y72.234 E2.57916
G1 X154.208 Y72.783 E2.59997
G1 X154.445 Y73.243 E2.61718
G1 X154.705 Y73.777 E2.63693
G1 X154.934 Y74.279 E2.65528
G1 X155.194 Y74.889 E2.67734
G1 X155.39 Y75.38 E2.69492
G1 X155.606 Y75.963 E2.7156
G1 X155.784 Y76.482 E2.73385
G1 X155.976 Y77.092 E2.75512
G1 X156.13 Y77.631 E2.77376
G1 X156.299 Y78.282 E2.79613
G1 X156.418 Y78.789 E2.81346
G1 X156.544 Y79.39 E2.83388
G1 X156.641 Y79.917 E2.8517
G1 X156.741 Y80.545 E2.87285
G1 X156.813 Y81.085 E2.89097
G1 X156.882 Y81.719 E2.91218
G1 X156.927 Y82.238 E2.92951
G1 X156.966 Y82.876 E2.95077
G1 X156.985 Y83.399 E2.96818
G1 X157 Y84.589 E3.00776
G1 X156.999 Y150.539 E5.20127
G1 X156.979 Y151.741 E5.24125
G1 X156.956 Y152.299 E5.25982
G1 X156.922 Y152.815 E5.27702
G1 X156.866 Y153.448 E5.29816
G1 X156.802 Y154.013 E5.31707
G1 X156.714 Y154.638 E5.33806
G1 X156.629 Y155.148 E5.35526
G1 X156.511 Y155.772 E5.37638
G1 X156.393 Y156.321 E5.39506
G1 X156.238 Y156.96 E5.41693
G1 X156.105 Y157.458 E5.43407
G1 X155.929 Y158.059 E5.4549
G1 X155.766 Y158.57 E5.47274
G1 X155.556 Y159.176 E5.49407
G1 X155.361 Y159.694 E5.51248
G1 X155.134 Y160.256 E5.53264
G1 X154.914 Y160.765 E5.55109
G1 X154.619 Y161.401 E5.5744
G1 X154.382 Y161.879 E5.59215
G1 X154.101 Y162.415 E5.61228
G1 X153.835 Y162.894 E5.6305
G1 X153.519 Y163.43 E5.6512
G1 X153.259 Y163.85 E5.66763
G1 X152.911 Y164.384 E5.68882
G1 X152.599 Y164.837 E5.70712
G1 X152.245 Y165.325 E5.72717
G1 X151.905 Y165.769 E5.74577
G1 X151.481 Y166.295 E5.76824
G1 X151.142 Y166.696 E5.78571
G1 X150.706 Y167.187 E5.80755
G1 X150.33 Y167.59 E5.82588
G1 X149.896 Y168.032 E5.84648
G1 X149.523 Y168.394 E5.86377
G1 X149.06 Y168.823 E5.88476
G1 X148.636 Y169.196 E5.90355
G1 X148.144 Y169.607 E5.92487
G1 X147.713 Y169.949 E5.94317
G1 X147.185 Y170.347 E5.96516
G1 X146.776 Y170.641 E5.98191
G1 X146.282 Y170.979 E6.00182
G1 X145.813 Y171.283 E6.02041
G1 X145.238 Y171.635 E6.04283
G1 X144.76 Y171.911 E6.06119
G1 X144.206 Y172.213 E6.08218
G1 X143.749 Y172.449 E6.09929
G1 X143.214 Y172.709 E6.11907
G1 X142.731 Y172.929 E6.13672
G1 X142.123 Y173.189 E6.15872
G1 X141.621 Y173.389 E6.17669
G1 X141.049 Y173.601 E6.19698
G1 X140.537 Y173.777 E6.21499
G1 X139.916 Y173.973 E6.23664
G1 X139.369 Y174.13 E6.25557
G1 X138.718 Y174.299 E6.27794
G1 X138.211 Y174.418 E6.29526
G1 X137.61 Y174.544 E6.31569
G1 X137.088 Y174.64 E6.33334
G1 X136.462 Y174.74 E6.35443
G1 X135.913 Y174.814 E6.37285
G1 X135.277 Y174.883 E6.39413
G1 X134.761 Y174.927 E6.41135
G1 X134.122 Y174.966 E6.43265
G1 X133.613 Y174.985 E6.44959
G1 X132.997 Y174.994 E6.47008
G1 X132.299 Y174.987 E6.49329
G1 X130.968 Y174.883 E6.5377
G1 X128.836 Y174.585 E6.6093
G1 X126.317 Y174.299 E6.69362
G1 X123.81 Y174.085 E6.7773
G1 X121.294 Y173.943 E6.86112
G1 X118.799 Y173.871 E6.94414
G1 X116.275 Y173.871 E7.02809
G1 X113.725 Y173.942 E7.11293
G1 X111.261 Y174.082 E7.19502
G1 X108.724 Y174.297 E7.2797
G1 X106.213 Y174.582 E7.36375
G1 X103.946 Y174.895 E7.43987
G1 X103.012 Y174.983 E7.47107
G1 X102.313 Y174.997 E7.49433
G1 X101.326 Y174.982 E7.52716
G1 X100.761 Y174.96 E7.54596
G1 X100.211 Y174.924 E7.5643
G1 X99.561 Y174.866 E7.586
G1 X99.023 Y174.805 E7.60401
G1 X98.362 Y174.713 E7.62621
G1 X97.833 Y174.626 E7.64404
G1 X97.22 Y174.51 E7.66479
G1 X96.686 Y174.395 E7.68296
G1 X96.089 Y174.251 E7.70338
G1 X95.582 Y174.116 E7.72083
G1 X94.949 Y173.931 E7.74277
G1 X94.432 Y173.766 E7.76082
G1 X93.884 Y173.576 E7.78011
G1 X93.399 Y173.395 E7.79733
G1 X92.747 Y173.134 E7.82068
G1 X92.219 Y172.906 E7.83981
G1 X91.661 Y172.648 E7.86026
G1 X91.205 Y172.425 E7.87714
G1 X90.645 Y172.134 E7.89813
G1 X90.148 Y171.859 E7.91703
G1 X89.591 Y171.532 E7.93851
G1 X89.149 Y171.258 E7.9558
G1 X88.608 Y170.905 E7.97729
G1 X88.158 Y170.595 E7.99546
G1 X87.673 Y170.243 E8.0154
G1 X87.253 Y169.923 E8.03296
G1 X86.718 Y169.494 E8.05577
G1 X86.28 Y169.124 E8.07484
G1 X85.811 Y168.706 E8.09573
G1 X85.424 Y168.344 E8.11336
G1 X84.987 Y167.915 E8.13373
G1 X84.618 Y167.534 E8.15137
G1 X84.162 Y167.041 E8.1737
G1 X83.804 Y166.634 E8.19173
G1 X83.397 Y166.148 E8.21282
G1 X83.055 Y165.719 E8.23106
G1 X82.668 Y165.207 E8.25241
G1 X82.361 Y164.781 E8.26987
G1 X82.022 Y164.285 E8.28986
G1 X81.72 Y163.817 E8.30838
G1 X81.361 Y163.23 E8.33127
G1 X81.107 Y162.792 E8.34811
G1 X80.843 Y162.312 E8.36633
G1 X80.6 Y161.845 E8.38384
G1 X80.304 Y161.24 E8.40624
G1 X80.071 Y160.731 E8.42486
G1 X79.811 Y160.123 E8.44685
G1 X79.612 Y159.625 E8.46469
G1 X79.399 Y159.051 E8.48505
G1 X79.22 Y158.529 E8.50341
G1 X79.025 Y157.91 E8.52499
G1 X78.87 Y157.368 E8.54374
G1 X78.699 Y156.709 E8.56639
G1 X78.58 Y156.205 E8.58361
G1 X78.456 Y155.614 E8.60369
G1 X78.358 Y155.079 E8.62178
G1 X78.258 Y154.449 E8.643
G1 X78.187 Y153.915 E8.66092
G1 X78.118 Y153.281 E8.68213
G1 X78.073 Y152.761 E8.69949
G1 X78.034 Y152.122 E8.72078
G1 X78.015 Y151.6 E8.73815
G1 X78 Y150.411 E8.7777
G1 X78.001 Y84.455 E10.97141
G1 X78.013 Y83.576 E11.00065
G1 X78.043 Y82.736 E11.0286
G1 X78.077 Y82.2 E11.04647
G1 X78.136 Y81.536 E11.06864
G1 X78.199 Y80.987 E11.08702
G1 X78.285 Y80.372 E11.10767
G1 X78.37 Y79.854 E11.12513
G1 X78.485 Y79.245 E11.14575
G1 X78.6 Y78.71 E11.16395
G1 X78.758 Y78.054 E11.18639
G1 X78.901 Y77.519 E11.20481
G1 X79.077 Y76.922 E11.22551
G1 X79.236 Y76.428 E11.24277
G1 X79.44 Y75.84 E11.26347
G1 X79.637 Y75.315 E11.28212
G1 X79.889 Y74.693 E11.30444
G1 X80.097 Y74.212 E11.32187
G1 X80.356 Y73.651 E11.34242
G1 X80.599 Y73.159 E11.36067
G1 X80.897 Y72.59 E11.38204
G1 X81.162 Y72.112 E11.40022
G1 X81.487 Y71.56 E11.42152
G1 X81.76 Y71.12 E11.43874
G1 X82.106 Y70.591 E11.45977
G1 X82.422 Y70.133 E11.47827
G1 X82.809 Y69.602 E11.50013
G1 X83.156 Y69.152 E11.51903
G1 X83.551 Y68.665 E11.53988
G0 F6000 X83.862 Y68.917
G1 F1200 X84.179 Y68.543 E11.55619
G1 X84.603 Y68.067 E11.57739
G1 X84.965 Y67.681 E11.59499
G1 X85.413 Y67.226 E11.61623
G1 X85.777 Y66.873 E11.6331
G1 X86.231 Y66.454 E11.65364
G1 X86.613 Y66.119 E11.67054
G1 X87.1 Y65.711 E11.69167
G1 X87.524 Y65.373 E11.70971
G1 X88.053 Y64.974 E11.73175
G1 X88.45 Y64.689 E11.748
G1 X88.944 Y64.351 E11.76791
G1 X89.401 Y64.055 E11.78602
G1 X89.98 Y63.701 E11.80859
G1 X90.433 Y63.439 E11.826
G1 X90.983 Y63.139 E11.84683
G1 X91.426 Y62.911 E11.86341
G1 X91.961 Y62.651 E11.88319
G1 X92.426 Y62.439 E11.90019
G1 X93.034 Y62.179 E11.92218
G1 X93.518 Y61.986 E11.93951
G1 X94.09 Y61.774 E11.9598
G1 X94.584 Y61.605 E11.97717
G1 X95.205 Y61.409 E11.99882
G1 X95.732 Y61.257 E12.01707
G1 X96.383 Y61.088 E12.03944
G1 X96.871 Y60.974 E12.05611
G1 X97.472 Y60.848 E12.07653
G1 X97.978 Y60.754 E12.09365
G1 X98.605 Y60.654 E12.11476
G1 X99.129 Y60.584 E12.13235
G1 X99.764 Y60.515 E12.15359
G1 X100.263 Y60.473 E12.17025
G1 X100.902 Y60.434 E12.19154
G1 X101.393 Y60.415 E12.20788
G1 X102.009 Y60.406 E12.22837
G1 X102.694 Y60.413 E12.25116
G1 X103.976 Y60.513 E12.29393
G1 X106.103 Y60.81 E12.36536
G1 X108.636 Y61.098 E12.45015
G1 X111.168 Y61.314 E12.53467
G1 X113.673 Y61.456 E12.61812
G1 X116.225 Y61.529 E12.70303
G1 X118.736 Y61.529 E12.78655
G1 X121.273 Y61.458 E12.87096
G1 X123.797 Y61.315 E12.95505
G1 X126.319 Y61.101 E13.03923
G1 X128.848 Y60.814 E13.12389
G1 X131.109 Y60.502 E13.1998
G1 X132.026 Y60.415 E13.23044
G1 X132.702 Y60.403 E13.25292
G1 X133.441 Y60.413 E13.27751
G1 X134.312 Y60.446 E13.3065
G1 X134.809 Y60.479 E13.32306
G1 X135.42 Y60.534 E13.34347
G1 X135.933 Y60.592 E13.36064
G1 X136.579 Y60.682 E13.38233
G1 X137.085 Y60.765 E13.39939
G1 X137.704 Y60.882 E13.42034
G1 X138.241 Y60.998 E13.43861
G1 X138.874 Y61.152 E13.46028
G1 X139.352 Y61.281 E13.47675
G1 X139.952 Y61.457 E13.49754
G1 X140.424 Y61.607 E13.51402
G1 X141.033 Y61.817 E13.53544
G1 X141.562 Y62.016 E13.55424
G1 X142.124 Y62.244 E13.57441
G1 X142.604 Y62.452 E13.59181
G1 X143.222 Y62.739 E13.61447
G1 X143.669 Y62.96 E13.63106
G1 X144.214 Y63.245 E13.65151
G1 X144.676 Y63.501 E13.66908
G1 X145.22 Y63.821 E13.69007
G1 X145.637 Y64.08 E13.7064
G1 X146.169 Y64.427 E13.72753
G1 X146.602 Y64.725 E13.74501
G1 X147.09 Y65.079 E13.76506
G1 X147.518 Y65.406 E13.78298
G1 X148.044 Y65.83 E13.80545
G1 X148.43 Y66.157 E13.82227
G1 X148.921 Y66.593 E13.84411
G1 X149.32 Y66.966 E13.86228
G1 X149.774 Y67.413 E13.88347
G1 X150.121 Y67.77 E13.90003
G1 X150.537 Y68.22 E13.92041
G1 X150.9 Y68.635 E13.93875
G1 X151.337 Y69.16 E13.96147
G1 X151.645 Y69.548 E13.97795
G1 X152.011 Y70.032 E13.99813
G1 X152.307 Y70.443 E14.01497
G1 X152.644 Y70.936 E14.03484
G1 X152.932 Y71.381 E14.05247
G1 X153.294 Y71.972 E14.07552
G1 X153.557 Y72.426 E14.09297
G1 X153.857 Y72.975 E14.11378
G1 X154.085 Y73.418 E14.13035
G1 X154.345 Y73.952 E14.1501
G1 X154.566 Y74.436 E14.1678
G1 X154.826 Y75.046 E14.18985
G1 X155.015 Y75.519 E14.20679
G1 X155.231 Y76.102 E14.22747
G1 X155.402 Y76.603 E14.24508
G1 X155.594 Y77.213 E14.26635
G1 X155.743 Y77.732 E14.28431
G1 X155.912 Y78.383 E14.30668
G1 X156.026 Y78.871 E14.32335
G1 X156.152 Y79.472 E14.34377
G1 X156.246 Y79.98 E14.36095
G1 X156.346 Y80.608 E14.3821
G1 X156.416 Y81.128 E14.39956
G1 X156.485 Y81.762 E14.42077
G1 X156.527 Y82.262 E14.43746
G1 X156.566 Y82.9 E14.45872
G1 X156.585 Y83.405 E14.47552
G1 X156.6 Y84.589 E14.51491
G1 X156.599 Y150.534 E16.70825
G1 X156.587 Y151.43 E16.73805
G1 X156.556 Y152.283 E16.76644
G1 X156.524 Y152.78 E16.783
G1 X156.468 Y153.413 E16.80414
G1 X156.405 Y153.957 E16.82235
G1 X156.317 Y154.582 E16.84335
G1 X156.236 Y155.074 E16.85993
G1 X156.118 Y155.698 E16.88105
G1 X156.004 Y156.227 E16.89905
G1 X155.849 Y156.866 E16.92092
G1 X155.721 Y157.346 E16.93744
G1 X155.545 Y157.947 E16.95827
G1 X155.388 Y158.439 E16.97545
G1 X155.178 Y159.045 E16.99678
G1 X154.991 Y159.544 E17.01451
G1 X154.764 Y160.106 E17.03467
G1 X154.551 Y160.596 E17.05244
G1 X154.256 Y161.232 E17.07575
G1 X154.028 Y161.694 E17.09289
G1 X153.747 Y162.23 E17.11302
G1 X153.49 Y162.691 E17.13057
G1 X153.174 Y163.227 E17.15127
G1 X152.924 Y163.631 E17.16707
G1 X152.576 Y164.165 E17.18827
G1 X152.275 Y164.602 E17.20592
G1 X151.921 Y165.09 E17.22597
G1 X151.594 Y165.518 E17.24388
G1 X151.17 Y166.044 E17.26636
G1 X150.843 Y166.43 E17.28318
G1 X150.407 Y166.921 E17.30502
G1 X150.044 Y167.31 E17.32272
G1 X149.61 Y167.752 E17.34332
G1 X149.251 Y168.1 E17.35995
G1 X148.788 Y168.529 E17.38094
G1 X148.38 Y168.889 E17.39904
G1 X147.888 Y169.3 E17.42036
G1 X147.473 Y169.63 E17.438
G1 X146.945 Y170.028 E17.45999
G1 X146.55 Y170.311 E17.47615
G1 X146.056 Y170.649 E17.49606
G1 X145.604 Y170.942 E17.51398
G1 X145.029 Y171.294 E17.5364
G1 X144.568 Y171.56 E17.5541
G1 X144.014 Y171.862 E17.57509
G1 X143.574 Y172.089 E17.59156
G1 X143.039 Y172.349 E17.61134
G1 X142.574 Y172.561 E17.62834
G1 X141.966 Y172.821 E17.65033
G1 X141.482 Y173.014 E17.66766
G1 X140.91 Y173.226 E17.68795
G1 X140.416 Y173.395 E17.70532
G1 X139.795 Y173.591 E17.72698
G1 X139.268 Y173.743 E17.74522
G1 X138.617 Y173.912 E17.76759
G1 X138.129 Y174.026 E17.78426
G1 X137.528 Y174.152 E17.80468
G1 X137.025 Y174.245 E17.82169
G1 X136.399 Y174.345 E17.84278
G1 X135.87 Y174.416 E17.86053
G1 X135.234 Y174.485 E17.88181
G1 X134.737 Y174.527 E17.8984
G1 X134.098 Y174.566 E17.91969
G1 X133.607 Y174.585 E17.93603
G1 X132.991 Y174.594 E17.95652
G1 X132.306 Y174.587 E17.97931
G1 X131.024 Y174.487 E18.02208
G1 X128.897 Y174.19 E18.09351
G1 X126.364 Y173.902 E18.1783
G1 X123.832 Y173.686 E18.26282
G1 X121.327 Y173.544 E18.34627
G1 X118.775 Y173.471 E18.43118
G1 X116.264 Y173.471 E18.5147
G1 X113.727 Y173.542 E18.59911
G1 X111.203 Y173.685 E18.6832
G1 X108.681 Y173.899 E18.76738
G1 X106.152 Y174.186 E18.85204
G1 X103.891 Y174.498 E18.92795
G1 X102.974 Y174.585 E18.95859
G1 X102.318 Y174.597 E18.98041
G1 X101.342 Y174.582 E19.01287
G1 X100.777 Y174.56 E19.03168
G1 X100.247 Y174.526 E19.04934
G1 X99.597 Y174.468 E19.07105
G1 X99.078 Y174.409 E19.08842
G1 X98.417 Y174.317 E19.11062
G1 X97.907 Y174.233 E19.12781
G1 X97.294 Y174.117 E19.14856
G1 X96.779 Y174.006 E19.16608
G1 X96.182 Y173.862 E19.18651
G1 X95.694 Y173.732 E19.20331
G1 X95.061 Y173.547 E19.22524
G1 X94.563 Y173.388 E19.24263
G1 X94.015 Y173.198 E19.26192
G1 X93.548 Y173.024 E19.27849
G1 X92.896 Y172.763 E19.30185
G1 X92.386 Y172.543 E19.32033
G1 X91.828 Y172.285 E19.34077
G1 X91.389 Y172.07 E19.35703
G1 X90.829 Y171.779 E19.37802
G1 X90.35 Y171.514 E19.39623
G1 X89.793 Y171.187 E19.41771
G1 X89.368 Y170.923 E19.43435
G1 X88.827 Y170.57 E19.45584
G1 X88.393 Y170.272 E19.47335
G1 X87.908 Y169.92 E19.49328
G1 X87.503 Y169.611 E19.51022
G1 X86.968 Y169.182 E19.53303
G1 X86.546 Y168.825 E19.55142
G1 X86.077 Y168.407 E19.57231
G1 X85.704 Y168.058 E19.5893
G1 X85.267 Y167.629 E19.60967
