;FLAVOR:Marlin
;TIME:5405
;Filament used: 2.57856m
;Layer height: 0.2
;MINX:81.2
;MINY:58.702
;MINZ:0.2
;MAXX:153.8
;MAXY:176.299
;MAXZ:3.6
;Generated with Cura_SteamEngine 5.2.2
M140 S50
M105
M190 S50
M104 S200
M105
M109 S200
M82 ;absolute extrusion mode
; Ender 3 Custom Start G-code
G92 E0 ; Reset Extruder
G28 ; Home all axes
G1 Z2.0 F3000 ; Move Z Axis up little to prevent scratching of Heat Bed
G1 X0.1 Y20 Z0.3 F5000.0 ; Move to start position
G1 X0.1 Y200.0 Z0.3 F1500.0 E15 ; Draw the first line
G1 X0.4 Y200.0 Z0.3 F5000.0 ; Move to side a little
G1 X0.4 Y20 Z0.3 F1500.0 E30 ; Draw the second line
G92 E0 ; Reset Extruder
G1 Z2.0 F3000 ; Move Z Axis up little to prevent scratching of Heat Bed
G1 X5 Y20 Z0.3 F5000.0 ; Move over to prevent blob squish
G92 E0
G92 E0
G1 F2700 E-5
;LAYER_COUNT:18
;LAYER:0
M107
G0 F6000 X101.547 Y66.893 Z0.2
;TYPE:SKIRT
G1 F2700 E0
G1 F1200 X101.792 Y66.521 E0.01482
G1 X102.125 Y66.05 E0.034
G1 X102.334 Y65.769 E0.04565
G1 X102.594 Y65.439 E0.05962
G1 X103.017 Y64.93 E0.08163
G1 X103.27 Y64.64 E0.09443
G1 X103.691 Y64.188 E0.11498
G1 X103.938 Y63.937 E0.12669
G1 X104.382 Y63.51 E0.14718
G1 X104.854 Y63.087 E0.16826
G1 X105.154 Y62.836 E0.18127
G1 X105.674 Y62.422 E0.20338
G1 X105.99 Y62.183 E0.21655
G1 X106.487 Y61.832 E0.23679
G1 X107.108 Y61.43 E0.2614
G1 X107.676 Y61.091 E0.2834
G1 X108.051 Y60.881 E0.29769
G1 X108.36 Y60.719 E0.3093
G1 X108.888 Y60.459 E0.32887
G1 X109.405 Y60.223 E0.34777
G1 X109.951 Y59.996 E0.36744
G1 X110.357 Y59.843 E0.38187
G1 X110.979 Y59.628 E0.40376
G1 X111.717 Y59.403 E0.42942
G1 X112.109 Y59.3 E0.4429
G1 X112.751 Y59.149 E0.46484
G1 X113.488 Y59.005 E0.48981
G1 X113.875 Y58.945 E0.50284
G1 X114.553 Y58.857 E0.52558
G1 X114.923 Y58.818 E0.53795
G1 X115.45 Y58.775 E0.55554
G1 X116.166 Y58.732 E0.5794
G1 X117.397 Y58.702 E0.62035
G1 X117.752 Y58.703 E0.63216
G1 X118.697 Y58.727 E0.6636
G1 X119.068 Y58.745 E0.67595
G1 X120.039 Y58.816 E0.70834
G1 X120.783 Y58.895 E0.73322
G1 X121.134 Y58.944 E0.74501
G1 X121.906 Y59.077 E0.77106
G1 X122.728 Y59.257 E0.79905
G1 X123.166 Y59.371 E0.8141
G1 X123.881 Y59.581 E0.83889
G1 X124.26 Y59.706 E0.85216
G1 X124.97 Y59.966 E0.87731
G1 X125.39 Y60.135 E0.89237
G1 X125.765 Y60.298 E0.90597
G1 X126.473 Y60.634 E0.93204
G1 X127.222 Y61.031 E0.96023
G1 X127.861 Y61.408 E0.98491
G1 X128.405 Y61.758 E1.00642
G1 X128.922 Y62.118 E1.02737
G1 X129.397 Y62.473 E1.0471
G1 X129.671 Y62.689 E1.0587
G1 X129.994 Y62.959 E1.0727
G1 X130.493 Y63.398 E1.09481
G1 X130.756 Y63.64 E1.1067
G1 X131.172 Y64.048 E1.12608
G1 X131.439 Y64.324 E1.13885
G1 X131.729 Y64.64 E1.15311
G1 X132.163 Y65.141 E1.17516
G1 X132.42 Y65.455 E1.18866
G1 X132.859 Y66.033 E1.2128
G1 X133.24 Y66.574 E1.23481
G1 X133.454 Y66.893 E1.24758
G1 X133.798 Y67.449 E1.26933
G1 X134.086 Y67.952 E1.28861
G1 X134.252 Y68.259 E1.30021
G1 X134.441 Y68.632 E1.31412
G1 X134.725 Y69.232 E1.3362
G1 X134.889 Y69.603 E1.34969
G1 X135.117 Y70.168 E1.36996
G1 X135.325 Y70.742 E1.39026
G1 X135.51 Y71.306 E1.41
G1 X135.68 Y71.892 E1.4303
G1 X135.822 Y72.455 E1.44961
G1 X135.978 Y73.188 E1.47454
G1 X136.091 Y73.839 E1.49651
G1 X136.151 Y74.253 E1.51043
G1 X136.219 Y74.863 E1.53084
G1 X136.266 Y75.464 E1.55089
G1 X136.29 Y76.007 E1.56897
G1 X136.3 Y76.546 E1.5869
G1 X136.303 Y87.203 E1.94135
G1 X136.345 Y87.615 E1.95513
G1 X136.491 Y88.021 E1.96948
G1 X136.693 Y88.38 E1.98318
G1 X150.166 Y106.094 E2.7234
G1 X150.543 Y106.61 E2.74465
G1 X151.003 Y107.294 E2.77207
G1 X151.208 Y107.624 E2.78499
G1 X151.609 Y108.319 E2.81168
G1 X151.989 Y109.051 E2.83911
G1 X152.188 Y109.471 E2.85457
G1 X152.347 Y109.83 E2.86763
G1 X152.524 Y110.258 E2.88303
G1 X152.802 Y111.001 E2.90942
G1 X152.925 Y111.362 E2.9221
G1 X153.063 Y111.806 E2.93757
G1 X153.279 Y112.603 E2.96503
G1 X153.455 Y113.39 E2.99185
G1 X153.526 Y113.768 E3.00464
G1 X153.65 Y114.574 E3.03177
G1 X153.739 Y115.407 E3.05963
G1 X153.787 Y116.223 E3.08682
G1 X153.8 Y116.871 E3.10838
G1 X153.799 Y129.125 E3.51594
G1 X153.761 Y131.197 E3.58487
G1 X153.654 Y133.261 E3.65361
G1 X153.499 Y135.116 E3.71553
G1 X153.255 Y137.221 E3.78601
G1 X152.892 Y139.586 E3.86559
G1 X152.55 Y141.39 E3.92666
G1 X152.023 Y143.715 E4.00595
G1 X151.559 Y145.466 E4.0662
G1 X150.961 Y147.453 E4.13521
G1 X150.291 Y149.412 E4.20408
G1 X150.19 Y149.689 E4.21388
G1 X149.553 Y151.333 E4.27252
G1 X149.436 Y151.618 E4.28277
G1 X148.619 Y153.489 E4.35067
G1 X147.873 Y155.043 E4.40801
G1 X147.034 Y156.645 E4.46815
G1 X146.241 Y158.036 E4.52141
G1 X145.663 Y158.986 E4.5584
G1 X144.945 Y160.099 E4.60245
G1 X144.063 Y161.376 E4.65407
G1 X143.422 Y162.248 E4.69006
G1 X142.618 Y163.28 E4.73358
G1 X141.621 Y164.474 E4.78531
G1 X140.765 Y165.429 E4.82797
G1 X139.857 Y166.381 E4.87172
G1 X139.125 Y167.101 E4.90587
G1 X138.2 Y167.96 E4.94786
G1 X137.029 Y168.966 E4.99921
G1 X136.252 Y169.59 E5.03235
G1 X134.996 Y170.525 E5.08443
G1 X134.193 Y171.077 E5.11684
G1 X133.149 Y171.747 E5.1581
G1 X132.88 Y171.911 E5.16858
G1 X131.788 Y172.539 E5.21048
G1 X130.684 Y173.119 E5.25195
G1 X129.547 Y173.661 E5.29385
G1 X128.406 Y174.149 E5.33512
G1 X127.541 Y174.484 E5.36597
G1 X127.229 Y174.597 E5.37701
G1 X126.356 Y174.893 E5.40767
G1 X125.175 Y175.247 E5.44868
G1 X124.854 Y175.334 E5.45974
G1 X123.656 Y175.625 E5.50074
G1 X122.767 Y175.807 E5.53093
G1 X122.428 Y175.868 E5.54238
G1 X121.204 Y176.056 E5.58357
G1 X120.311 Y176.159 E5.61347
G1 X119.972 Y176.19 E5.62479
G1 X118.746 Y176.271 E5.66566
G1 X117.849 Y176.297 E5.6955
G1 X117.501 Y176.299 E5.70708
G1 X116.605 Y176.285 E5.73688
G1 X116.267 Y176.272 E5.74813
G1 X115.369 Y176.219 E5.77805
G1 X115.022 Y176.191 E5.78963
G1 X114.128 Y176.098 E5.81953
G1 X112.91 Y175.926 E5.86044
G1 X112.579 Y175.87 E5.8716
G1 X111.689 Y175.7 E5.90174
G1 X111.349 Y175.628 E5.9133
G1 X110.156 Y175.338 E5.95414
G1 X109.278 Y175.091 E5.98447
G1 X108.092 Y174.71 E6.0259
G1 X107.77 Y174.597 E6.03725
G1 X106.807 Y174.235 E6.07147
G1 X106.459 Y174.095 E6.08395
G1 X105.401 Y173.638 E6.12228
G1 X105.046 Y173.474 E6.13529
G1 X104.003 Y172.96 E6.17396
G1 X103.679 Y172.79 E6.18613
G1 X102.649 Y172.221 E6.22527
G1 X102.321 Y172.029 E6.23791
G1 X101.308 Y171.403 E6.27751
G1 X101.014 Y171.213 E6.28916
G1 X100.021 Y170.536 E6.32913
G1 X99.731 Y170.328 E6.341
G1 X98.755 Y169.595 E6.3816
G1 X98.488 Y169.385 E6.3929
G1 X97.536 Y168.603 E6.43387
G1 X97.279 Y168.383 E6.44512
G1 X96.349 Y167.549 E6.48667
G1 X96.097 Y167.313 E6.49815
G1 X95.092 Y166.328 E6.54496
G1 X94.837 Y166.065 E6.55714
G1 X93.756 Y164.901 E6.60998
G1 X93.5 Y164.611 E6.62284
G1 X92.463 Y163.377 E6.67645
G1 X92.237 Y163.096 E6.68845
G1 X91.241 Y161.793 E6.743
G1 X91.029 Y161.502 E6.75497
G1 X90.082 Y160.137 E6.81023
G1 X89.894 Y159.853 E6.82156
G1 X88.993 Y158.425 E6.87772
G1 X88.815 Y158.129 E6.8892
G1 X87.967 Y156.643 E6.94611
G1 X87.806 Y156.346 E6.95735
G1 X86.923 Y154.63 E7.02153
G1 X86.759 Y154.291 E7.03406
G1 X85.859 Y152.313 E7.10634
G1 X85.712 Y151.966 E7.11887
G1 X84.896 Y149.915 E7.19229
G1 X84.766 Y149.566 E7.20468
G1 X84.041 Y147.455 E7.27891
G1 X83.932 Y147.112 E7.29088
G1 X83.297 Y144.942 E7.36608
G1 X83.205 Y144.6 E7.37786
G1 X82.664 Y142.383 E7.45377
G1 X82.589 Y142.043 E7.46535
G1 X82.144 Y139.786 E7.54186
G1 X82.085 Y139.448 E7.55327
G1 X81.737 Y137.157 E7.63034
G1 X81.694 Y136.82 E7.64164
G1 X81.445 Y134.504 E7.71912
G1 X81.416 Y134.171 E7.73024
G1 X81.266 Y131.841 E7.80789
G1 X81.252 Y131.507 E7.81901
G1 X81.2 Y128.999 E7.90245
G1 X81.201 Y116.836 E8.30699
G1 X81.213 Y116.227 E8.32725
G1 X81.261 Y115.408 E8.35453
G1 X81.35 Y114.575 E8.3824
G1 X81.474 Y113.769 E8.40952
G1 X81.543 Y113.398 E8.42207
G1 X81.64 Y112.943 E8.43755
G1 X81.838 Y112.153 E8.46463
G1 X81.94 Y111.795 E8.47701
G1 X82.197 Y111.002 E8.50474
G1 X82.369 Y110.531 E8.52142
G1 X82.666 Y109.801 E8.54763
G1 X83.008 Y109.058 E8.57483
G1 X83.17 Y108.735 E8.58685
G1 X83.562 Y108.013 E8.61418
G1 X83.799 Y107.612 E8.62967
G1 X84.247 Y106.914 E8.65726
G1 X84.458 Y106.608 E8.66962
G1 X84.834 Y106.094 E8.6908
G1 X98.191 Y88.538 E9.4245
G1 X98.37 Y88.284 E9.43484
G1 X98.509 Y88.02 E9.44476
G1 X98.614 Y87.73 E9.45502
G1 X98.689 Y87.335 E9.46839
G1 X98.7 Y87.027 E9.47864
G1 X98.7 Y76.519 E9.82814
G1 X98.711 Y75.935 E9.84757
G1 X98.727 Y75.577 E9.85949
G1 X98.787 Y74.794 E9.88561
G1 X98.837 Y74.347 E9.90057
G1 X98.953 Y73.56 E9.92703
G1 X99.104 Y72.773 E9.95368
G1 X99.192 Y72.391 E9.96672
G1 X99.387 Y71.653 E9.9921
G1 X99.634 Y70.858 E10.01979
G1 X99.785 Y70.43 E10.03489
G1 X100.074 Y69.693 E10.06122
G1 X100.402 Y68.955 E10.08808
G1 X100.693 Y68.363 E10.11002
G1 X100.86 Y68.048 E10.12188
G1 X101.2 Y67.455 E10.14461
G1 X101.547 Y66.893 E10.16658
G0 F6000 X101.888 Y67.103
G1 F1200 X102.12 Y66.75 E10.18063
G1 X102.446 Y66.289 E10.19941
G1 X102.655 Y66.008 E10.21106
G1 X102.902 Y65.694 E10.22435
G1 X103.325 Y65.185 E10.24636
G1 X103.565 Y64.911 E10.25847
G1 X103.977 Y64.469 E10.27857
G1 X104.406 Y64.039 E10.29877
G1 X104.856 Y63.618 E10.31927
G1 X105.403 Y63.149 E10.34323
G1 X105.923 Y62.735 E10.36534
G1 X106.223 Y62.508 E10.37785
G1 X106.709 Y62.165 E10.39764
G1 X107.313 Y61.774 E10.42157
G1 X107.881 Y61.435 E10.44357
G1 X108.237 Y61.235 E10.45715
G1 X108.749 Y60.97 E10.47633
G1 X109.283 Y60.716 E10.49599
G1 X109.777 Y60.499 E10.51394
G1 X110.102 Y60.366 E10.52562
G1 X110.487 Y60.221 E10.5393
G1 X111.109 Y60.006 E10.56119
G1 X111.829 Y59.787 E10.58622
G1 X112.201 Y59.69 E10.59901
G1 X112.843 Y59.539 E10.62094
G1 X113.217 Y59.461 E10.63365
G1 X113.927 Y59.342 E10.6576
G1 X114.605 Y59.254 E10.68033
G1 X114.955 Y59.217 E10.69204
G1 X115.663 Y59.161 E10.71566
G1 X116.461 Y59.12 E10.74224
G1 X117.405 Y59.101 E10.77364
G1 X117.742 Y59.102 E10.78485
G1 X118.687 Y59.126 E10.81629
G1 X119.039 Y59.144 E10.82802
G1 X120.01 Y59.215 E10.8604
G1 X120.737 Y59.292 E10.88471
G1 X121.507 Y59.41 E10.91062
G1 X122.268 Y59.561 E10.93643
G1 X122.627 Y59.645 E10.94869
G1 X123.333 Y59.834 E10.973
G1 X123.765 Y59.964 E10.988
G1 X124.125 Y60.082 E11.0006
G1 X124.55 Y60.234 E11.01562
G1 X125.24 Y60.506 E11.04028
G1 X125.597 Y60.66 E11.05322
G1 X126.289 Y60.989 E11.0787
G1 X127.022 Y61.377 E11.10628
G1 X127.647 Y61.745 E11.13041
G1 X127.964 Y61.946 E11.14289
G1 X128.467 Y62.285 E11.16307
G1 X128.963 Y62.646 E11.18347
G1 X129.423 Y63.004 E11.20286
G1 X129.73 Y63.259 E11.21613
G1 X130.229 Y63.698 E11.23824
G1 X130.478 Y63.928 E11.24951
G1 X130.885 Y64.326 E11.26844
G1 X131.152 Y64.602 E11.28122
G1 X131.426 Y64.902 E11.29473
G1 X131.86 Y65.403 E11.31678
G1 X132.105 Y65.7 E11.32958
G1 X132.532 Y66.263 E11.35308
G1 X132.913 Y66.804 E11.37509
G1 X133.304 Y67.404 E11.39891
G1 X133.626 Y67.949 E11.41997
G1 X133.9 Y68.449 E11.43893
G1 X134.08 Y68.803 E11.45214
G1 X134.364 Y69.403 E11.47422
G1 X134.519 Y69.755 E11.48701
G1 X134.742 Y70.308 E11.50684
G1 X134.946 Y70.869 E11.5267
G1 X135.127 Y71.421 E11.54602
G1 X135.293 Y71.992 E11.56579
G1 X135.38 Y72.328 E11.57734
G1 X135.509 Y72.883 E11.59629
G1 X135.584 Y73.256 E11.60894
G1 X135.697 Y73.907 E11.63092
G1 X135.754 Y74.3 E11.64413
G1 X135.821 Y74.896 E11.66408
G1 X135.85 Y75.24 E11.67556
G1 X135.882 Y75.797 E11.69411
G1 X135.9 Y76.546 E11.71903
G1 X135.903 Y87.217 E12.07395
G1 X135.943 Y87.592 E12.0865
G1 X136.031 Y87.965 E12.09924
G1 X136.23 Y88.392 E12.11491
G1 X136.367 Y88.613 E12.12356
G1 X149.946 Y106.469 E12.86967
G1 X150.413 Y107.125 E12.89646
G1 X150.669 Y107.514 E12.91195
G1 X150.863 Y107.827 E12.92419
G1 X151.256 Y108.507 E12.95032
G1 X151.474 Y108.917 E12.96576
G1 X151.826 Y109.642 E12.99257
G1 X151.977 Y109.983 E13.00497
G1 X152.267 Y110.7 E13.03069
G1 X152.543 Y111.481 E13.05824
G1 X152.681 Y111.925 E13.07371
G1 X152.892 Y112.704 E13.10055
G1 X153.064 Y113.474 E13.12679
G1 X153.132 Y113.832 E13.13891
G1 X153.253 Y114.62 E13.16543
G1 X153.34 Y115.435 E13.19269
G1 X153.387 Y116.232 E13.21925
G1 X153.4 Y116.871 E13.2405
G1 X153.399 Y129.119 E13.64787
G1 X153.362 Y131.177 E13.71633
G1 X153.272 Y132.981 E13.77641
G1 X153.075 Y135.334 E13.85494
G1 X152.823 Y137.433 E13.92526
G1 X152.499 Y139.511 E13.99521
G1 X152.157 Y141.315 E14.05628
G1 X151.636 Y143.613 E14.13465
G1 X151.172 Y145.364 E14.1949
G1 X150.578 Y147.337 E14.26343
G1 X149.913 Y149.282 E14.3318
G1 X149.18 Y151.189 E14.39975
G1 X148.376 Y153.057 E14.46739
G1 X148.258 Y153.315 E14.47683
G1 X147.386 Y155.12 E14.5435
G1 X146.561 Y156.675 E14.60205
G1 X146.003 Y157.652 E14.63947
G1 X145.321 Y158.778 E14.68325
G1 X144.609 Y159.882 E14.72695
G1 X143.74 Y161.139 E14.77777
G1 X142.962 Y162.192 E14.82132
G1 X142.16 Y163.21 E14.86442
G1 X141.48 Y164.025 E14.89972
G1 X140.625 Y164.99 E14.94261
G1 X139.76 Y165.908 E14.98456
G1 X138.844 Y166.816 E15.02746
G1 X137.929 Y167.666 E15.06899
G1 X136.779 Y168.654 E15.11942
G1 X136.002 Y169.278 E15.15257
G1 X134.997 Y170.032 E15.19435
G1 X133.749 Y170.891 E15.24475
G1 X132.679 Y171.565 E15.28681
G1 X131.601 Y172.186 E15.32818
G1 X130.763 Y172.631 E15.35974
G1 X129.663 Y173.168 E15.40045
G1 X128.532 Y173.665 E15.44154
G1 X127.396 Y174.111 E15.48213
G1 X126.227 Y174.514 E15.52326
G1 X125.062 Y174.863 E15.56371
G1 X124.757 Y174.946 E15.57422
G1 X123.576 Y175.233 E15.61465
G1 X122.687 Y175.415 E15.64483
G1 X121.472 Y175.615 E15.68578
G1 X120.265 Y175.761 E15.72622
G1 X119.944 Y175.791 E15.73694
G1 X118.734 Y175.871 E15.77728
G1 X117.837 Y175.897 E15.80712
G1 X117.507 Y175.899 E15.8181
G1 X116.611 Y175.885 E15.8479
G1 X116.291 Y175.873 E15.85856
G1 X115.393 Y175.82 E15.88848
G1 X115.063 Y175.793 E15.89949
G1 X113.861 Y175.662 E15.9397
G1 X112.968 Y175.531 E15.96972
G1 X112.654 Y175.478 E15.98031
G1 X111.764 Y175.308 E16.01045
G1 X111.442 Y175.239 E16.0214
G1 X110.558 Y175.029 E16.05162
G1 X109.386 Y174.705 E16.09207
G1 X109.091 Y174.616 E16.10231
G1 X108.216 Y174.33 E16.13293
G1 X107.911 Y174.223 E16.14368
G1 X106.948 Y173.861 E16.1779
G1 X106.618 Y173.727 E16.18975
G1 X105.56 Y173.27 E16.22808
G1 X105.223 Y173.115 E16.24042
G1 X104.18 Y172.601 E16.27909
G1 X103.873 Y172.44 E16.29062
G1 X102.843 Y171.871 E16.32976
G1 X102.531 Y171.689 E16.34177
G1 X101.518 Y171.063 E16.38138
G1 X101.239 Y170.882 E16.39244
G1 X100.246 Y170.205 E16.43241
G1 X99.971 Y170.008 E16.44366
G1 X98.995 Y169.275 E16.48426
G1 X98.742 Y169.076 E16.49497
G1 X97.79 Y168.294 E16.53594
G1 X97.546 Y168.085 E16.54663
G1 X96.616 Y167.251 E16.58818
G1 X96.377 Y167.027 E16.59907
G1 X95.372 Y166.042 E16.64588
G1 X95.13 Y165.793 E16.65742
G1 X94.049 Y164.629 E16.71026
G1 X93.806 Y164.354 E16.72247
G1 X92.769 Y163.12 E16.77608
G1 X92.555 Y162.853 E16.78746
G1 X91.559 Y161.55 E16.84201
G1 X91.358 Y161.274 E16.85336
G1 X90.411 Y159.909 E16.90862
G1 X90.233 Y159.64 E16.91935
G1 X89.332 Y158.212 E16.97551
G1 X89.163 Y157.931 E16.98641
G1 X88.315 Y156.445 E17.04332
G1 X88.162 Y156.163 E17.05399
G1 X87.279 Y154.447 E17.11818
G1 X87.123 Y154.126 E17.13005
G1 X86.223 Y152.148 E17.20233
G1 X86.083 Y151.819 E17.21422
G1 X85.267 Y149.768 E17.28763
G1 X85.144 Y149.436 E17.29941
G1 X84.419 Y147.325 E17.37365
G1 X84.316 Y146.999 E17.38502
G1 X83.681 Y144.829 E17.46022
G1 X83.594 Y144.505 E17.47138
G1 X83.053 Y142.288 E17.54728
G1 X82.982 Y141.965 E17.55828
G1 X82.537 Y139.708 E17.63479
G1 X82.481 Y139.388 E17.6456
G1 X82.133 Y137.097 E17.72267
G1 X82.091 Y136.777 E17.73341
G1 X81.842 Y134.461 E17.81088
G1 X81.815 Y134.145 E17.82143
G1 X81.665 Y131.815 E17.89908
G1 X81.652 Y131.498 E17.90964
G1 X81.6 Y128.999 E17.99277
G1 X81.601 Y116.836 E18.39732
G1 X81.613 Y116.236 E18.41728
G1 X81.66 Y115.436 E18.44393
G1 X81.693 Y115.081 E18.45579
G1 X81.793 Y114.293 E18.48221
G1 X81.868 Y113.833 E18.49771
G1 X81.935 Y113.481 E18.50963
G1 X82.108 Y112.703 E18.53613
G1 X82.322 Y111.915 E18.56329
G1 X82.573 Y111.14 E18.59039
G1 X82.869 Y110.352 E18.61838
G1 X83.171 Y109.648 E18.64386
G1 X83.369 Y109.229 E18.65928
G1 X83.74 Y108.514 E18.68607
G1 X84.143 Y107.816 E18.71288
G1 X84.581 Y107.134 E18.73983
G1 X84.782 Y106.843 E18.7516
G1 X85.153 Y106.336 E18.77249
G1 X98.509 Y88.782 E19.50612
G1 X98.783 Y88.389 E19.52206
G1 X98.959 Y87.967 E19.53726
G1 X99.049 Y87.649 E19.54826
G1 X99.087 Y87.368 E19.55769
G1 X99.1 Y87.038 E19.56867
G1 X99.1 Y76.519 E19.91854
G1 X99.111 Y75.944 E19.93766
