;FLAVOR:Marlin
;TIME:9571
;Filament used: 4.56611m
;Layer height: 0.2
;MINX:77.2
;MINY:56.701
;MINZ:0.2
;MAXX:157.8
;MAXY:178.298
;MAXZ:3.6
;Generated with Cura_SteamEngine 5.2.2
M140 S50
M105
M190 S50
M104 S200
M105
M109 S200
M82 ;absolute extrusion mode
; Ender 3 Custom Start G-code
G92 E0 ; Reset Extruder
G28 ; Home all axes
G1 Z2.0 F3000 ; Move Z Axis up little to prevent scratching of Heat Bed
G1 X0.1 Y20 Z0.3 F5000.0 ; Move to start position
G1 X0.1 Y200.0 Z0.3 F1500.0 E15 ; Draw the first line
G1 X0.4 Y200.0 Z0.3 F5000.0 ; Move to side a little
G1 X0.4 Y20 Z0.3 F1500.0 E30 ; Draw the second line
G92 E0 ; Reset Extruder
G1 Z2.0 F3000 ; Move Z Axis up little to prevent scratching of Heat Bed
G1 X5 Y20 Z0.3 F5000.0 ; Move over to prevent blob squish
G92 E0
G92 E0
G1 F2700 E-5
;LAYER_COUNT:18
;LAYER:0
M107
G0 F6000 X81.141 Y63.334 Z0.2
;TYPE:SKIRT
G1 F2700 E0
G1 F1200 X81.376 Y63.048 E0.01231
G1 X81.696 Y62.677 E0.02861
G1 X81.964 Y62.382 E0.04186
G1 X82.545 Y61.786 E0.06955
G1 X82.914 Y61.434 E0.08651
G1 X83.228 Y61.15 E0.10059
G1 X83.875 Y60.607 E0.12868
G1 X84.545 Y60.096 E0.15671
G1 X84.946 Y59.813 E0.17303
G1 X85.676 Y59.339 E0.20198
G1 X86.026 Y59.129 E0.21556
G1 X86.471 Y58.878 E0.23255
G1 X86.821 Y58.692 E0.24573
G1 X87.26 Y58.473 E0.26205
G1 X88.05 Y58.116 E0.29089
G1 X88.811 Y57.813 E0.31813
G1 X89.184 Y57.679 E0.33131
G1 X89.65 Y57.525 E0.34763
G1 X90.026 Y57.411 E0.3607
G1 X90.857 Y57.191 E0.38929
G1 X91.337 Y57.083 E0.40566
G1 X91.718 Y57.007 E0.41858
G1 X92.203 Y56.923 E0.43495
G1 X93.064 Y56.808 E0.46384
G1 X93.448 Y56.77 E0.47668
G1 X93.938 Y56.734 E0.49302
G1 X94.319 Y56.715 E0.50571
G1 X95 Y56.701 E0.52836
G1 X140 Y56.701 E2.02507
G1 X140.709 Y56.717 E2.04865
G1 X141.099 Y56.736 E2.06164
G1 X141.588 Y56.773 E2.07795
G1 X141.968 Y56.811 E2.09065
G1 X142.455 Y56.872 E2.10698
G1 X142.838 Y56.93 E2.11986
G1 X143.321 Y57.015 E2.13617
G1 X144.146 Y57.191 E2.16423
G1 X144.565 Y57.296 E2.1786
G1 X145.037 Y57.429 E2.19491
G1 X145.853 Y57.692 E2.22342
G1 X146.665 Y57.998 E2.25228
G1 X147.441 Y58.333 E2.2804
G1 X147.775 Y58.491 E2.29269
G1 X148.231 Y58.72 E2.30966
G1 X148.596 Y58.915 E2.32342
G1 X149.022 Y59.158 E2.33973
G1 X149.753 Y59.612 E2.36835
G1 X150.075 Y59.828 E2.38125
G1 X150.461 Y60.101 E2.39697
G1 X150.766 Y60.328 E2.40962
G1 X151.167 Y60.642 E2.42656
G1 X151.453 Y60.877 E2.43887
G1 X151.824 Y61.197 E2.45517
G1 X152.119 Y61.465 E2.46842
G1 X152.715 Y62.046 E2.49611
G1 X153.067 Y62.415 E2.51307
G1 X153.351 Y62.729 E2.52715
G1 X153.894 Y63.376 E2.55524
G1 X154.405 Y64.046 E2.58327
G1 X154.688 Y64.447 E2.59959
G1 X154.911 Y64.781 E2.61295
G1 X155.173 Y65.196 E2.62927
G1 X155.37 Y65.527 E2.64209
G1 X155.62 Y65.97 E2.659
G1 X155.797 Y66.302 E2.67152
G1 X156.018 Y66.742 E2.68789
G1 X156.185 Y67.096 E2.70091
G1 X156.383 Y67.545 E2.71723
G1 X156.53 Y67.903 E2.73011
G1 X156.829 Y68.707 E2.75864
G1 X156.977 Y69.156 E2.77436
G1 X157.089 Y69.527 E2.78725
G1 X157.305 Y70.339 E2.8152
G1 X157.414 Y70.818 E2.83154
G1 X157.493 Y71.215 E2.845
G1 X157.577 Y71.699 E2.86134
G1 X157.633 Y72.077 E2.87405
G1 X157.693 Y72.563 E2.89033
G1 X157.731 Y72.949 E2.90324
G1 X157.786 Y73.819 E2.93223
G1 X157.8 Y74.5 E2.95488
G1 X157.798 Y130.166 E4.80634
G1 X157.773 Y131.746 E4.8589
G1 X157.701 Y133.397 E4.91387
G1 X157.577 Y135.09 E4.97033
G1 X157.43 Y136.552 E5.0192
G1 X157.18 Y138.464 E5.08333
G1 X156.908 Y140.141 E5.13984
G1 X156.633 Y141.576 E5.18843
G1 X156.216 Y143.454 E5.25242
G1 X155.858 Y144.86 E5.30067
G1 X155.329 Y146.7 E5.36435
G1 X154.891 Y148.069 E5.41216
G1 X154.333 Y149.651 E5.46795
G1 X153.638 Y151.433 E5.53157
G1 X152.983 Y152.957 E5.58674
G1 X152.391 Y154.231 E5.63347
G1 X151.649 Y155.708 E5.68844
G1 X150.733 Y157.384 E5.75197
G1 X149.899 Y158.786 E5.80623
G1 X149.163 Y159.942 E5.85181
G1 X148.246 Y161.286 E5.90592
G1 X147.089 Y162.851 E5.97065
G1 X146.115 Y164.07 E6.02255
G1 X145.252 Y165.081 E6.06676
G1 X144.176 Y166.26 E6.11985
G1 X143.968 Y166.479 E6.1299
G1 X143.048 Y167.407 E6.17336
G1 X141.902 Y168.489 E6.22578
G1 X141.675 Y168.695 E6.23598
G1 X140.703 Y169.538 E6.27877
G1 X139.485 Y170.523 E6.33087
G1 X139.235 Y170.716 E6.34137
G1 X137.964 Y171.648 E6.3938
G1 X136.925 Y172.354 E6.43558
G1 X135.602 Y173.184 E6.48752
G1 X134.249 Y173.957 E6.53935
G1 X133.966 Y174.11 E6.55005
G1 X132.87 Y174.672 E6.59102
G1 X132.568 Y174.819 E6.60219
G1 X131.458 Y175.329 E6.64282
G1 X131.161 Y175.458 E6.65359
G1 X130.037 Y175.919 E6.69399
G1 X129.715 Y176.042 E6.70546
G1 X128.577 Y176.451 E6.74568
G1 X128.251 Y176.56 E6.75711
G1 X127.104 Y176.916 E6.79706
G1 X126.776 Y177.011 E6.80841
G1 X125.62 Y177.315 E6.84817
G1 X125.281 Y177.395 E6.85975
G1 X124.067 Y177.657 E6.90106
G1 X123.708 Y177.726 E6.91322
G1 X122.535 Y177.922 E6.95277
G1 X122.201 Y177.971 E6.964
G1 X121.071 Y178.11 E7.00187
G1 X120.725 Y178.144 E7.01343
G1 X119.544 Y178.236 E7.05283
G1 X119.195 Y178.256 E7.06446
G1 X118.013 Y178.295 E7.10379
G1 X117.664 Y178.298 E7.1154
G1 X116.481 Y178.284 E7.15475
G1 X116.119 Y178.272 E7.1668
G1 X114.936 Y178.203 E7.20621
G1 X114.586 Y178.175 E7.21789
G1 X113.408 Y178.053 E7.25728
G1 X113.057 Y178.008 E7.26905
G1 X111.882 Y177.832 E7.30857
G1 X111.539 Y177.773 E7.32014
G1 X110.369 Y177.544 E7.3598
G1 X110.026 Y177.469 E7.37147
G1 X108.865 Y177.187 E7.41121
G1 X108.528 Y177.097 E7.42281
G1 X107.376 Y176.762 E7.46272
G1 X107.056 Y176.661 E7.47388
G1 X105.914 Y176.275 E7.51397
G1 X105.593 Y176.159 E7.52532
G1 X104.463 Y175.721 E7.56563
G1 X104.152 Y175.592 E7.57683
G1 X103.036 Y175.103 E7.61735
G1 X102.729 Y174.961 E7.62861
G1 X101.629 Y174.421 E7.66936
G1 X100.266 Y173.69 E7.7208
G1 X99.97 Y173.521 E7.73214
G1 X98.904 Y172.882 E7.77348
G1 X98.631 Y172.711 E7.78419
G1 X97.468 Y171.947 E7.83047
G1 X97.158 Y171.732 E7.84302
G1 X95.898 Y170.814 E7.89487
G1 X95.607 Y170.592 E7.90705
G1 X94.378 Y169.605 E7.95947
G1 X94.088 Y169.36 E7.9721
G1 X92.898 Y168.305 E8.02499
G1 X92.63 Y168.056 E8.03716
G1 X91.479 Y166.935 E8.0906
G1 X91.231 Y166.682 E8.10238
G1 X90.121 Y165.498 E8.15636
G1 X89.884 Y165.233 E8.16819
G1 X88.819 Y163.988 E8.22268
G1 X88.605 Y163.727 E8.23391
G1 X87.584 Y162.423 E8.28899
G1 X87.378 Y162.148 E8.30042
G1 X86.408 Y160.79 E8.35592
G1 X86.225 Y160.522 E8.36672
G1 X85.302 Y159.109 E8.42285
G1 X85.118 Y158.813 E8.43444
G1 X84.156 Y157.186 E8.49731
G1 X83.975 Y156.863 E8.50962
G1 X82.982 Y154.986 E8.58025
G1 X82.809 Y154.638 E8.59318
G1 X81.903 Y152.697 E8.66442
G1 X81.754 Y152.356 E8.6768
G1 X80.934 Y150.355 E8.74872
G1 X80.799 Y150.004 E8.76123
G1 X80.07 Y147.948 E8.83379
G1 X79.957 Y147.601 E8.84592
G1 X79.32 Y145.497 E8.91904
G1 X79.223 Y145.15 E8.93102
G1 X78.681 Y143.008 E9.00451
G1 X78.601 Y142.658 E9.01645
G1 X78.156 Y140.482 E9.09033
G1 X78.094 Y140.138 E9.10195
G1 X77.745 Y137.932 E9.17624
G1 X77.697 Y137.58 E9.18805
G1 X77.448 Y135.353 E9.26258
G1 X77.417 Y135.007 E9.27414
G1 X77.267 Y132.768 E9.34877
G1 X77.252 Y132.421 E9.36033
G1 X77.2 Y130.002 E9.4408
G1 X77.202 Y74.31 E11.29312
G1 X77.214 Y73.819 E11.30946
G1 X77.234 Y73.429 E11.32245
G1 X77.309 Y72.54 E11.35212
G1 X77.367 Y72.073 E11.36777
G1 X77.425 Y71.69 E11.38066
G1 X77.587 Y70.814 E11.41029
G1 X77.691 Y70.353 E11.42601
G1 X77.788 Y69.97 E11.43915
G1 X78.032 Y69.128 E11.4683
G1 X78.18 Y68.681 E11.48397
G1 X78.492 Y67.849 E11.51352
G1 X78.638 Y67.496 E11.52622
G1 X78.829 Y67.065 E11.5419
G1 X78.993 Y66.718 E11.55467
G1 X79.213 Y66.281 E11.57094
G1 X79.397 Y65.937 E11.58392
G1 X79.831 Y65.19 E11.61265
G1 X80.103 Y64.76 E11.62957
G1 X80.327 Y64.426 E11.64295
G1 X80.6 Y64.04 E11.65868
G1 X80.827 Y63.735 E11.67132
G1 X81.141 Y63.334 E11.68826
G0 F6000 X81.678 Y63.31
G1 F1200 X81.998 Y62.939 E11.70456
G1 X82.253 Y62.658 E11.71718
G1 X82.58 Y62.316 E11.73292
G1 X83.19 Y61.724 E11.76119
G1 X83.488 Y61.454 E11.77456
G1 X83.861 Y61.135 E11.79089
G1 X84.493 Y60.633 E11.81773
G1 X85.177 Y60.14 E11.84577
G1 X85.89 Y59.677 E11.87405
G1 X86.223 Y59.478 E11.88695
G1 X86.668 Y59.227 E11.90395
G1 X87 Y59.05 E11.91646
G1 X87.763 Y58.679 E11.94468
G1 X88.211 Y58.482 E11.96096
G1 X88.956 Y58.186 E11.98762
G1 X89.309 Y58.059 E12.0001
G1 X89.775 Y57.905 E12.01642
G1 X90.132 Y57.797 E12.02882
G1 X90.945 Y57.581 E12.0568
G1 X91.425 Y57.473 E12.07317
G1 X92.271 Y57.318 E12.10177
G1 X92.627 Y57.265 E12.11374
G1 X93.113 Y57.205 E12.13003
G1 X93.478 Y57.169 E12.14223
G1 X94.329 Y57.115 E12.17059
G1 X95 Y57.101 E12.19291
G1 X140.189 Y57.103 E13.69591
G1 X140.699 Y57.116 E13.71287
G1 X141.068 Y57.135 E13.72516
G1 X141.919 Y57.208 E13.75357
G1 X142.406 Y57.269 E13.7699
G1 X142.769 Y57.324 E13.78211
G1 X143.579 Y57.474 E13.80951
G1 X144.059 Y57.581 E13.82586
G1 X144.456 Y57.681 E13.83948
G1 X144.928 Y57.814 E13.85579
G1 X145.726 Y58.072 E13.88368
G1 X146.062 Y58.193 E13.89556
G1 X146.849 Y58.507 E13.92374
G1 X147.596 Y58.848 E13.95106
G1 X148.052 Y59.077 E13.96803
G1 X148.398 Y59.262 E13.98108
G1 X148.824 Y59.505 E13.99739
G1 X149.539 Y59.95 E14.0254
G1 X149.844 Y60.154 E14.0376
G1 X150.23 Y60.427 E14.05333
G1 X150.519 Y60.643 E14.06533
G1 X151.191 Y61.179 E14.09392
G1 X151.562 Y61.499 E14.11022
G1 X151.843 Y61.754 E14.12284
G1 X152.185 Y62.081 E14.13857
G1 X152.777 Y62.691 E14.16685
G1 X153.047 Y62.989 E14.18022
G1 X153.366 Y63.362 E14.19654
G1 X153.868 Y63.994 E14.22339
G1 X154.361 Y64.678 E14.25143
G1 X154.572 Y64.995 E14.2641
G1 X155.022 Y65.723 E14.29256
G1 X155.272 Y66.166 E14.30948
G1 X155.661 Y66.922 E14.33776
G1 X155.819 Y67.257 E14.35008
G1 X156.017 Y67.706 E14.3664
G1 X156.157 Y68.046 E14.37863
G1 X156.332 Y68.503 E14.39491
G1 X156.597 Y69.281 E14.42224
G1 X156.703 Y69.633 E14.43447
G1 X156.915 Y70.428 E14.46184
G1 X157.024 Y70.907 E14.47818
G1 X157.099 Y71.284 E14.49096
G1 X157.183 Y71.768 E14.5073
G1 X157.236 Y72.126 E14.51934
G1 X157.296 Y72.612 E14.53562
G1 X157.332 Y72.978 E14.54785
G1 X157.386 Y73.829 E14.57622
G1 X157.4 Y74.5 E14.59854
G1 X157.398 Y130.16 E16.4498
G1 X157.374 Y131.729 E16.50199
G1 X157.315 Y133.148 E16.54923
G1 X157.179 Y135.05 E16.61265
G1 X157.007 Y136.73 E16.66882
G1 X156.817 Y138.186 E16.71765
G1 X156.515 Y140.066 E16.78098
G1 X156.197 Y141.71 E16.83668
G1 X155.882 Y143.131 E16.88509
G1 X155.411 Y144.979 E16.94852
G1 X154.948 Y146.578 E17.00389
G1 X154.51 Y147.947 E17.05169
G1 X153.956 Y149.517 E17.10707
G1 X153.27 Y151.276 E17.16986
G1 X152.62 Y152.788 E17.2246
G1 X151.922 Y154.281 E17.27942
G1 X151.292 Y155.528 E17.32589
G1 X150.516 Y156.957 E17.37997
G1 X149.687 Y158.366 E17.43434
G1 X148.825 Y159.727 E17.48793
G1 X147.765 Y161.272 E17.55024
G1 X146.93 Y162.401 E17.59695
G1 X145.977 Y163.608 E17.6481
G1 X144.772 Y165.02 E17.70984
G1 X143.684 Y166.197 E17.76315
G1 X142.573 Y167.311 E17.81548
G1 X141.628 Y168.198 E17.85859
G1 X140.44 Y169.235 E17.91103
G1 X139.234 Y170.211 E17.96264
G1 X138.997 Y170.394 E17.9726
G1 X137.739 Y171.317 E18.02449
G1 X136.7 Y172.023 E18.06627
G1 X135.391 Y172.844 E18.11766
G1 X134.052 Y173.609 E18.16895
G1 X133.783 Y173.754 E18.17912
G1 X132.687 Y174.316 E18.22008
G1 X132.401 Y174.455 E18.23066
G1 X131.009 Y175.088 E18.28152
G1 X129.885 Y175.549 E18.32193
G1 X129.58 Y175.666 E18.33279
G1 X128.442 Y176.075 E18.37301
G1 X128.133 Y176.178 E18.38385
G1 X126.986 Y176.534 E18.42379
G1 X126.674 Y176.624 E18.43459
G1 X125.518 Y176.928 E18.47435
G1 X125.197 Y177.004 E18.48532
G1 X123.983 Y177.266 E18.52663
G1 X123.642 Y177.332 E18.53818
G1 X122.469 Y177.528 E18.57773
G1 X122.152 Y177.574 E18.58839
G1 X121.022 Y177.713 E18.62626
G1 X120.694 Y177.746 E18.63722
G1 X119.513 Y177.838 E18.67662
G1 X119.182 Y177.856 E18.68764
G1 X118 Y177.895 E18.72698
G1 X117.668 Y177.898 E18.73802
G1 X116.485 Y177.884 E18.77737
G1 X116.142 Y177.872 E18.78879
G1 X114.959 Y177.803 E18.8282
G1 X114.628 Y177.777 E18.83924
G1 X113.45 Y177.655 E18.87863
G1 X113.116 Y177.612 E18.88983
G1 X111.941 Y177.436 E18.92935
G1 X111.616 Y177.38 E18.94032
G1 X110.446 Y177.151 E18.97997
G1 X110.12 Y177.08 E18.99107
G1 X108.959 Y176.798 E19.03081
G1 X108.64 Y176.713 E19.04179
G1 X107.488 Y176.378 E19.08169
G1 X107.184 Y176.282 E19.09229
G1 X106.042 Y175.896 E19.13239
G1 X105.738 Y175.786 E19.14314
G1 X104.608 Y175.348 E19.18345
G1 X104.312 Y175.226 E19.1941
G1 X103.196 Y174.737 E19.23462
G1 X102.905 Y174.602 E19.24529
G1 X101.805 Y174.062 E19.28605
G1 X100.457 Y173.338 E19.33694
G1 X100.175 Y173.178 E19.34772
G1 X99.109 Y172.539 E19.38906
G1 X98.851 Y172.377 E19.39919
G1 X97.688 Y171.613 E19.44548
G1 X97.393 Y171.409 E19.45741
G1 X96.133 Y170.491 E19.50926
G1 X95.857 Y170.28 E19.52081
G1 X94.628 Y169.293 E19.57324
G1 X94.353 Y169.06 E19.58523
G1 X93.163 Y168.005 E19.63812
G1 X92.909 Y167.769 E19.64965
G1 X91.758 Y166.648 E19.70309
G1 X91.522 Y166.408 E19.71429
G1 X90.412 Y165.224 E19.76827
G1 X90.188 Y164.973 E19.77945
G1 X89.123 Y163.728 E19.83395
G1 X88.92 Y163.48 E19.84461
G1 X87.899 Y162.176 E19.89969
G1 X87.703 Y161.915 E19.91055
G1 X86.733 Y160.557 E19.96605
G1 X86.56 Y160.303 E19.97627
G1 X85.637 Y158.89 E20.03241
G1 X85.462 Y158.609 E20.04342
G1 X84.5 Y156.982 E20.10629
G1 X84.329 Y156.676 E20.11794
G1 X83.336 Y154.799 E20.18857
G1 X83.172 Y154.469 E20.20083
G1 X82.266 Y152.528 E20.27207
G1 X82.124 Y152.204 E20.28384
G1 X81.304 Y150.203 E20.35576
G1 X81.176 Y149.87 E20.36763
G1 X80.447 Y147.814 E20.44018
G1 X80.339 Y147.485 E20.4517
G1 X79.702 Y145.381 E20.52482
G1 X79.611 Y145.052 E20.53617
G1 X79.069 Y142.91 E20.60966
G1 X78.993 Y142.578 E20.62099
G1 X78.548 Y140.402 E20.69486
G1 X78.489 Y140.075 E20.70591
G1 X78.14 Y137.869 E20.78019
G1 X78.095 Y137.535 E20.7914
G1 X77.846 Y135.308 E20.86594
G1 X77.817 Y134.981 E20.87685
G1 X77.667 Y132.742 E20.95149
G1 X77.652 Y132.412 E20.96248
G1 X77.6 Y130.002 E21.04265
G1 X77.602 Y74.32 E22.89464
G1 X77.614 Y73.829 E22.91098
G1 X77.633 Y73.459 E22.9233
G1 X77.706 Y72.589 E22.95234
G1 X77.764 Y72.122 E22.96799
G1 X77.819 Y71.759 E22.9802
G1 X77.977 Y70.903 E23.00915
G1 X78.081 Y70.442 E23.02487
G1 X78.173 Y70.077 E23.03739
G1 X78.31 Y69.587 E23.05432
G1 X78.56 Y68.807 E23.08156
G1 X78.865 Y67.993 E23.11047
G1 X79.004 Y67.658 E23.12253
G1 X79.35 Y66.897 E23.15034
G1 X79.57 Y66.46 E23.16661
G1 X79.745 Y66.134 E23.17892
G1 X80.169 Y65.404 E23.20699
G1 X80.441 Y64.974 E23.22392
G1 X80.653 Y64.657 E23.2366
G1 X80.926 Y64.271 E23.25233
G1 X81.142 Y63.982 E23.26433
G1 X81.678 Y63.31 E23.29292
G0 F6000 X81.981 Y63.571
G1 F1200 X82.301 Y63.2 E23.30921
G1 X82.543 Y62.934 E23.32117
G1 X83.097 Y62.365 E23.34759
G1 X83.466 Y62.013 E23.36455
G1 X83.748 Y61.758 E23.37719
G1 X84.367 Y61.238 E23.40408
G1 X84.739 Y60.948 E23.41977
G1 X85.408 Y60.467 E23.44718
G1 X85.69 Y60.277 E23.45848
G1 X86.104 Y60.014 E23.4748
G1 X86.419 Y59.826 E23.487
G1 X86.864 Y59.575 E23.50399
G1 X87.178 Y59.408 E23.51582
G1 X87.924 Y59.045 E23.54341
G1 X88.659 Y58.729 E23.57002
G1 X89.1 Y58.558 E23.58576
G1 X89.901 Y58.285 E23.6139
G1 X90.238 Y58.182 E23.62562
G1 X90.71 Y58.052 E23.64191
G1 X91.512 Y57.864 E23.6693
G1 X91.854 Y57.796 E23.6809
G1 X92.676 Y57.662 E23.7086
G1 X93.507 Y57.568 E23.73642
G1 X94.339 Y57.515 E23.76415
G1 X95 Y57.501 E23.78614
G1 X140 Y57.501 E25.28284
G1 X140.688 Y57.516 E25.30573
G1 X141.038 Y57.534 E25.31739
G1 X141.869 Y57.605 E25.34513
G1 X142.356 Y57.666 E25.36145
G1 X143.182 Y57.803 E25.3893
G1 X143.972 Y57.972 E25.41617
G1 X144.348 Y58.066 E25.42906
G1 X144.82 Y58.199 E25.44537
G1 X145.6 Y58.451 E25.47263
G1 X146.376 Y58.744 E25.50022
G1 X147.117 Y59.064 E25.52707
G1 X147.872 Y59.435 E25.55505
G1 X148.199 Y59.61 E25.56738
G1 X148.911 Y60.024 E25.59478
G1 X149.325 Y60.287 E25.61109
G1 X149.999 Y60.754 E25.63836
G1 X150.273 Y60.958 E25.64972
G1 X150.93 Y61.482 E25.67767
G1 X151.301 Y61.802 E25.69397
G1 X151.567 Y62.044 E25.70593
G1 X152.136 Y62.598 E25.73234
G1 X152.488 Y62.967 E25.74931
G1 X152.743 Y63.249 E25.76195
G1 X153.263 Y63.868 E25.78884
G1 X153.553 Y64.24 E25.80453
G1 X154.034 Y64.909 E25.83193
G1 X154.234 Y65.208 E25.8439
G1 X154.496 Y65.623 E25.86022
G1 X154.923 Y66.363 E25.88864
G1 X155.303 Y67.101 E25.91625
G1 X155.453 Y67.419 E25.92794
G1 X155.651 Y67.868 E25.94426
G1 X155.958 Y68.646 E25.97208
G1 X156.217 Y69.407 E25.99882
G1 X156.318 Y69.739 E26.01036
G1 X156.525 Y70.517 E26.03714
