;FLAVOR:Marlin
;TIME:5335
;Filament used: 3.95022m
;Layer height: 0.2
;MINX:74
;MINY:56.5
;MINZ:0.2
;MAXX:161
;MAXY:178.496
;MAXZ:2.6
;Generated with Cura_SteamEngine 5.2.2
M140 S50
M105
M190 S50
M104 S200
M105
M109 S200
M82 ;absolute extrusion mode
; Ender 3 Custom Start G-code
G92 E0 ; Reset Extruder
G28 ; Home all axes
G1 Z2.0 F3000 ; Move Z Axis up little to prevent scratching of Heat Bed
G1 X0.1 Y20 Z0.3 F5000.0 ; Move to start position
G1 X0.1 Y200.0 Z0.3 F1500.0 E15 ; Draw the first line
G1 X0.4 Y200.0 Z0.3 F5000.0 ; Move to side a little
G1 X0.4 Y20 Z0.3 F1500.0 E30 ; Draw the second line
G92 E0 ; Reset Extruder
G1 Z2.0 F3000 ; Move Z Axis up little to prevent scratching of Heat Bed
G1 X5 Y20 Z0.3 F5000.0 ; Move over to prevent blob squish
G92 E0
G92 E0
G1 F2700 E-5
;LAYER_COUNT:13
;LAYER:0
M107
G0 F6000 X77.125 Y61.708 Z0.2
;TYPE:SKIRT
G1 F2700 E0
G1 F1200 X77.784 Y60.954 E0.03331
G1 X78.102 Y60.622 E0.0486
G1 X78.779 Y59.973 E0.07979
G1 X79.77 Y59.197 E0.12165
G1 X80.15 Y58.933 E0.13704
G1 X81.053 Y58.369 E0.17245
G1 X81.287 Y58.238 E0.18137
G1 X82.214 Y57.774 E0.21585
G1 X82.601 Y57.603 E0.22992
G1 X83.474 Y57.261 E0.26111
G1 X84.591 Y56.943 E0.29974
G1 X85.163 Y56.812 E0.31925
G1 X86.086 Y56.641 E0.35048
G1 X86.861 Y56.56 E0.37639
G1 X87.194 Y56.537 E0.38749
G1 X87.742 Y56.513 E0.40574
G1 X88.529 Y56.5 E0.43192
G1 X146.598 Y56.505 E2.3633
G1 X147.118 Y56.512 E2.3806
G1 X147.835 Y56.545 E2.40447
G1 X148.418 Y56.591 E2.42392
G1 X149.349 Y56.705 E2.45512
G1 X150.554 Y56.974 E2.49618
G1 X151.023 Y57.107 E2.5124
G1 X152.196 Y57.512 E2.55367
G1 X152.474 Y57.626 E2.56366
G1 X153.325 Y58.019 E2.59484
G1 X153.811 Y58.284 E2.61325
G1 X154.191 Y58.504 E2.62786
G1 X154.982 Y59.008 E2.65905
G1 X155.532 Y59.419 E2.68189
G1 X155.802 Y59.634 E2.69337
G1 X156.571 Y60.307 E2.72736
G1 X156.852 Y60.577 E2.74032
G1 X157.765 Y61.569 E2.78516
G1 X157.974 Y61.826 E2.79618
G1 X158.814 Y63 E2.84419
G1 X159.222 Y63.698 E2.87108
G1 X159.398 Y64.02 E2.88329
G1 X159.813 Y64.862 E2.91451
G1 X160.236 Y65.987 E2.95448
G1 X160.383 Y66.453 E2.97073
G1 X160.63 Y67.372 E3.00239
G1 X160.697 Y67.673 E3.01264
G1 X160.862 Y68.596 E3.04383
G1 X160.935 Y69.316 E3.0679
G1 X160.967 Y69.786 E3.08357
G1 X160.99 Y70.339 E3.10198
G1 X161 Y70.986 E3.1235
G1 X160.999 Y163.952 E6.21556
G1 X160.986 Y164.887 E6.24666
G1 X160.933 Y165.823 E6.27784
G1 X160.817 Y166.66 E6.30595
G1 X160.74 Y167.093 E6.32057
G1 X160.49 Y168.178 E6.35761
G1 X160.385 Y168.547 E6.37037
G1 X160.09 Y169.437 E6.40155
G1 X159.883 Y169.945 E6.4198
G1 X159.736 Y170.281 E6.432
G1 X159.324 Y171.123 E6.46317
G1 X158.967 Y171.732 E6.48665
G1 X158.668 Y172.207 E6.50532
G1 X158.135 Y172.979 E6.53652
G1 X157.298 Y173.961 E6.57944
G1 X156.9 Y174.376 E6.59856
G1 X156.223 Y175.024 E6.62973
G1 X155.243 Y175.791 E6.67112
G1 X154.842 Y176.07 E6.68737
G1 X153.909 Y176.653 E6.72396
G1 X153.67 Y176.786 E6.73306
G1 X152.698 Y177.266 E6.76912
G1 X152.313 Y177.433 E6.78307
G1 X151.438 Y177.769 E6.81425
G1 X150.439 Y178.053 E6.84879
G1 X149.874 Y178.185 E6.86809
G1 X148.952 Y178.359 E6.8993
G1 X147.585 Y178.471 E6.94492
G1 X146.189 Y178.496 E6.99135
G1 X88.407 Y178.495 E8.91319
G1 X87.885 Y178.488 E8.93056
G1 X87.162 Y178.455 E8.95463
G1 X86.595 Y178.41 E8.97355
G1 X85.664 Y178.296 E9.00474
G1 X84.46 Y178.026 E9.04578
G1 X84.055 Y177.911 E9.05978
G1 X83.052 Y177.573 E9.09499
G1 X82.638 Y177.411 E9.10977
G1 X81.78 Y177.032 E9.14097
G1 X81.075 Y176.652 E9.16761
G1 X80.743 Y176.457 E9.18041
G1 X79.955 Y175.948 E9.21162
G1 X79.463 Y175.578 E9.23209
G1 X79.213 Y175.379 E9.24272
G1 X78.454 Y174.716 E9.27624
G1 X78.12 Y174.396 E9.29162
G1 X77.471 Y173.719 E9.32282
G1 X76.703 Y172.739 E9.36423
G1 X76.437 Y172.357 E9.37971
G1 X75.873 Y171.457 E9.41504
G1 X75.695 Y171.14 E9.42713
G1 X75.092 Y169.888 E9.47335
G1 X74.946 Y169.528 E9.48627
G1 X74.631 Y168.645 E9.51745
G1 X74.393 Y167.74 E9.54857
G1 X74.293 Y167.282 E9.56417
G1 X74.132 Y166.358 E9.59536
G1 X74.065 Y165.683 E9.61792
G1 X74.033 Y165.213 E9.63359
G1 X74.01 Y164.661 E9.65197
G1 X74 Y164.014 E9.67349
G1 X74.005 Y70.902 E12.77041
G1 X74.013 Y70.335 E12.78927
G1 X74.044 Y69.648 E12.81214
G1 X74.084 Y69.127 E12.82952
G1 X74.196 Y68.196 E12.86071
G1 X74.468 Y66.972 E12.90241
G1 X74.609 Y66.474 E12.91962
G1 X75.028 Y65.268 E12.96209
G1 X75.145 Y64.985 E12.97227
G1 X75.539 Y64.135 E13.00343
G1 X75.794 Y63.669 E13.0211
G1 X76.008 Y63.3 E13.03529
G1 X76.513 Y62.51 E13.06647
G1 X76.921 Y61.964 E13.08915
G1 X77.125 Y61.708 E13.10003
G0 F6000 X77.438 Y61.957
G1 F1200 X78.073 Y61.231 E13.13211
G1 X78.391 Y60.899 E13.1474
G1 X79.056 Y60.262 E13.17803
G1 X79.998 Y59.526 E13.21779
G1 X80.378 Y59.262 E13.23318
G1 X81.248 Y58.718 E13.26731
G1 X81.482 Y58.587 E13.27623
G1 X82.376 Y58.14 E13.30947
G1 X82.763 Y57.969 E13.32354
G1 X83.62 Y57.634 E13.35415
G1 X84.681 Y57.333 E13.39083
G1 X85.253 Y57.202 E13.41035
G1 X86.158 Y57.035 E13.44096
G1 X86.889 Y56.959 E13.4654
G1 X87.222 Y56.936 E13.4765
G1 X87.75 Y56.913 E13.49408
G1 X88.529 Y56.9 E13.51999
G1 X146.593 Y56.905 E15.45121
G1 X147.113 Y56.912 E15.46851
G1 X147.804 Y56.944 E15.49151
G1 X148.387 Y56.99 E15.51097
G1 X149.301 Y57.102 E15.54159
G1 X150.445 Y57.359 E15.58059
G1 X150.914 Y57.492 E15.5968
G1 X152.044 Y57.883 E15.63658
G1 X152.322 Y57.997 E15.64657
G1 X153.158 Y58.383 E15.67719
G1 X153.611 Y58.63 E15.69436
G1 X153.991 Y58.85 E15.70896
G1 X154.767 Y59.346 E15.73959
G1 X155.283 Y59.732 E15.76102
G1 X155.553 Y59.947 E15.7725
G1 X156.294 Y60.596 E15.80527
G1 X156.575 Y60.866 E15.81823
G1 X157.455 Y61.821 E15.86142
G1 X157.664 Y62.078 E15.87244
G1 X158.475 Y63.213 E15.91883
G1 X158.871 Y63.89 E15.94492
G1 X159.047 Y64.212 E15.95713
G1 X159.453 Y65.038 E15.98774
G1 X159.855 Y66.107 E16.02572
G1 X160.002 Y66.573 E16.04198
G1 X160.24 Y67.459 E16.07249
G1 X160.307 Y67.76 E16.08275
G1 X160.468 Y68.666 E16.11335
G1 X160.536 Y69.343 E16.13598
G1 X160.568 Y69.813 E16.15165
G1 X160.59 Y70.346 E16.16939
G1 X160.6 Y70.986 E16.19068
G1 X160.599 Y163.946 E19.28254
G1 X160.586 Y164.881 E19.31365
G1 X160.533 Y165.801 E19.3443
G1 X160.423 Y166.59 E19.37079
G1 X160.346 Y167.023 E19.38542
G1 X160.105 Y168.068 E19.42109
G1 X160 Y168.437 E19.43385
G1 X159.71 Y169.311 E19.46448
G1 X159.516 Y169.785 E19.48151
G1 X159.369 Y170.121 E19.49371
G1 X158.964 Y170.947 E19.52431
G1 X158.629 Y171.519 E19.54635
G1 X158.33 Y171.994 E19.56502
G1 X157.806 Y172.751 E19.59564
G1 X157.009 Y173.684 E19.63646
G1 X156.611 Y174.099 E19.65558
G1 X155.946 Y174.735 E19.68619
G1 X155.015 Y175.463 E19.72549
G1 X154.614 Y175.742 E19.74174
G1 X153.714 Y176.303 E19.77702
G1 X153.475 Y176.436 E19.78611
G1 X152.539 Y176.899 E19.82084
G1 X152.154 Y177.066 E19.8348
G1 X151.294 Y177.395 E19.86543
G1 X150.348 Y177.663 E19.89813
G1 X149.783 Y177.795 E19.91743
G1 X148.878 Y177.965 E19.94806
G1 X147.577 Y178.071 E19.99147
G1 X146.189 Y178.096 E20.03764
G1 X88.412 Y178.095 E21.95931
G1 X87.89 Y178.088 E21.97668
G1 X87.193 Y178.056 E21.99988
G1 X86.626 Y178.011 E22.0188
G1 X85.713 Y177.898 E22.0494
G1 X84.57 Y177.641 E22.08836
G1 X84.165 Y177.526 E22.10237
G1 X83.197 Y177.2 E22.13634
G1 X82.783 Y177.038 E22.15113
G1 X81.941 Y176.666 E22.18174
G1 X81.278 Y176.307 E22.20682
G1 X80.946 Y176.112 E22.21963
G1 X80.173 Y175.612 E22.25025
G1 X79.712 Y175.265 E22.26944
G1 X79.462 Y175.066 E22.28006
G1 X78.731 Y174.427 E22.31236
G1 X78.397 Y174.107 E22.32774
G1 X77.76 Y173.442 E22.35837
G1 X77.031 Y172.51 E22.39772
G1 X76.765 Y172.128 E22.41321
G1 X76.221 Y171.261 E22.44725
G1 X76.043 Y170.944 E22.45934
G1 X75.463 Y169.738 E22.50385
G1 X75.317 Y169.378 E22.51677
G1 X75.008 Y168.51 E22.54742
G1 X74.784 Y167.655 E22.57681
G1 X74.684 Y167.197 E22.59241
G1 X74.527 Y166.29 E22.62302
G1 X74.464 Y165.656 E22.64421
G1 X74.432 Y165.186 E22.65988
G1 X74.41 Y164.654 E22.67759
G1 X74.4 Y164.014 E22.69888
G1 X74.405 Y70.907 E25.79563
G1 X74.413 Y70.34 E25.81449
G1 X74.443 Y69.679 E25.8365
G1 X74.483 Y69.158 E25.85388
G1 X74.593 Y68.244 E25.8845
G1 X74.853 Y67.081 E25.92413
G1 X74.994 Y66.583 E25.94135
G1 X75.397 Y65.421 E25.98226
G1 X75.514 Y65.138 E25.99244
G1 X75.903 Y64.303 E26.02308
G1 X76.14 Y63.87 E26.0395
G1 X76.354 Y63.501 E26.05368
G1 X76.85 Y62.726 E26.08429
G1 X77.234 Y62.213 E26.1056
G1 X77.438 Y61.957 E26.11649
G0 F6000 X77.751 Y62.206
G1 F1200 X78.362 Y61.507 E26.14737
G1 X78.68 Y61.175 E26.16266
G1 X79.333 Y60.552 E26.19268
G1 X80.226 Y59.854 E26.23037
G1 X80.606 Y59.59 E26.24576
G1 X81.443 Y59.067 E26.27859
G1 X81.677 Y58.936 E26.28751
G1 X82.538 Y58.506 E26.31952
G1 X82.925 Y58.335 E26.33359
G1 X83.766 Y58.007 E26.36361
G1 X84.77 Y57.722 E26.39833
G1 X85.342 Y57.591 E26.41784
G1 X86.23 Y57.429 E26.44787
G1 X86.916 Y57.358 E26.47081
G1 X87.249 Y57.335 E26.48191
G1 X87.757 Y57.313 E26.49882
G1 X88.529 Y57.3 E26.5245
G1 X146.587 Y57.305 E28.45552
G1 X147.107 Y57.312 E28.47281
G1 X147.772 Y57.343 E28.49496
G1 X148.355 Y57.389 E28.51441
G1 X149.252 Y57.499 E28.54446
G1 X150.336 Y57.744 E28.58143
G1 X150.805 Y57.877 E28.59764
G1 X151.892 Y58.253 E28.6359
G1 X152.17 Y58.367 E28.64589
G1 X152.99 Y58.746 E28.67594
G1 X153.411 Y58.977 E28.69191
G1 X153.791 Y59.197 E28.70651
G1 X154.551 Y59.683 E28.73652
G1 X155.034 Y60.045 E28.75659
G1 X155.304 Y60.26 E28.76807
G1 X156.017 Y60.884 E28.79959
G1 X156.298 Y61.154 E28.81255
G1 X157.145 Y62.073 E28.85411
G1 X157.354 Y62.33 E28.86513
G1 X158.137 Y63.426 E28.90993
G1 X158.52 Y64.082 E28.9352
G1 X158.696 Y64.404 E28.9474
G1 X159.094 Y65.215 E28.97745
G1 X159.473 Y66.227 E29.01339
G1 X159.62 Y66.693 E29.02964
G1 X159.849 Y67.546 E29.05902
G1 X159.916 Y67.847 E29.06928
G1 X160.073 Y68.736 E29.0993
G1 X160.136 Y69.37 E29.12049
G1 X160.168 Y69.84 E29.13616
G1 X160.19 Y70.353 E29.15324
G1 X160.2 Y70.986 E29.1743
G1 X160.199 Y163.941 E32.26599
G1 X160.186 Y164.876 E32.29709
G1 X160.133 Y165.777 E32.32711
G1 X160.029 Y166.52 E32.35207
G1 X159.952 Y166.953 E32.36669
G1 X159.721 Y167.959 E32.40102
G1 X159.616 Y168.328 E32.41378
G1 X159.33 Y169.184 E32.4438
G1 X159.003 Y169.96 E32.47181
G1 X158.605 Y170.771 E32.50186
G1 X158.29 Y171.306 E32.52251
G1 X157.991 Y171.781 E32.54117
G1 X157.477 Y172.523 E32.5712
G1 X156.721 Y173.407 E32.60988
G1 X156.323 Y173.822 E32.62901
G1 X155.669 Y174.446 E32.65907
G1 X154.786 Y175.135 E32.69632
G1 X154.385 Y175.414 E32.71257
G1 X153.52 Y175.954 E32.74649
G1 X153.281 Y176.087 E32.75559
G1 X152.38 Y176.532 E32.78901
G1 X151.995 Y176.699 E32.80297
G1 X151.151 Y177.021 E32.83301
G1 X150.257 Y177.274 E32.86391
G1 X149.692 Y177.406 E32.88321
G1 X148.804 Y177.572 E32.91326
G1 X147.569 Y177.671 E32.95447
G1 X146.189 Y177.696 E33.00037
G1 X88.417 Y177.695 E34.92188
G1 X87.895 Y177.688 E34.93924
G1 X87.225 Y177.657 E34.96155
G1 X86.658 Y177.612 E34.98047
G1 X85.762 Y177.501 E35.0105
G1 X84.679 Y177.256 E35.04743
G1 X84.274 Y177.141 E35.06143
G1 X83.343 Y176.828 E35.0941
G1 X82.929 Y176.666 E35.10888
G1 X82.104 Y176.3 E35.1389
G1 X81.48 Y175.962 E35.16251
G1 X81.148 Y175.767 E35.17531
G1 X80.39 Y175.276 E35.20535
G1 X79.712 Y174.753 E35.23383
G1 X79.008 Y174.138 E35.26492
G1 X78.674 Y173.818 E35.28031
G1 X78.05 Y173.165 E35.31035
G1 X77.359 Y172.282 E35.34764
G1 X77.093 Y171.9 E35.36312
G1 X76.57 Y171.065 E35.39589
G1 X76.392 Y170.748 E35.40798
G1 X75.834 Y169.587 E35.45083
G1 X75.688 Y169.227 E35.46375
G1 X75.386 Y168.376 E35.49378
G1 X75.175 Y167.57 E35.52149
G1 X75.075 Y167.112 E35.53709
G1 X74.921 Y166.222 E35.56713
G1 X74.864 Y165.629 E35.58694
G1 X74.832 Y165.159 E35.60261
G1 X74.81 Y164.647 E35.61965
G1 X74.8 Y164.014 E35.64071
G1 X74.805 Y70.913 E38.73726
G1 X74.813 Y70.346 E38.75612
G1 X74.842 Y69.709 E38.77733
G1 X74.882 Y69.188 E38.79471
G1 X74.991 Y68.292 E38.82473
G1 X75.238 Y67.19 E38.86229
G1 X75.379 Y66.692 E38.87951
G1 X75.767 Y65.574 E38.91887
G1 X75.884 Y65.291 E38.92905
G1 X76.265 Y64.472 E38.9591
G1 X76.7 Y63.702 E38.98851
G1 X77.188 Y62.941 E39.01858
G1 X77.547 Y62.462 E39.03849
G1 X77.751 Y62.206 E39.04938
G1 F2700 E34.04938
;MESH:v1.stl
G0 F6000 X106.719 Y70.001
G0 X107.185 Y125.512
;TYPE:WALL-INNER
G1 F2700 E39.04938
G1 F1200 X106.986 Y125.312 E39.05876
G1 X106.901 Y125.042 E39.06818
G1 X106.9 Y70 E40.89888
G1 X106.946 Y69.768 E40.90675
G1 X107.14 Y69.519 E40.91725
G1 X107.414 Y69.4 E40.92718
G1 X127.5 Y69.4 E41.59524
G1 X127.861 Y69.519 E41.60789
G1 X128.054 Y69.768 E41.61836
G1 X128.1 Y70 E41.62623
G1 X128.099 Y125.042 E43.45694
G1 X128.014 Y125.312 E43.46635
G1 X127.815 Y125.512 E43.47573
G1 X127.581 Y125.595 E43.48399
G1 X107.465 Y125.6 E44.15305
G1 X107.185 Y125.512 E44.16282
G0 F6000 X107.359 Y125.143
;TYPE:WALL-OUTER
G1 F1200 X107.301 Y125.028 E44.1671
G1 X107.3 Y70 E45.99734
G1 X107.38 Y69.839 E46.00332
G1 X107.465 Y69.802 E46.0064
G1 X127.5 Y69.8 E46.67277
G1 X127.621 Y69.839 E46.677
G1 X127.7 Y69.941 E46.68129
G1 X127.698 Y125.035 E48.51372
G1 X127.641 Y125.143 E48.51778
G1 X127.52 Y125.2 E48.52223
G1 X107.473 Y125.199 E49.189
G1 X107.359 Y125.143 E49.19322
G1 F2700 E44.19322
G0 F6000 X107.359 Y125.5
G0 X107.161 Y125.705
G0 X107.161 Y167.076
G0 X87.199 Y166.76
;TYPE:WALL-INNER
G1 F2700 E49.19322
G1 F1200 X87.742 Y166.896 E49.21184
G1 X147.258 Y166.896 E51.19135
G1 X147.798 Y166.76 E51.20987
G1 X148.23 Y166.559 E51.22572
G1 X148.608 Y166.279 E51.24136
G1 X148.927 Y165.931 E51.25707
G1 X149.166 Y165.531 E51.27256
G1 X149.303 Y165.192 E51.28473
G1 X149.385 Y164.792 E51.29831
G1 X149.4 Y164.49 E51.30836
G1 X149.4 Y70.516 E54.43395
G1 X149.385 Y70.204 E54.44434
G1 X149.327 Y69.924 E54.45385
G1 X149.243 Y69.64 E54.4637
G1 X149.115 Y69.37 E54.47364
G1 X148.965 Y69.12 E54.48334
G1 X148.705 Y68.803 E54.49697
G1 X148.388 Y68.538 E54.51071
G1 X148.081 Y68.353 E54.52264
G1 X147.798 Y68.239 E54.53278
G1 X147.262 Y68.105 E54.55116
G1 X88.016 Y68.101 E56.52169
G1 X87.708 Y68.116 E56.53195
G1 X87.419 Y68.174 E56.54175
G1 X86.979 Y68.33 E56.55728
G1 X86.572 Y68.573 E56.57304
G1 X86.225 Y68.887 E56.58861
G1 X86.036 Y69.116 E56.59848
G1 X85.854 Y69.42 E56.61027
G1 X85.739 Y69.703 E56.62043
G1 X85.605 Y70.238 E56.63877
G1 X85.6 Y164.484 E59.77341
G1 X85.616 Y164.794 E59.78373
G1 X85.698 Y165.195 E59.79734
G1 X85.886 Y165.656 E59.8139
G1 X86.278 Y166.183 E59.83575
G1 X86.613 Y166.462 E59.85025
G1 X86.917 Y166.644 E59.86203
G1 X87.199 Y166.76 E59.87218
G0 F6000 X87.858 Y167.296
;TYPE:WALL-OUTER
G1 F1200 X147.136 Y167.296 E61.84377
G1 X147.408 Y167.269 E61.85286
G1 X147.673 Y167.215 E61.86186
G1 X147.93 Y167.138 E61.87078
G1 X148.192 Y167.032 E61.88018
G1 X148.435 Y166.903 E61.88933
G1 X148.666 Y166.748 E61.89858
G1 X148.877 Y166.576 E61.90764
G1 X149.071 Y166.382 E61.91676
G1 X149.248 Y166.17 E61.92595
G1 X149.399 Y165.943 E61.93502
G1 X149.528 Y165.701 E61.94414
G1 X149.639 Y165.43 E61.95388
G1 X149.713 Y165.183 E61.96245
G1 X149.783 Y164.842 E61.97403
G1 X149.8 Y164.5 E61.98542
G1 X149.8 Y70.506 E65.11167
G1 X149.783 Y70.154 E65.12339
G1 X149.715 Y69.827 E65.1345
G1 X149.618 Y69.497 E65.14594
G1 X149.468 Y69.181 E65.15758
G1 X149.293 Y68.89 E65.16887
G1 X149.072 Y68.619 E65.1805
G1 X148.882 Y68.429 E65.18944
G1 X148.62 Y68.211 E65.20078
G1 X148.26 Y67.994 E65.21476
G1 X147.93 Y67.861 E65.22659
G1 X147.678 Y67.786 E65.23533
G1 X147.414 Y67.732 E65.2443
G1 X147.142 Y67.705 E65.25339
G1 X88.006 Y67.701 E67.22026
G1 X87.658 Y67.718 E67.23185
G1 X87.321 Y67.786 E67.24328
G1 X87.07 Y67.861 E67.252
G1 X86.809 Y67.968 E67.26138
G1 X86.56 Y68.1 E67.27075
G1 X86.334 Y68.251 E67.27979
G1 X86.123 Y68.424 E67.28887
G1 X85.929 Y68.617 E67.29797
G1 X85.708 Y68.884 E67.3095
G1 X85.494 Y69.241 E67.32334
G1 X85.361 Y69.57 E67.33514
G1 X85.286 Y69.821 E67.34386
G1 X85.231 Y70.091 E67.35302
G1 X85.205 Y70.364 E67.36214
G1 X85.2 Y164.494 E70.49292
G1 X85.218 Y164.843 E70.50454
G1 X85.285 Y165.173 E70.51574
G1 X85.36 Y165.425 E70.52449
G1 X85.47 Y165.697 E70.53424
G1 X85.598 Y165.938 E70.54332
G1 X85.748 Y166.161 E70.55226
G1 X85.926 Y166.379 E70.56162
G1 X86.117 Y166.57 E70.5706
G1 X86.381 Y166.789 E70.58201
G1 X86.737 Y167.003 E70.59583
G1 X87.065 Y167.138 E70.60763
G1 X87.316 Y167.213 E70.61634
G1 X87.586 Y167.268 E70.6255
G1 X87.858 Y167.296 E70.6346
G0 F6000 X87.437 Y166.469
;TYPE:SKIN
