;FLAVOR:Marlin
;TIME:8404
;Filament used: 3.66994m
;Layer height: 0.2
;MINX:81.2
;MINY:59.705
;MINZ:0.2
;MAXX:153.8
;MAXY:175.295
;MAXZ:3.2
;Generated with Cura_SteamEngine 5.2.2
M140 S50
M105
M190 S50
M104 S200
M105
M109 S200
M82 ;absolute extrusion mode
; Ender 3 Custom Start G-code
G92 E0 ; Reset Extruder
G28 ; Home all axes
G1 Z2.0 F3000 ; Move Z Axis up little to prevent scratching of Heat Bed
G1 X0.1 Y20 Z0.3 F5000.0 ; Move to start position
G1 X0.1 Y200.0 Z0.3 F1500.0 E15 ; Draw the first line
G1 X0.4 Y200.0 Z0.3 F5000.0 ; Move to side a little
G1 X0.4 Y20 Z0.3 F1500.0 E30 ; Draw the second line
G92 E0 ; Reset Extruder
G1 Z2.0 F3000 ; Move Z Axis up little to prevent scratching of Heat Bed
G1 X5 Y20 Z0.3 F5000.0 ; Move over to prevent blob squish
G92 E0
G92 E0
G1 F2700 E-5
;LAYER_COUNT:16
;LAYER:0
M107
G0 F6000 X91.465 Y73.341 Z0.2
;TYPE:SKIRT
G1 F2700 E0
G1 F1200 X92.262 Y72.351 E0.04227
G1 X93.241 Y71.215 E0.09215
G1 X94.087 Y70.297 E0.13367
G1 X94.971 Y69.401 E0.17554
G1 X95.885 Y68.531 E0.2175
G1 X96.627 Y67.866 E0.25064
G1 X97.582 Y67.061 E0.29219
G1 X98.571 Y66.285 E0.334
G1 X99.801 Y65.394 E0.38451
G1 X100.847 Y64.698 E0.4263
G1 X101.698 Y64.172 E0.45958
G1 X102.728 Y63.581 E0.49907
G1 X103.852 Y62.989 E0.54133
G1 X104.12 Y62.856 E0.55128
G1 X105.193 Y62.354 E0.59068
G1 X106.338 Y61.871 E0.63201
G1 X107.527 Y61.424 E0.67426
G1 X108.355 Y61.145 E0.70332
G1 X109.518 Y60.797 E0.7437
G1 X110.708 Y60.492 E0.78456
G1 X111.024 Y60.42 E0.79533
G1 X112.263 Y60.17 E0.83737
G1 X113.42 Y59.985 E0.87635
G1 X114.314 Y59.874 E0.90631
G1 X114.641 Y59.841 E0.91724
G1 X115.855 Y59.748 E0.95774
G1 X116.796 Y59.71 E0.98906
G1 X117.974 Y59.705 E1.02824
G1 X119.183 Y59.749 E1.06848
G1 X119.512 Y59.769 E1.07944
G1 X120.408 Y59.844 E1.10935
G1 X121.621 Y59.99 E1.14998
G1 X122.828 Y60.185 E1.19065
G1 X123.158 Y60.248 E1.20182
G1 X124.144 Y60.457 E1.23534
G1 X124.509 Y60.543 E1.24782
G1 X125.594 Y60.828 E1.28513
G1 X125.962 Y60.934 E1.29787
G1 X127.038 Y61.274 E1.3354
G1 X127.394 Y61.396 E1.34791
G1 X128.462 Y61.791 E1.38579
G1 X128.821 Y61.935 E1.39865
G1 X129.874 Y62.385 E1.43674
G1 X130.202 Y62.534 E1.44872
G1 X131.243 Y63.037 E1.48718
G1 X131.564 Y63.201 E1.49917
G1 X132.589 Y63.756 E1.53793
G1 X132.91 Y63.939 E1.55022
G1 X133.916 Y64.547 E1.58932
G1 X134.205 Y64.731 E1.60071
G1 X135.193 Y65.389 E1.6402
G1 X135.479 Y65.589 E1.6518
G1 X136.448 Y66.299 E1.69176
G1 X136.711 Y66.501 E1.70279
G1 X137.657 Y67.258 E1.74309
G1 X137.911 Y67.47 E1.75409
G1 X138.835 Y68.276 E1.79487
G1 X139.089 Y68.507 E1.80629
G1 X140.086 Y69.457 E1.85209
G1 X140.347 Y69.718 E1.86437
G1 X141.417 Y70.839 E1.91591
G1 X141.669 Y71.116 E1.92837
G1 X142.697 Y72.302 E1.98057
G1 X142.934 Y72.589 E1.99295
G1 X143.918 Y73.84 E2.04589
G1 X144.133 Y74.127 E2.05782
G1 X145.069 Y75.437 E2.11137
G1 X145.266 Y75.726 E2.123
G1 X146.155 Y77.096 E2.17732
G1 X146.335 Y77.387 E2.1887
G1 X147.172 Y78.81 E2.24361
G1 X147.335 Y79.1 E2.25467
G1 X148.12 Y80.575 E2.31025
G1 X148.275 Y80.884 E2.32174
G1 X149.082 Y82.577 E2.38412
G1 X149.236 Y82.921 E2.39666
G1 X150.051 Y84.868 E2.46686
G1 X150.19 Y85.224 E2.47957
G1 X150.916 Y87.229 E2.5505
G1 X151.036 Y87.587 E2.56305
G1 X151.671 Y89.647 E2.63475
G1 X151.772 Y90.006 E2.64716
G1 X152.312 Y92.11 E2.7194
G1 X152.394 Y92.46 E2.73136
G1 X152.84 Y94.604 E2.8042
G1 X152.905 Y94.96 E2.81623
G1 X153.253 Y97.134 E2.88946
G1 X153.301 Y97.489 E2.90137
G1 X153.55 Y99.688 E2.97498
G1 X153.582 Y100.038 E2.98667
G1 X153.732 Y102.25 E3.06041
G1 X153.748 Y102.603 E3.07216
G1 X153.8 Y105 E3.15191
G1 X153.799 Y130.158 E3.98867
G1 X153.78 Y131.497 E4.03321
G1 X153.736 Y132.716 E4.07378
G1 X153.58 Y135.006 E4.15012
G1 X153.363 Y137.041 E4.21819
G1 X153.118 Y138.782 E4.27666
G1 X152.766 Y140.787 E4.34437
G1 X152.343 Y142.771 E4.41184
G1 X152.274 Y143.064 E4.42185
G1 X151.843 Y144.742 E4.47947
G1 X151.187 Y146.954 E4.55621
G1 X150.536 Y148.858 E4.62314
G1 X149.931 Y150.439 E4.67944
G1 X149.815 Y150.725 E4.68971
G1 X149.153 Y152.269 E4.74558
G1 X148.396 Y153.876 E4.80466
G1 X147.683 Y155.263 E4.85653
G1 X147.041 Y156.424 E4.90066
G1 X146.348 Y157.594 E4.94589
G1 X145.776 Y158.504 E4.98164
G1 X144.924 Y159.776 E5.03256
G1 X144.309 Y160.636 E5.06772
G1 X143.393 Y161.841 E5.11807
G1 X142.74 Y162.648 E5.15259
G1 X141.759 Y163.784 E5.20252
G1 X140.914 Y164.702 E5.24401
G1 X140.029 Y165.6 E5.28595
G1 X139.304 Y166.294 E5.31933
G1 X138.378 Y167.13 E5.36082
G1 X137.415 Y167.942 E5.40272
G1 X136.431 Y168.714 E5.44432
G1 X135.431 Y169.444 E5.4855
G1 X134.401 Y170.142 E5.52688
G1 X134.153 Y170.302 E5.5367
G1 X133.058 Y170.973 E5.57941
G1 X132.019 Y171.558 E5.61907
G1 X131.145 Y172.013 E5.65184
G1 X130.075 Y172.525 E5.69129
G1 X128.95 Y173.012 E5.73207
G1 X128.667 Y173.126 E5.74222
G1 X127.47 Y173.577 E5.78476
G1 X126.359 Y173.945 E5.82369
G1 X125.484 Y174.203 E5.85403
G1 X125.168 Y174.289 E5.86492
G1 X124.287 Y174.509 E5.89512
G1 X123.052 Y174.771 E5.93711
G1 X121.887 Y174.97 E5.97642
G1 X120.689 Y175.125 E6.0166
G1 X120.359 Y175.159 E6.02763
G1 X119.145 Y175.252 E6.06813
G1 X118.205 Y175.29 E6.09942
G1 X117.027 Y175.295 E6.1386
G1 X115.817 Y175.251 E6.17887
G1 X115.487 Y175.231 E6.18987
G1 X114.273 Y175.123 E6.23041
G1 X113.379 Y175.011 E6.26037
G1 X112.171 Y174.815 E6.30108
G1 X111.841 Y174.752 E6.31225
G1 X110.856 Y174.543 E6.34574
G1 X110.492 Y174.457 E6.35818
G1 X109.404 Y174.171 E6.3956
G1 X109.043 Y174.067 E6.40809
G1 X107.967 Y173.728 E6.44561
G1 X107.605 Y173.604 E6.45834
G1 X106.537 Y173.209 E6.49621
G1 X106.178 Y173.065 E6.50908
G1 X105.125 Y172.615 E6.54717
G1 X104.791 Y172.464 E6.55936
G1 X103.752 Y171.961 E6.59775
G1 X103.437 Y171.799 E6.60953
G1 X102.412 Y171.244 E6.6483
G1 X102.09 Y171.059 E6.66065
G1 X101.083 Y170.45 E6.69979
G1 X100.798 Y170.27 E6.71101
G1 X99.809 Y169.612 E6.75052
G1 X99.52 Y169.41 E6.76224
G1 X98.551 Y168.7 E6.8022
G1 X98.288 Y168.498 E6.81323
G1 X97.342 Y167.741 E6.85353
G1 X97.088 Y167.529 E6.86453
G1 X96.164 Y166.723 E6.90531
G1 X95.91 Y166.492 E6.91673
G1 X94.914 Y165.543 E6.96249
G1 X94.653 Y165.282 E6.97476
G1 X93.583 Y164.161 E7.02631
G1 X93.331 Y163.884 E7.03876
G1 X92.302 Y162.697 E7.09101
G1 X92.065 Y162.41 E7.10339
G1 X91.081 Y161.159 E7.15633
G1 X90.866 Y160.872 E7.16825
G1 X89.93 Y159.562 E7.2218
G1 X89.733 Y159.273 E7.23344
G1 X88.844 Y157.903 E7.28776
G1 X88.664 Y157.612 E7.29914
G1 X87.827 Y156.189 E7.35405
G1 X87.664 Y155.897 E7.36517
G1 X86.88 Y154.423 E7.4207
G1 X86.724 Y154.115 E7.43218
G1 X85.917 Y152.421 E7.49459
G1 X85.764 Y152.078 E7.50708
G1 X84.949 Y150.131 E7.57728
G1 X84.81 Y149.775 E7.59
G1 X84.084 Y147.77 E7.66092
G1 X83.964 Y147.412 E7.67348
G1 X83.329 Y145.352 E7.74518
G1 X83.229 Y144.996 E7.75747
G1 X82.688 Y142.892 E7.82973
G1 X82.605 Y142.537 E7.84186
G1 X82.16 Y140.395 E7.91462
G1 X82.095 Y140.04 E7.92662
G1 X81.747 Y137.864 E7.99992
G1 X81.699 Y137.51 E8.0118
G1 X81.45 Y135.311 E8.08541
G1 X81.418 Y134.961 E8.0971
G1 X81.268 Y132.749 E8.17084
G1 X81.252 Y132.397 E8.18256
G1 X81.2 Y130.001 E8.26227
G1 X81.201 Y104.842 E9.09906
G1 X81.22 Y103.501 E9.14366
G1 X81.264 Y102.283 E9.1842
G1 X81.42 Y99.992 E9.26058
G1 X81.603 Y98.238 E9.31923
G1 X81.882 Y96.218 E9.38705
G1 X82.234 Y94.213 E9.45476
G1 X82.29 Y93.929 E9.46439
G1 X82.726 Y91.939 E9.53215
G1 X83.156 Y90.262 E9.58973
G1 X83.722 Y88.333 E9.65659
G1 X84.362 Y86.427 E9.72346
G1 X85.071 Y84.559 E9.78992
G1 X85.186 Y84.275 E9.80011
G1 X85.969 Y82.462 E9.86579
G1 X86.718 Y80.894 E9.92359
G1 X87.318 Y79.736 E9.96697
G1 X87.844 Y78.779 E10.00329
G1 X88.65 Y77.41 E10.05613
G1 X89.222 Y76.499 E10.0919
G1 X90.074 Y75.227 E10.14283
G1 X90.83 Y74.175 E10.18591
G1 X91.465 Y73.341 E10.22078
G0 F6000 X91.783 Y73.583
G1 F1200 X92.573 Y72.602 E10.26267
G1 X93.536 Y71.485 E10.31172
G1 X94.193 Y70.766 E10.34412
G1 X95.082 Y69.854 E10.38648
G1 X96.152 Y68.829 E10.43576
G1 X96.894 Y68.164 E10.4689
G1 X98.044 Y67.202 E10.51877
G1 X99.018 Y66.449 E10.55971
G1 X99.804 Y65.879 E10.59201
G1 X101.057 Y65.038 E10.6422
G1 X101.908 Y64.512 E10.67547
G1 X102.926 Y63.928 E10.71451
G1 X104.037 Y63.344 E10.75625
G1 X105.096 Y62.836 E10.79532
G1 X106.204 Y62.357 E10.83547
G1 X106.481 Y62.245 E10.84541
G1 X107.655 Y61.803 E10.88713
G1 X108.755 Y61.438 E10.92568
G1 X109.631 Y61.18 E10.95605
G1 X110.805 Y60.88 E10.99635
G1 X111.105 Y60.811 E11.00659
G1 X112.033 Y60.619 E11.03811
G1 X112.328 Y60.565 E11.04808
G1 X113.469 Y60.382 E11.08652
G1 X114.673 Y60.239 E11.12685
G1 X115.568 Y60.166 E11.15671
G1 X116.812 Y60.11 E11.19813
G1 X117.12 Y60.104 E11.20838
G1 X118.27 Y60.111 E11.24663
G1 X119.166 Y60.148 E11.27645
G1 X120.374 Y60.243 E11.31675
G1 X120.678 Y60.275 E11.32692
G1 X121.871 Y60.43 E11.36693
G1 X122.762 Y60.579 E11.39698
G1 X124.061 Y60.848 E11.4411
G1 X124.407 Y60.93 E11.45293
G1 X125.492 Y61.215 E11.49024
G1 X125.842 Y61.316 E11.50236
G1 X126.918 Y61.656 E11.53989
G1 X127.255 Y61.771 E11.55173
G1 X128.323 Y62.166 E11.58961
G1 X128.664 Y62.302 E11.60182
G1 X129.717 Y62.752 E11.6399
G1 X130.028 Y62.894 E11.65127
G1 X131.069 Y63.397 E11.68973
G1 X131.373 Y63.553 E11.70109
G1 X132.398 Y64.108 E11.73986
G1 X132.703 Y64.282 E11.75154
G1 X133.709 Y64.89 E11.79064
G1 X133.983 Y65.064 E11.80143
G1 X134.971 Y65.722 E11.84091
G1 X135.243 Y65.912 E11.85195
G1 X136.212 Y66.622 E11.8919
G1 X136.461 Y66.813 E11.90234
G1 X137.407 Y67.57 E11.94264
G1 X137.648 Y67.771 E11.95308
G1 X138.572 Y68.577 E11.99386
G1 X138.813 Y68.797 E12.00471
G1 X139.81 Y69.747 E12.05051
G1 X140.058 Y69.995 E12.06218
G1 X141.128 Y71.116 E12.11372
G1 X141.367 Y71.378 E12.12552
G1 X142.395 Y72.564 E12.17772
G1 X142.619 Y72.836 E12.18944
G1 X143.603 Y74.087 E12.24238
G1 X143.808 Y74.36 E12.25373
G1 X144.744 Y75.67 E12.30728
G1 X144.931 Y75.944 E12.31832
G1 X145.82 Y77.314 E12.37263
G1 X145.99 Y77.59 E12.38342
G1 X146.827 Y79.013 E12.43833
G1 X146.981 Y79.288 E12.44881
G1 X147.766 Y80.763 E12.50438
G1 X147.914 Y81.056 E12.5153
G1 X148.721 Y82.749 E12.57768
G1 X148.867 Y83.076 E12.58959
G1 X149.682 Y85.023 E12.65979
G1 X149.814 Y85.361 E12.67186
G1 X150.54 Y87.366 E12.74279
G1 X150.654 Y87.705 E12.75468
G1 X151.289 Y89.765 E12.82638
G1 X151.385 Y90.105 E12.83813
G1 X151.925 Y92.209 E12.91038
G1 X152.002 Y92.542 E12.92174
G1 X152.448 Y94.686 E12.99458
G1 X152.51 Y95.023 E13.00598
G1 X152.858 Y97.197 E13.07921
G1 X152.904 Y97.534 E13.09052
G1 X153.153 Y99.733 E13.16412
G1 X153.183 Y100.065 E13.17521
G1 X153.333 Y102.277 E13.24895
G1 X153.348 Y102.612 E13.26011
G1 X153.4 Y105 E13.33955
G1 X153.399 Y130.153 E14.17614
G1 X153.38 Y131.483 E14.22038
G1 X153.324 Y132.933 E14.26864
G1 X153.182 Y134.965 E14.33639
G1 X152.967 Y136.985 E14.40396
G1 X152.68 Y138.992 E14.47139
G1 X152.373 Y140.717 E14.52967
G1 X151.952 Y142.686 E14.59664
G1 X151.886 Y142.965 E14.60617
G1 X151.383 Y144.905 E14.67283
G1 X150.808 Y146.826 E14.73952
G1 X150.26 Y148.444 E14.79634
G1 X149.557 Y150.296 E14.86223
G1 X149.447 Y150.567 E14.87196
G1 X148.668 Y152.37 E14.93728
G1 X147.928 Y153.92 E14.99441
G1 X147.424 Y154.898 E15.031
G1 X146.696 Y156.221 E15.08123
G1 X146.009 Y157.381 E15.12607
G1 X145.322 Y158.469 E15.16886
G1 X144.729 Y159.355 E15.20432
G1 X143.857 Y160.575 E15.2542
G1 X143.082 Y161.59 E15.29668
G1 X142.429 Y162.397 E15.3312
G1 X141.6 Y163.362 E15.37352
G1 X140.628 Y164.422 E15.42135
G1 X139.752 Y165.311 E15.46286
G1 X139.027 Y166.005 E15.49624
G1 X138.111 Y166.832 E15.53729
G1 X137.158 Y167.635 E15.57874
G1 X135.981 Y168.552 E15.62836
G1 X135.196 Y169.121 E15.66061
G1 X134.178 Y169.81 E15.7015
G1 X133.092 Y170.488 E15.74408
G1 X131.834 Y171.203 E15.7922
G1 X130.709 Y171.783 E15.8343
G1 X129.904 Y172.164 E15.86392
G1 X128.793 Y172.644 E15.90418
G1 X127.62 Y173.098 E15.94601
G1 X127.342 Y173.197 E15.95583
G1 X126.246 Y173.561 E15.99424
G1 X125.071 Y173.901 E16.03492
G1 X123.901 Y174.187 E16.07498
G1 X122.971 Y174.38 E16.10657
G1 X121.822 Y174.575 E16.14534
G1 X120.64 Y174.728 E16.18498
G1 X120.327 Y174.761 E16.19544
G1 X119.431 Y174.834 E16.22534
G1 X118.189 Y174.89 E16.2667
G1 X117.881 Y174.896 E16.27694
G1 X116.731 Y174.889 E16.31519
G1 X115.833 Y174.852 E16.34508
G1 X115.52 Y174.832 E16.35552
G1 X114.323 Y174.726 E16.39548
G1 X113.429 Y174.614 E16.42545
G1 X112.237 Y174.42 E16.46562
G1 X111.924 Y174.361 E16.47621
G1 X110.939 Y174.152 E16.5097
G1 X110.594 Y174.07 E16.5215
G1 X109.506 Y173.784 E16.55891
G1 X109.163 Y173.685 E16.57079
G1 X108.087 Y173.346 E16.60831
G1 X107.744 Y173.229 E16.62036
G1 X106.676 Y172.834 E16.65824
G1 X106.335 Y172.698 E16.67045
G1 X105.282 Y172.248 E16.70853
G1 X104.966 Y172.104 E16.72008
G1 X103.927 Y171.601 E16.75848
G1 X103.628 Y171.447 E16.76966
G1 X102.603 Y170.892 E16.80843
G1 X102.297 Y170.717 E16.82016
G1 X101.29 Y170.108 E16.8593
G1 X101.02 Y169.937 E16.86993
G1 X100.031 Y169.279 E16.90944
G1 X99.756 Y169.087 E16.92059
G1 X98.787 Y168.377 E16.96055
G1 X98.538 Y168.186 E16.97099
G1 X97.592 Y167.429 E17.01128
G1 X97.351 Y167.228 E17.02172
G1 X96.427 Y166.422 E17.0625
G1 X96.186 Y166.202 E17.07336
G1 X95.19 Y165.253 E17.11911
G1 X94.942 Y165.005 E17.13078
G1 X93.872 Y163.884 E17.18232
G1 X93.634 Y163.622 E17.19409
G1 X92.605 Y162.435 E17.24634
G1 X92.38 Y162.163 E17.25808
G1 X91.396 Y160.912 E17.31102
G1 X91.191 Y160.639 E17.32238
G1 X90.255 Y159.329 E17.37593
G1 X90.068 Y159.055 E17.38696
G1 X89.179 Y157.685 E17.44128
G1 X89.009 Y157.409 E17.45206
G1 X88.172 Y155.986 E17.50697
G1 X88.017 Y155.709 E17.51753
G1 X87.233 Y154.235 E17.57306
G1 X87.085 Y153.943 E17.58394
G1 X86.278 Y152.249 E17.64635
G1 X86.133 Y151.923 E17.65822
G1 X85.318 Y149.976 E17.72842
G1 X85.186 Y149.638 E17.74049
G1 X84.46 Y147.633 E17.81141
G1 X84.346 Y147.294 E17.82331
G1 X83.711 Y145.234 E17.89501
G1 X83.616 Y144.897 E17.90665
G1 X83.075 Y142.793 E17.97891
G1 X82.997 Y142.455 E17.99045
G1 X82.552 Y140.313 E18.06321
G1 X82.49 Y139.977 E18.07457
G1 X82.142 Y137.801 E18.14787
G1 X82.096 Y137.465 E18.15915
G1 X81.847 Y135.266 E18.23275
G1 X81.817 Y134.934 E18.24384
G1 X81.667 Y132.722 E18.31758
G1 X81.652 Y132.388 E18.3287
G1 X81.6 Y130.001 E18.40811
G1 X81.601 Y104.847 E19.24474
G1 X81.62 Y103.516 E19.28901
G1 X81.676 Y102.067 E19.33724
G1 X81.818 Y100.033 E19.40506
G1 X82.033 Y98.017 E19.47249
G1 X82.278 Y96.274 E19.53103
G1 X82.681 Y94.014 E19.60739
G1 X83.114 Y92.038 E19.67467
G1 X83.544 Y90.361 E19.73225
G1 X84.106 Y88.446 E19.79863
G1 X84.193 Y88.173 E19.80816
G1 X84.838 Y86.285 E19.87452
G1 X85.444 Y84.702 E19.93089
G1 X86.215 Y82.89 E19.99639
G1 X86.331 Y82.633 E20.00577
G1 X87.073 Y81.077 E20.0631
G1 X87.577 Y80.1 E20.09967
G1 X88.195 Y78.972 E20.14245
G1 X88.989 Y77.623 E20.19451
G1 X89.677 Y76.533 E20.23738
G1 X90.399 Y75.46 E20.2804
G1 X91.148 Y74.417 E20.32311
G1 X91.783 Y73.583 E20.35797
G0 F6000 X92.23 Y73.662
G1 F1200 X92.884 Y72.854 E20.39254
G1 X93.831 Y71.755 E20.4408
G1 X94.658 Y70.857 E20.4814
G1 X95.524 Y69.978 E20.52244
G1 X96.25 Y69.283 E20.55587
G1 X97.161 Y68.462 E20.59666
G1 X98.095 Y67.675 E20.63728
G1 X99.062 Y66.916 E20.67817
G1 X100.039 Y66.203 E20.71839
G1 X101.047 Y65.521 E20.75887
G1 X102.34 Y64.721 E20.80944
G1 X103.347 Y64.154 E20.84788
G1 X104.462 Y63.579 E20.88961
G1 X105.508 Y63.089 E20.92803
G1 X106.361 Y62.724 E20.95888
G1 X107.783 Y62.182 E21.0095
G1 X108.611 Y61.903 E21.03856
G1 X109.744 Y61.564 E21.0779
G1 X110.903 Y61.268 E21.11768
G1 X111.186 Y61.203 E21.12734
G1 X112.393 Y60.959 E21.1683
G1 X113.518 Y60.779 E21.20619
G1 X114.412 Y60.668 E21.23615
G1 X115.601 Y60.565 E21.27585
G1 X116.829 Y60.51 E21.31673
G1 X117.119 Y60.504 E21.32638
G1 X118.254 Y60.511 E21.36413
G1 X119.445 Y60.566 E21.40378
G1 X120.628 Y60.671 E21.44329
G1 X121.521 Y60.783 E21.47322
G1 X122.696 Y60.974 E21.51281
G1 X122.993 Y61.03 E21.52287
G1 X123.979 Y61.239 E21.55639
G1 X124.305 Y61.317 E21.56754
G1 X125.39 Y61.602 E21.60485
G1 X125.721 Y61.697 E21.6163
G1 X126.797 Y62.037 E21.65383
G1 X127.116 Y62.147 E21.66506
G1 X128.184 Y62.542 E21.70293
G1 X128.507 Y62.67 E21.71449
G1 X129.56 Y63.12 E21.75257
G1 X129.854 Y63.254 E21.76332
G1 X130.895 Y63.757 E21.80177
G1 X131.183 Y63.904 E21.81253
G1 X132.208 Y64.459 E21.8513
G1 X132.496 Y64.624 E21.86234
G1 X133.502 Y65.232 E21.90143
