;FLAVOR:Marlin
;TIME:5914
;Filament used: 4.36508m
;Layer height: 0.2
;MINX:75.5
;MINY:58
;MINZ:0.2
;MAXX:159.5
;MAXY:177
;MAXZ:3.2
;Generated with Cura_SteamEngine 5.2.2
M140 S50
M105
M190 S50
M104 S200
M105
M109 S200
M82 ;absolute extrusion mode
; Ender 3 Custom Start G-code
G92 E0 ; Reset Extruder
G28 ; Home all axes
G1 Z2.0 F3000 ; Move Z Axis up little to prevent scratching of Heat Bed
G1 X0.1 Y20 Z0.3 F5000.0 ; Move to start position
G1 X0.1 Y200.0 Z0.3 F1500.0 E15 ; Draw the first line
G1 X0.4 Y200.0 Z0.3 F5000.0 ; Move to side a little
G1 X0.4 Y20 Z0.3 F1500.0 E30 ; Draw the second line
G92 E0 ; Reset Extruder
G1 Z2.0 F3000 ; Move Z Axis up little to prevent scratching of Heat Bed
G1 X5 Y20 Z0.3 F5000.0 ; Move over to prevent blob squish
G92 E0
G92 E0
G1 F2700 E-5
;LAYER_COUNT:16
;LAYER:0
M107
G0 F6000 X80.985 Y66.74 Z0.2
;TYPE:SKIRT
G1 F2700 E0
G1 F1200 X81.351 Y66.308 E0.01883
G1 X81.795 Y65.81 E0.04102
G1 X82.156 Y65.424 E0.0586
G1 X82.585 Y64.987 E0.07897
G1 X82.964 Y64.619 E0.09654
G1 X83.459 Y64.161 E0.11897
G1 X83.86 Y63.808 E0.13674
G1 X84.326 Y63.417 E0.15697
G1 X84.775 Y63.059 E0.17607
G1 X85.323 Y62.646 E0.19889
G1 X85.739 Y62.348 E0.21591
G1 X86.225 Y62.016 E0.23549
G1 X86.692 Y61.714 E0.25399
G1 X87.271 Y61.36 E0.27656
G1 X87.699 Y61.111 E0.29303
G1 X88.178 Y60.847 E0.31122
G1 X88.654 Y60.6 E0.32905
G1 X89.259 Y60.304 E0.35146
G1 X89.774 Y60.068 E0.3703
G1 X90.383 Y59.808 E0.39232
G1 X90.879 Y59.611 E0.41007
G1 X91.451 Y59.399 E0.43036
G1 X91.963 Y59.223 E0.44837
G1 X92.584 Y59.027 E0.47003
G1 X93.131 Y58.87 E0.48896
G1 X93.782 Y58.701 E0.51133
G1 X94.289 Y58.582 E0.52865
G1 X94.89 Y58.456 E0.54907
G1 X95.415 Y58.359 E0.56683
G1 X96.042 Y58.259 E0.58795
G1 X96.586 Y58.186 E0.6062
G1 X97.221 Y58.117 E0.62745
G1 X97.751 Y58.073 E0.64513
G1 X98.418 Y58.033 E0.66736
G1 X98.944 Y58.014 E0.68487
G1 X100.245 Y58 E0.72814
G1 X101.634 Y58.011 E0.77434
G1 X102.571 Y58.059 E0.80554
G1 X103.121 Y58.124 E0.82397
G1 X106.153 Y58.562 E0.92586
G1 X108.639 Y58.846 E1.00908
G1 X111.154 Y59.061 E1.09303
G1 X113.671 Y59.205 E1.17689
G1 X116.159 Y59.276 E1.25967
G1 X118.682 Y59.278 E1.34359
G1 X121.212 Y59.207 E1.42777
G1 X123.718 Y59.067 E1.51125
G1 X126.248 Y58.853 E1.5957
G1 X128.721 Y58.573 E1.67847
G1 X130.529 Y58.316 E1.73921
G1 X130.668 Y58.302 E1.74386
G1 X131.863 Y58.127 E1.78403
G1 X133.109 Y58.017 E1.82563
G1 X133.722 Y58.002 E1.84603
G1 X134.808 Y58 E1.88215
G1 X135.965 Y58.014 E1.92063
G1 X136.806 Y58.045 E1.94862
G1 X137.324 Y58.079 E1.96589
G1 X137.95 Y58.135 E1.98679
G1 X138.482 Y58.195 E2.0046
G1 X139.116 Y58.283 E2.02589
G1 X139.618 Y58.365 E2.04281
G1 X140.23 Y58.479 E2.06351
G1 X140.823 Y58.606 E2.08368
G1 X141.479 Y58.766 E2.10614
G1 X141.997 Y58.906 E2.12399
G1 X142.618 Y59.09 E2.14553
G1 X143.091 Y59.242 E2.16205
G1 X143.663 Y59.44 E2.18219
G1 X144.189 Y59.637 E2.20087
G1 X144.785 Y59.878 E2.22225
G1 X145.285 Y60.095 E2.24038
G1 X145.885 Y60.373 E2.26237
G1 X146.362 Y60.608 E2.28006
G1 X146.895 Y60.887 E2.30007
G1 X147.37 Y61.151 E2.31814
G1 X147.909 Y61.468 E2.33894
G1 X148.337 Y61.733 E2.35568
G1 X148.882 Y62.088 E2.37732
G1 X149.376 Y62.43 E2.3973
G1 X149.936 Y62.84 E2.42039
G1 X150.353 Y63.16 E2.43787
G1 X150.812 Y63.531 E2.4575
G1 X151.215 Y63.873 E2.47508
G1 X151.692 Y64.298 E2.49633
G1 X152.076 Y64.658 E2.51383
G1 X152.543 Y65.116 E2.53559
G1 X152.918 Y65.501 E2.55346
G1 X153.335 Y65.952 E2.57389
G1 X153.701 Y66.369 E2.59235
G1 X154.106 Y66.854 E2.61336
G1 X154.423 Y67.252 E2.63029
G1 X154.764 Y67.701 E2.64904
G1 X155.058 Y68.107 E2.66571
G1 X155.454 Y68.681 E2.68891
G1 X155.786 Y69.193 E2.7092
G1 X156.141 Y69.774 E2.73185
G1 X156.412 Y70.242 E2.74983
G1 X156.712 Y70.792 E2.77067
G1 X156.941 Y71.236 E2.78729
G1 X157.201 Y71.769 E2.80701
G1 X157.431 Y72.271 E2.82538
G1 X157.692 Y72.882 E2.84748
G1 X157.894 Y73.39 E2.86566
G1 X158.105 Y73.961 E2.88591
G1 X158.275 Y74.458 E2.90338
G1 X158.471 Y75.078 E2.925
G1 X158.631 Y75.634 E2.94425
G1 X158.8 Y76.286 E2.96665
G1 X158.918 Y76.789 E2.98383
G1 X159.044 Y77.39 E3.00426
G1 X159.141 Y77.917 E3.02208
G1 X159.241 Y78.545 E3.04323
G1 X159.313 Y79.085 E3.06135
G1 X159.382 Y79.719 E3.08256
G1 X159.427 Y80.238 E3.09989
G1 X159.466 Y80.876 E3.12115
G1 X159.485 Y81.399 E3.13855
G1 X159.5 Y82.589 E3.17814
G1 X159.499 Y152.488 E5.50299
G1 X159.487 Y153.438 E5.53459
G1 X159.458 Y154.262 E5.56201
G1 X159.425 Y154.775 E5.57911
G1 X159.367 Y155.435 E5.60114
G1 X159.306 Y155.976 E5.61925
G1 X159.221 Y156.592 E5.63993
G1 X159.135 Y157.117 E5.65763
G1 X159.016 Y157.751 E5.67908
G1 X158.896 Y158.311 E5.69813
G1 X158.741 Y158.951 E5.72003
G1 X158.597 Y159.488 E5.73853
G1 X158.41 Y160.119 E5.76041
G1 X158.259 Y160.589 E5.77683
G1 X158.067 Y161.144 E5.79637
G1 X157.867 Y161.676 E5.81527
G1 X157.618 Y162.291 E5.83734
G1 X157.412 Y162.768 E5.85462
G1 X157.14 Y163.358 E5.87623
G1 X156.901 Y163.845 E5.89427
G1 X156.619 Y164.385 E5.91453
G1 X156.347 Y164.875 E5.93317
G1 X156.029 Y165.415 E5.95402
G1 X155.767 Y165.837 E5.97054
G1 X155.412 Y166.382 E5.99217
G1 X155.093 Y166.846 E6.0109
G1 X154.699 Y167.388 E6.03319
G1 X154.373 Y167.813 E6.051
G1 X154.02 Y168.252 E6.06974
G1 X153.66 Y168.678 E6.08829
G1 X153.193 Y169.202 E6.11163
G1 X152.823 Y169.597 E6.12963
G1 X152.4 Y170.027 E6.1497
G1 X152.032 Y170.384 E6.16675
G1 X151.545 Y170.835 E6.18883
G1 X151.122 Y171.207 E6.20756
G1 X150.637 Y171.612 E6.22858
G1 X150.239 Y171.929 E6.2455
G1 X149.736 Y172.311 E6.26651
G1 X149.262 Y172.652 E6.28593
G1 X148.72 Y173.02 E6.30772
G1 X148.277 Y173.305 E6.32524
G1 X147.737 Y173.635 E6.34629
G1 X147.31 Y173.883 E6.36271
G1 X146.82 Y174.153 E6.38132
G1 X146.352 Y174.397 E6.39887
G1 X145.748 Y174.693 E6.42124
G1 X145.226 Y174.932 E6.44034
G1 X144.617 Y175.192 E6.46236
G1 X144.121 Y175.389 E6.48011
G1 X143.549 Y175.601 E6.5004
G1 X143.037 Y175.777 E6.51841
G1 X142.416 Y175.973 E6.54007
G1 X141.874 Y176.129 E6.55883
G1 X141.232 Y176.296 E6.58089
G1 X140.726 Y176.415 E6.59818
G1 X140.117 Y176.543 E6.61888
G1 X139.586 Y176.641 E6.63684
G1 X138.959 Y176.741 E6.65796
G1 X138.413 Y176.814 E6.67628
G1 X137.777 Y176.883 E6.69756
G1 X137.249 Y176.927 E6.71518
G1 X136.582 Y176.967 E6.7374
G1 X136.056 Y176.986 E6.75491
G1 X134.755 Y177 E6.79818
G1 X133.366 Y176.989 E6.84438
G1 X132.429 Y176.941 E6.87559
G1 X131.879 Y176.876 E6.89401
G1 X128.847 Y176.438 E6.9959
G1 X126.361 Y176.154 E7.07912
G1 X123.846 Y175.939 E7.16308
G1 X121.329 Y175.795 E7.24693
G1 X118.841 Y175.724 E7.32971
G1 X116.318 Y175.722 E7.41363
G1 X113.788 Y175.793 E7.49781
G1 X111.282 Y175.933 E7.58129
G1 X108.752 Y176.147 E7.66574
G1 X106.279 Y176.427 E7.74852
G1 X104.471 Y176.684 E7.80926
G1 X104.332 Y176.698 E7.8139
G1 X103.137 Y176.873 E7.85407
G1 X101.891 Y176.983 E7.89568
G1 X101.278 Y176.998 E7.91607
G1 X100.192 Y177 E7.95219
G1 X99.035 Y176.986 E7.99067
G1 X98.194 Y176.955 E8.01867
G1 X97.676 Y176.921 E8.03593
G1 X97.05 Y176.865 E8.05684
G1 X96.51 Y176.803 E8.07491
G1 X95.865 Y176.713 E8.09657
G1 X95.34 Y176.627 E8.11427
G1 X94.727 Y176.511 E8.13502
G1 X94.192 Y176.396 E8.15322
G1 X93.562 Y176.244 E8.17477
G1 X93.049 Y176.107 E8.19244
G1 X92.438 Y175.928 E8.21361
G1 X91.913 Y175.76 E8.23195
G1 X91.313 Y175.551 E8.25308
G1 X90.808 Y175.361 E8.27102
G1 X90.207 Y175.118 E8.29258
G1 X89.706 Y174.901 E8.31074
G1 X89.121 Y174.63 E8.33219
G1 X88.653 Y174.4 E8.34953
G1 X88.113 Y174.118 E8.36979
G1 X87.621 Y173.844 E8.38852
G1 X87.083 Y173.527 E8.40929
G1 X86.651 Y173.259 E8.4262
G1 X86.103 Y172.901 E8.44797
G1 X85.629 Y172.574 E8.46713
G1 X85.072 Y172.167 E8.49007
G1 X84.648 Y171.84 E8.50788
G1 X84.184 Y171.465 E8.52772
G1 X83.776 Y171.119 E8.54552
G1 X83.304 Y170.698 E8.56655
G1 X82.924 Y170.342 E8.58387
G1 X82.457 Y169.884 E8.60563
G1 X82.083 Y169.499 E8.62348
G1 X81.665 Y169.047 E8.64395
G1 X81.295 Y168.626 E8.6626
G1 X80.882 Y168.131 E8.68404
G1 X80.547 Y167.709 E8.70196
G1 X80.16 Y167.196 E8.72333
G1 X79.844 Y166.755 E8.74138
G1 X79.479 Y166.218 E8.76297
G1 X79.192 Y165.774 E8.78056
G1 X78.866 Y165.241 E8.80134
G1 X78.616 Y164.81 E8.81791
G1 X78.346 Y164.32 E8.83652
G1 X78.096 Y163.838 E8.85458
G1 X77.801 Y163.234 E8.87693
G1 X77.568 Y162.726 E8.89552
G1 X77.308 Y162.117 E8.91755
G1 X77.112 Y161.625 E8.93516
G1 X76.899 Y161.051 E8.95552
G1 X76.72 Y160.529 E8.97388
G1 X76.525 Y159.91 E8.99546
G1 X76.37 Y159.368 E9.01421
G1 X76.199 Y158.709 E9.03686
G1 X76.08 Y158.205 E9.05408
G1 X75.956 Y157.614 E9.07417
G1 X75.858 Y157.079 E9.09226
G1 X75.758 Y156.449 E9.11347
G1 X75.687 Y155.915 E9.13139
G1 X75.618 Y155.281 E9.1526
G1 X75.573 Y154.761 E9.16996
G1 X75.534 Y154.122 E9.19125
G1 X75.515 Y153.6 E9.20863
G1 X75.5 Y152.411 E9.24818
G1 X75.501 Y82.482 E11.57403
G1 X75.513 Y81.58 E11.60403
G1 X75.543 Y80.736 E11.63212
G1 X75.576 Y80.213 E11.64955
G1 X75.63 Y79.597 E11.67011
G1 X75.691 Y79.053 E11.68832
G1 X75.783 Y78.387 E11.71068
G1 X75.865 Y77.882 E11.7277
G1 X75.978 Y77.274 E11.74827
G1 X76.101 Y76.698 E11.76786
G1 X76.249 Y76.086 E11.7888
G1 X76.38 Y75.595 E11.8057
G1 X76.558 Y74.984 E11.82687
G1 X76.724 Y74.464 E11.84502
G1 X76.942 Y73.834 E11.8672
G1 X77.137 Y73.312 E11.88573
G1 X77.37 Y72.735 E11.90643
G1 X77.583 Y72.243 E11.92426
G1 X77.86 Y71.643 E11.94624
G1 X78.086 Y71.183 E11.96329
G1 X78.365 Y70.646 E11.98341
G1 X78.647 Y70.135 E12.00282
G1 X78.975 Y69.578 E12.02432
G1 X79.241 Y69.149 E12.04111
G1 X79.592 Y68.611 E12.06248
G1 X79.907 Y68.154 E12.08094
G1 X80.301 Y67.612 E12.10323
G1 X80.622 Y67.192 E12.12081
G1 X80.985 Y66.74 E12.14009
G0 F6000 X81.297 Y66.991
G1 F1200 X81.65 Y66.574 E12.15826
G1 X82.094 Y66.076 E12.18045
G1 X82.442 Y65.704 E12.19739
G1 X82.871 Y65.267 E12.21776
G1 X83.236 Y64.913 E12.23467
G1 X83.731 Y64.455 E12.2571
G1 X84.117 Y64.115 E12.27421
G1 X84.583 Y63.724 E12.29445
G1 X85.016 Y63.379 E12.31286
G1 X85.564 Y62.966 E12.33568
G1 X85.965 Y62.678 E12.3521
G1 X86.451 Y62.346 E12.37168
G1 X86.901 Y62.055 E12.3895
G1 X87.48 Y61.701 E12.41207
G1 X87.892 Y61.462 E12.42792
G1 X88.371 Y61.198 E12.44611
G1 X88.83 Y60.96 E12.4633
G1 X89.435 Y60.664 E12.48571
G1 X89.931 Y60.436 E12.50386
G1 X90.54 Y60.176 E12.52589
G1 X91.018 Y59.986 E12.543
G1 X91.59 Y59.774 E12.56328
G1 X92.084 Y59.605 E12.58065
G1 X92.705 Y59.409 E12.60231
G1 X93.232 Y59.257 E12.62055
G1 X93.883 Y59.088 E12.64292
G1 X94.371 Y58.974 E12.65959
G1 X94.972 Y58.848 E12.68001
G1 X95.478 Y58.754 E12.69713
G1 X96.105 Y58.654 E12.71825
G1 X96.629 Y58.584 E12.73583
G1 X97.264 Y58.515 E12.75708
G1 X97.774 Y58.472 E12.7741
G1 X98.441 Y58.432 E12.79632
G1 X98.949 Y58.414 E12.81323
G1 X100.242 Y58.4 E12.85624
G1 X101.631 Y58.411 E12.90244
G1 X102.55 Y58.459 E12.93305
G1 X103.064 Y58.52 E12.95026
G1 X106.084 Y58.957 E13.05175
G1 X108.631 Y59.247 E13.13701
G1 X111.098 Y59.458 E13.21937
G1 X113.636 Y59.603 E13.30392
G1 X116.183 Y59.676 E13.38867
G1 X118.693 Y59.678 E13.47215
G1 X121.247 Y59.607 E13.55713
G1 X123.738 Y59.467 E13.64011
G1 X126.256 Y59.254 E13.72416
G1 X128.786 Y58.967 E13.80885
G1 X130.585 Y58.712 E13.86928
G1 X130.729 Y58.698 E13.87409
G1 X131.921 Y58.523 E13.91416
G1 X133.122 Y58.416 E13.95427
G1 X133.722 Y58.402 E13.97423
G1 X134.808 Y58.4 E14.01035
G1 X135.96 Y58.414 E14.04867
G1 X136.789 Y58.444 E14.07626
G1 X137.288 Y58.477 E14.09289
G1 X137.914 Y58.533 E14.11379
G1 X138.427 Y58.592 E14.13097
G1 X139.061 Y58.68 E14.15226
G1 X139.545 Y58.758 E14.16856
G1 X140.157 Y58.872 E14.18927
G1 X140.728 Y58.995 E14.2087
G1 X141.384 Y59.155 E14.23115
G1 X141.883 Y59.29 E14.24835
G1 X142.504 Y59.474 E14.26989
G1 X142.96 Y59.62 E14.28582
G1 X143.532 Y59.818 E14.30595
G1 X144.039 Y60.008 E14.32396
G1 X144.635 Y60.249 E14.34534
G1 X145.117 Y60.458 E14.36281
G1 X145.717 Y60.736 E14.38481
G1 X146.177 Y60.963 E14.40187
G1 X146.71 Y61.242 E14.42188
G1 X147.168 Y61.496 E14.4393
G1 X147.707 Y61.813 E14.46009
G1 X148.118 Y62.068 E14.47618
G1 X148.663 Y62.423 E14.49781
G1 X149.14 Y62.752 E14.51709
G1 X149.7 Y63.162 E14.54017
G1 X150.101 Y63.471 E14.55701
G1 X150.56 Y63.842 E14.57664
G1 X150.949 Y64.172 E14.5936
G1 X151.426 Y64.597 E14.61485
G1 X151.796 Y64.943 E14.6317
G1 X152.263 Y65.401 E14.65346
G1 X152.624 Y65.773 E14.6707
G1 X153.041 Y66.224 E14.69113
G1 X153.394 Y66.626 E14.70892
G1 X153.799 Y67.111 E14.72994
G1 X154.104 Y67.494 E14.74622
G1 X154.445 Y67.943 E14.76498
G1 X154.729 Y68.335 E14.78108
G1 X155.125 Y68.909 E14.80427
G1 X155.445 Y69.401 E14.82379
G1 X155.8 Y69.982 E14.84644
G1 X156.061 Y70.433 E14.86377
G1 X156.361 Y70.983 E14.8846
G1 X156.582 Y71.412 E14.90065
G1 X156.842 Y71.945 E14.92038
G1 X157.063 Y72.428 E14.93805
G1 X157.324 Y73.039 E14.96014
G1 X157.519 Y73.529 E14.97768
G1 X157.73 Y74.1 E14.99793
G1 X157.894 Y74.579 E15.01477
G1 X158.09 Y75.199 E15.0364
G1 X158.244 Y75.734 E15.05491
G1 X158.413 Y76.386 E15.07732
G1 X158.526 Y76.871 E15.09388
G1 X158.652 Y77.472 E15.1143
G1 X158.746 Y77.98 E15.13149
G1 X158.846 Y78.608 E15.15264
G1 X158.916 Y79.128 E15.17009
G1 X158.985 Y79.762 E15.1913
G1 X159.027 Y80.262 E15.20799
G1 X159.066 Y80.9 E15.22925
G1 X159.085 Y81.405 E15.24606
G1 X159.1 Y82.589 E15.28544
G1 X159.099 Y152.483 E17.61012
G1 X159.087 Y153.433 E17.64172
G1 X159.058 Y154.246 E17.66878
G1 X159.026 Y154.74 E17.68525
G1 X158.968 Y155.4 E17.70728
G1 X158.91 Y155.921 E17.72472
G1 X158.825 Y156.537 E17.7454
G1 X158.742 Y157.043 E17.76245
G1 X158.623 Y157.677 E17.78391
G1 X158.507 Y158.217 E17.80228
G1 X158.352 Y158.857 E17.82418
G1 X158.213 Y159.374 E17.84199
G1 X158.026 Y160.005 E17.86388
G1 X157.88 Y160.459 E17.87974
G1 X157.688 Y161.014 E17.89927
G1 X157.496 Y161.526 E17.91746
G1 X157.247 Y162.141 E17.93953
G1 X157.048 Y162.601 E17.9562
G1 X156.776 Y163.191 E17.97781
G1 X156.546 Y163.66 E17.99518
G1 X156.264 Y164.2 E18.01544
G1 X156.002 Y164.672 E18.0334
G1 X155.684 Y165.212 E18.05424
G1 X155.432 Y165.618 E18.07013
G1 X155.077 Y166.163 E18.09177
G1 X154.769 Y166.611 E18.10985
G1 X154.375 Y167.153 E18.13214
G1 X154.062 Y167.562 E18.14927
G1 X153.709 Y168.001 E18.168
G1 X153.361 Y168.412 E18.18591
G1 X152.894 Y168.936 E18.20926
G1 X152.538 Y169.317 E18.2266
G1 X152.115 Y169.747 E18.24666
G1 X151.76 Y170.09 E18.26308
G1 X151.273 Y170.541 E18.28516
G1 X150.865 Y170.9 E18.30323
G1 X150.38 Y171.305 E18.32425
G1 X149.997 Y171.611 E18.34055
G1 X149.494 Y171.993 E18.36156
G1 X149.037 Y172.321 E18.38027
G1 X148.495 Y172.689 E18.40206
G1 X148.068 Y172.964 E18.41895
G1 X147.528 Y173.294 E18.44
G1 X147.117 Y173.533 E18.45582
G1 X146.627 Y173.803 E18.47442
G1 X146.176 Y174.037 E18.49132
G1 X145.572 Y174.333 E18.51369
G1 X145.069 Y174.564 E18.5321
G1 X144.46 Y174.824 E18.55413
G1 X143.982 Y175.014 E18.57124
G1 X143.41 Y175.226 E18.59153
G1 X142.916 Y175.395 E18.60889
G1 X142.295 Y175.591 E18.63055
G1 X141.774 Y175.742 E18.64859
G1 X141.132 Y175.909 E18.67066
G1 X140.643 Y176.023 E18.68736
G1 X140.034 Y176.151 E18.70805
G1 X139.523 Y176.246 E18.72534
G1 X138.896 Y176.346 E18.74646
G1 X138.37 Y176.416 E18.76411
G1 X137.734 Y176.485 E18.78539
G1 X137.226 Y176.528 E18.80234
G1 X136.559 Y176.568 E18.82457
G1 X136.051 Y176.586 E18.84147
G1 X134.758 Y176.6 E18.88448
G1 X133.369 Y176.589 E18.93068
G1 X132.45 Y176.541 E18.96129
G1 X131.936 Y176.48 E18.9785
G1 X128.916 Y176.043 E19.08
G1 X126.369 Y175.753 E19.16526
G1 X123.902 Y175.542 E19.24761
G1 X121.364 Y175.397 E19.33216
G1 X118.817 Y175.324 E19.41691
G1 X116.307 Y175.322 E19.50039
G1 X113.753 Y175.393 E19.58537
G1 X111.262 Y175.533 E19.66835
G1 X108.744 Y175.746 E19.7524
G1 X106.214 Y176.033 E19.83709
G1 X104.415 Y176.288 E19.89752
G1 X104.271 Y176.302 E19.90233
G1 X103.079 Y176.477 E19.94241
G1 X101.878 Y176.584 E19.98251
G1 X101.278 Y176.598 E20.00247
G1 X100.192 Y176.6 E20.03859
G1 X99.04 Y176.586 E20.07691
G1 X98.211 Y176.556 E20.1045
G1 X97.712 Y176.523 E20.12113
G1 X97.086 Y176.467 E20.14204
G1 X96.565 Y176.407 E20.15948
G1 X95.92 Y176.317 E20.18114
G1 X95.414 Y176.234 E20.1982
G1 X94.801 Y176.118 E20.21895
G1 X94.286 Y176.007 E20.23647
G1 X93.656 Y175.855 E20.25802
G1 X93.162 Y175.723 E20.27503
G1 X92.551 Y175.544 E20.29621
G1 X92.044 Y175.382 E20.31391
G1 X91.444 Y175.173 E20.33504
G1 X90.958 Y174.99 E20.35231
G1 X90.357 Y174.747 E20.37388
G1 X89.874 Y174.538 E20.39138
