;FLAVOR:Marlin
;TIME:9329
;Filament used: 4.45814m
;Layer height: 0.2
;MINX:81.45
;MINY:59.701
;MINZ:0.2
;MAXX:153.55
;MAXY:175.298
;MAXZ:3.6
;Generated with Cura_SteamEngine 5.2.2
M140 S50
M105
M190 S50
M104 S200
M105
M109 S200
M82 ;absolute extrusion mode
; Ender 3 Custom Start G-code
G92 E0 ; Reset Extruder
G28 ; Home all axes
G1 Z2.0 F3000 ; Move Z Axis up little to prevent scratching of Heat Bed
G1 X0.1 Y20 Z0.3 F5000.0 ; Move to start position
G1 X0.1 Y200.0 Z0.3 F1500.0 E15 ; Draw the first line
G1 X0.4 Y200.0 Z0.3 F5000.0 ; Move to side a little
G1 X0.4 Y20 Z0.3 F1500.0 E30 ; Draw the second line
G92 E0 ; Reset Extruder
G1 Z2.0 F3000 ; Move Z Axis up little to prevent scratching of Heat Bed
G1 X5 Y20 Z0.3 F5000.0 ; Move over to prevent blob squish
G92 E0
G92 E0
G1 F2700 E-5
;LAYER_COUNT:18
;LAYER:0
M107
G0 F6000 X92.03 Y72.707 Z0.2
;TYPE:SKIRT
G1 F2700 E0
G1 F1200 X92.266 Y72.419 E0.01238
G1 X93.283 Y71.231 E0.0644
G1 X93.531 Y70.954 E0.07676
G1 X94.588 Y69.832 E0.12803
G1 X94.858 Y69.559 E0.1408
G1 X95.85 Y68.605 E0.18658
G1 X96.096 Y68.378 E0.19771
G1 X97.014 Y67.568 E0.23843
G1 X98.203 Y66.597 E0.28949
G1 X98.474 Y66.387 E0.30089
G1 X99.435 Y65.676 E0.34065
G1 X99.709 Y65.482 E0.35182
G1 X100.688 Y64.821 E0.39111
G1 X100.988 Y64.628 E0.40297
G1 X101.987 Y64.018 E0.4419
G1 X102.287 Y63.844 E0.45344
G1 X103.303 Y63.284 E0.49202
G1 X103.626 Y63.116 E0.50413
G1 X104.659 Y62.608 E0.54242
G1 X105.005 Y62.448 E0.5551
G1 X106.092 Y61.978 E0.59449
G1 X106.444 Y61.836 E0.60711
G1 X107.503 Y61.438 E0.64474
G1 X107.872 Y61.309 E0.65774
G1 X108.945 Y60.966 E0.69521
G1 X109.303 Y60.861 E0.70762
G1 X110.338 Y60.584 E0.74325
G1 X110.694 Y60.498 E0.75544
G1 X111.722 Y60.274 E0.79043
G1 X112.06 Y60.208 E0.80188
G1 X113.263 Y60.007 E0.84245
G1 X114.116 Y59.895 E0.87106
G1 X114.444 Y59.859 E0.88204
G1 X115.338 Y59.78 E0.91189
G1 X116.541 Y59.716 E0.95196
G1 X116.865 Y59.707 E0.96274
G1 X117.757 Y59.701 E0.99241
G1 X118.982 Y59.738 E1.03317
G1 X120.188 Y59.824 E1.07338
G1 X121.398 Y59.96 E1.11388
G1 X121.72 Y60.005 E1.1247
G1 X122.91 Y60.202 E1.16481
G1 X124.113 Y60.451 E1.20567
G1 X124.992 Y60.667 E1.23578
G1 X126.154 Y60.995 E1.27594
G1 X126.461 Y61.09 E1.28663
G1 X127.608 Y61.477 E1.32689
G1 X128.761 Y61.917 E1.36793
G1 X129.871 Y62.391 E1.40808
G1 X130.995 Y62.922 E1.44942
G1 X132.111 Y63.504 E1.49129
G1 X133.152 Y64.098 E1.53115
G1 X134.185 Y64.738 E1.57157
G1 X135.225 Y65.434 E1.61319
G1 X136.039 Y66.019 E1.64653
G1 X136.99 Y66.747 E1.68637
G1 X137.955 Y67.54 E1.72791
G1 X139.115 Y68.572 E1.77955
G1 X139.996 Y69.413 E1.82006
G1 X140.703 Y70.13 E1.85355
G1 X141.597 Y71.093 E1.89725
G1 X142.441 Y72.065 E1.94007
G1 X143.234 Y73.035 E1.98174
G1 X144.162 Y74.255 E2.03272
G1 X144.896 Y75.288 E2.07487
G1 X145.616 Y76.366 E2.11799
G1 X146.302 Y77.462 E2.16099
G1 X146.847 Y78.387 E2.1967
G1 X147.476 Y79.518 E2.23974
G1 X148.092 Y80.707 E2.28428
G1 X148.833 Y82.255 E2.34136
G1 X148.956 Y82.527 E2.35129
G1 X149.703 Y84.279 E2.41464
G1 X150.32 Y85.886 E2.47189
G1 X150.977 Y87.808 E2.53945
G1 X151.068 Y88.094 E2.54943
G1 X151.625 Y89.992 E2.61522
G1 X152.112 Y91.917 E2.68127
G1 X152.482 Y93.627 E2.73946
G1 X152.846 Y95.651 E2.80785
G1 X153.119 Y97.569 E2.87229
G1 X153.36 Y99.895 E2.95007
G1 X153.491 Y101.922 E3.01763
G1 X153.532 Y103.132 E3.05789
G1 X153.55 Y104.499 E3.10337
G1 X153.548 Y130.676 E3.97402
G1 X153.498 Y132.877 E4.04724
G1 X153.482 Y133.233 E4.05909
G1 X153.332 Y135.425 E4.13217
G1 X153.3 Y135.778 E4.14396
G1 X153.051 Y137.957 E4.2169
G1 X153.001 Y138.316 E4.22896
G1 X152.653 Y140.469 E4.3015
G1 X152.587 Y140.823 E4.31348
G1 X152.142 Y142.947 E4.38565
G1 X152.059 Y143.304 E4.39784
G1 X151.519 Y145.388 E4.46945
G1 X151.416 Y145.749 E4.48193
G1 X150.781 Y147.79 E4.55303
G1 X150.661 Y148.146 E4.56552
G1 X149.937 Y150.131 E4.6358
G1 X149.798 Y150.484 E4.64842
G1 X149.067 Y152.221 E4.7111
G1 X148.932 Y152.524 E4.72213
G1 X148.216 Y154.041 E4.77792
G1 X148.07 Y154.335 E4.78884
G1 X147.299 Y155.805 E4.84405
G1 X147.134 Y156.102 E4.85535
G1 X146.309 Y157.521 E4.90994
G1 X146.131 Y157.813 E4.92132
G1 X145.222 Y159.23 E4.97731
G1 X145.024 Y159.524 E4.9891
G1 X144.147 Y160.763 E5.03959
G1 X143.933 Y161.051 E5.05152
G1 X142.899 Y162.378 E5.10748
G1 X142.665 Y162.664 E5.11977
G1 X141.75 Y163.73 E5.16649
G1 X141.516 Y163.991 E5.17815
G1 X140.461 Y165.114 E5.2294
G1 X140.194 Y165.384 E5.24203
G1 X139.146 Y166.396 E5.29048
G1 X138.882 Y166.639 E5.30242
G1 X137.954 Y167.456 E5.34354
G1 X137.707 Y167.665 E5.3543
G1 X136.763 Y168.429 E5.39469
G1 X136.495 Y168.637 E5.40598
G1 X135.573 Y169.319 E5.44412
G1 X135.294 Y169.515 E5.45546
G1 X134.275 Y170.202 E5.49634
G1 X133.969 Y170.399 E5.50844
G1 X132.973 Y171.005 E5.54722
G1 X132.677 Y171.176 E5.55859
G1 X131.664 Y171.733 E5.59704
G1 X131.332 Y171.906 E5.60949
G1 X130.301 Y172.41 E5.64766
G1 X129.971 Y172.561 E5.65973
G1 X128.928 Y173.012 E5.69752
G1 X128.578 Y173.154 E5.71009
G1 X127.52 Y173.552 E5.74768
G1 X127.163 Y173.676 E5.76025
G1 X126.094 Y174.02 E5.7976
G1 X125.717 Y174.131 E5.81067
G1 X124.601 Y174.429 E5.84909
G1 X124.253 Y174.514 E5.86101
G1 X123.314 Y174.719 E5.89297
G1 X122.977 Y174.784 E5.90439
G1 X121.779 Y174.985 E5.94479
G1 X120.885 Y175.103 E5.97478
G1 X120.549 Y175.14 E5.98603
G1 X119.332 Y175.241 E6.02664
G1 X118.433 Y175.283 E6.05658
G1 X117.276 Y175.298 E6.09506
G1 X116.943 Y175.293 E6.10614
G1 X115.734 Y175.245 E6.14638
G1 X114.5 Y175.146 E6.18756
G1 X113.606 Y175.04 E6.2175
G1 X113.285 Y174.995 E6.22828
G1 X112.086 Y174.796 E6.26871
G1 X110.888 Y174.548 E6.3094
G1 X110.046 Y174.342 E6.33823
G1 X108.878 Y174.014 E6.37858
G1 X107.702 Y173.632 E6.4197
G1 X106.548 Y173.205 E6.46063
G1 X106.257 Y173.089 E6.47105
G1 X105.126 Y172.606 E6.51195
G1 X104.019 Y172.082 E6.55269
G1 X102.916 Y171.508 E6.59404
G1 X101.85 Y170.9 E6.63486
G1 X100.797 Y170.25 E6.67602
G1 X99.759 Y169.554 E6.71759
G1 X98.75 Y168.823 E6.75903
G1 X97.768 Y168.058 E6.80043
G1 X96.831 Y167.273 E6.84109
G1 X95.865 Y166.406 E6.88426
G1 X95.023 Y165.602 E6.92298
G1 X94.302 Y164.872 E6.95711
G1 X93.417 Y163.919 E7.00036
G1 X92.542 Y162.911 E7.04476
G1 X91.659 Y161.826 E7.09129
G1 X90.977 Y160.931 E7.12871
G1 X90.128 Y159.746 E7.1772
G1 X89.56 Y158.903 E7.211
G1 X88.719 Y157.57 E7.26343
G1 X88.055 Y156.439 E7.30705
G1 X87.517 Y155.468 E7.34397
G1 X86.822 Y154.119 E7.39444
G1 X86.185 Y152.785 E7.44361
G1 X86.057 Y152.501 E7.45397
G1 X85.282 Y150.683 E7.5197
G1 X84.679 Y149.111 E7.5757
G1 X84.029 Y147.212 E7.64246
G1 X83.937 Y146.922 E7.65258
G1 X83.371 Y144.992 E7.71948
G1 X82.946 Y143.324 E7.77673
G1 X82.53 Y141.43 E7.84122
G1 X82.155 Y139.352 E7.91145
G1 X82.109 Y139.058 E7.92135
G1 X81.836 Y137.055 E7.98859
G1 X81.64 Y135.1 E8.05394
G1 X81.524 Y133.348 E8.11234
G1 X81.469 Y131.89 E8.16086
G1 X81.45 Y130.499 E8.20713
G1 X81.453 Y104.251 E9.08014
G1 X81.5 Y102.16 E9.14971
G1 X81.516 Y101.802 E9.16163
G1 X81.671 Y99.539 E9.23707
G1 X81.704 Y99.18 E9.24906
G1 X81.954 Y97.009 E9.32175
G1 X82.004 Y96.653 E9.3337
G1 X82.353 Y94.5 E9.40625
G1 X82.418 Y94.146 E9.41822
G1 X82.863 Y92.025 E9.4903
G1 X82.947 Y91.668 E9.5025
G1 X83.487 Y89.587 E9.574
G1 X83.59 Y89.226 E9.58649
G1 X84.208 Y87.242 E9.65561
G1 X84.325 Y86.896 E9.66775
G1 X85.05 Y84.903 E9.73829
G1 X85.188 Y84.549 E9.75093
G1 X85.92 Y82.806 E9.81381
G1 X86.055 Y82.503 E9.82484
G1 X86.773 Y80.978 E9.8809
G1 X86.921 Y80.682 E9.89191
G1 X87.69 Y79.214 E9.94703
G1 X87.855 Y78.915 E9.95839
G1 X88.68 Y77.495 E10.01301
G1 X88.853 Y77.21 E10.0241
G1 X89.726 Y75.845 E10.07799
G1 X89.927 Y75.547 E10.08994
G1 X90.852 Y74.238 E10.14325
G1 X91.061 Y73.955 E10.15495
G1 X92.03 Y72.707 E10.20751
G0 F6000 X92.346 Y72.953
G1 F1200 X92.569 Y72.679 E10.21926
G1 X93.586 Y71.491 E10.27127
G1 X93.822 Y71.229 E10.283
G1 X94.879 Y70.107 E10.33427
G1 X95.136 Y69.847 E10.34643
G1 X96.128 Y68.893 E10.3922
G1 X96.361 Y68.678 E10.40275
G1 X97.516 Y67.667 E10.4538
G1 X98.454 Y66.907 E10.49395
G1 X98.712 Y66.708 E10.50479
G1 X99.673 Y65.997 E10.54455
G1 X99.933 Y65.813 E10.55515
G1 X100.912 Y65.152 E10.59443
G1 X101.197 Y64.969 E10.6057
G1 X102.196 Y64.359 E10.64463
G1 X102.48 Y64.194 E10.65556
G1 X103.496 Y63.634 E10.69414
G1 X103.802 Y63.475 E10.70561
G1 X104.835 Y62.967 E10.7439
G1 X105.164 Y62.815 E10.75595
G1 X106.251 Y62.345 E10.79534
G1 X106.585 Y62.21 E10.80732
G1 X107.644 Y61.812 E10.84495
G1 X107.994 Y61.69 E10.85728
G1 X109.067 Y61.347 E10.89475
G1 X109.407 Y61.248 E10.90652
G1 X110.442 Y60.971 E10.94216
G1 X110.78 Y60.889 E10.95373
G1 X111.808 Y60.665 E10.98872
G1 X112.128 Y60.602 E10.99957
G1 X113.023 Y60.448 E11.02977
G1 X114.168 Y60.292 E11.06821
G1 X115.374 Y60.179 E11.1085
G1 X116.561 Y60.116 E11.14803
G1 X116.867 Y60.107 E11.15821
G1 X117.759 Y60.101 E11.18788
G1 X118.074 Y60.106 E11.19836
G1 X119.266 Y60.154 E11.23804
G1 X120.157 Y60.222 E11.26776
G1 X121.351 Y60.357 E11.30772
G1 X121.656 Y60.399 E11.31796
G1 X122.541 Y60.541 E11.34778
G1 X123.714 Y60.772 E11.38754
G1 X124.018 Y60.84 E11.3979
G1 X125.173 Y61.129 E11.4375
G1 X126.335 Y61.469 E11.47777
G1 X127.468 Y61.851 E11.51754
G1 X128.328 Y62.174 E11.54809
G1 X129.455 Y62.644 E11.58871
G1 X130.543 Y63.146 E11.62856
G1 X130.812 Y63.278 E11.63852
G1 X131.914 Y63.852 E11.67985
G1 X132.943 Y64.439 E11.71925
G1 X133.964 Y65.071 E11.75919
G1 X134.992 Y65.759 E11.80033
G1 X136.007 Y66.493 E11.84199
G1 X136.746 Y67.063 E11.87304
G1 X137.7 Y67.848 E11.91413
G1 X138.673 Y68.709 E11.95734
G1 X139.711 Y69.694 E12.00493
G1 X140.588 Y70.589 E12.04661
G1 X141.469 Y71.55 E12.08997
G1 X142.273 Y72.487 E12.13104
G1 X142.924 Y73.287 E12.16534
G1 X143.837 Y74.487 E12.21549
G1 X144.446 Y75.34 E12.25035
G1 X145.278 Y76.579 E12.29999
G1 X145.958 Y77.666 E12.34264
G1 X146.602 Y78.764 E12.38497
G1 X147.126 Y79.711 E12.42097
G1 X147.839 Y81.097 E12.47281
G1 X148.589 Y82.685 E12.53122
G1 X149.22 Y84.153 E12.58437
G1 X150.047 Y86.307 E12.66111
G1 X150.599 Y87.936 E12.71832
G1 X151.163 Y89.819 E12.7837
G1 X151.238 Y90.091 E12.79308
G1 X151.721 Y92.002 E12.85864
G1 X152.145 Y93.987 E12.92615
G1 X152.494 Y95.986 E12.99364
G1 X152.723 Y97.624 E13.04865
G1 X152.961 Y99.922 E13.12549
G1 X153.079 Y101.695 E13.18459
G1 X153.132 Y103.145 E13.23285
G1 X153.15 Y104.499 E13.27789
G1 X153.15 Y130.499 E14.14265
G1 X153.098 Y132.868 E14.22147
G1 X153.083 Y133.205 E14.23269
G1 X152.933 Y135.397 E14.30576
G1 X152.902 Y135.732 E14.31695
G1 X152.653 Y137.911 E14.3899
G1 X152.606 Y138.252 E14.40135
G1 X152.258 Y140.405 E14.47389
G1 X152.196 Y140.741 E14.48525
G1 X151.751 Y142.865 E14.55743
G1 X151.671 Y143.204 E14.56901
G1 X151.131 Y145.288 E14.64062
G1 X151.034 Y145.63 E14.65244
G1 X150.399 Y147.671 E14.72353
G1 X150.285 Y148.009 E14.7354
G1 X149.561 Y149.994 E14.80567
G1 X149.43 Y150.328 E14.81761
G1 X148.699 Y152.065 E14.88029
G1 X148.57 Y152.354 E14.89081
G1 X147.854 Y153.871 E14.94661
G1 X147.715 Y154.149 E14.95694
G1 X146.944 Y155.619 E15.01215
G1 X146.788 Y155.901 E15.02287
G1 X145.963 Y157.32 E15.07747
G1 X145.795 Y157.597 E15.08824
G1 X144.886 Y159.014 E15.14423
G1 X144.697 Y159.293 E15.15544
G1 X143.82 Y160.532 E15.20593
G1 X143.617 Y160.805 E15.21725
G1 X142.583 Y162.132 E15.2732
G1 X142.361 Y162.404 E15.28488
G1 X141.446 Y163.47 E15.3316
G1 X141.224 Y163.717 E15.34265
G1 X140.169 Y164.84 E15.3939
G1 X139.916 Y165.096 E15.40587
G1 X138.868 Y166.108 E15.45432
G1 X138.618 Y166.339 E15.46564
G1 X137.69 Y167.156 E15.50677
G1 X136.511 Y168.118 E15.55738
G1 X136.257 Y168.315 E15.56807
G1 X135.335 Y168.997 E15.60621
G1 X135.071 Y169.184 E15.61697
G1 X134.052 Y169.871 E15.65785
G1 X133.761 Y170.057 E15.66933
G1 X132.765 Y170.663 E15.70811
G1 X132.484 Y170.825 E15.7189
G1 X131.471 Y171.382 E15.75735
G1 X131.156 Y171.546 E15.76916
G1 X130.125 Y172.05 E15.80733
G1 X129.812 Y172.194 E15.81879
G1 X128.769 Y172.645 E15.85658
G1 X128.437 Y172.779 E15.86849
G1 X127.379 Y173.177 E15.90609
G1 X127.041 Y173.295 E15.918
G1 X125.972 Y173.639 E15.95535
G1 X125.614 Y173.745 E15.96776
G1 X124.498 Y174.043 E16.00618
G1 X124.167 Y174.123 E16.01751
G1 X123.228 Y174.328 E16.04948
G1 X122.909 Y174.39 E16.06028
G1 X122.017 Y174.544 E16.09039
G1 X120.832 Y174.706 E16.13017
G1 X120.514 Y174.741 E16.14081
G1 X119.313 Y174.841 E16.1809
G1 X118.129 Y174.891 E16.22031
G1 X116.956 Y174.894 E16.25933
G1 X116.059 Y174.863 E16.28918
G1 X114.867 Y174.779 E16.32892
G1 X114.547 Y174.749 E16.33961
G1 X113.653 Y174.643 E16.36955
G1 X113.349 Y174.6 E16.37977
G1 X112.165 Y174.404 E16.41968
G1 X111.278 Y174.225 E16.44978
G1 X110.141 Y173.953 E16.48866
G1 X108.988 Y173.629 E16.5285
G1 X107.828 Y173.252 E16.56906
G1 X106.689 Y172.831 E16.60945
G1 X106.413 Y172.721 E16.61934
G1 X105.296 Y172.244 E16.65973
G1 X104.202 Y171.727 E16.69998
G1 X103.112 Y171.16 E16.74084
G1 X102.285 Y170.693 E16.77243
G1 X101.246 Y170.061 E16.81288
G1 X99.993 Y169.229 E16.86291
G1 X98.995 Y168.507 E16.90387
G1 X98.023 Y167.75 E16.94485
G1 X97.299 Y167.149 E16.97615
G1 X96.141 Y166.116 E17.02776
G1 X95.308 Y165.321 E17.06606
G1 X94.587 Y164.591 E17.10018
G1 X93.711 Y163.647 E17.14302
G1 X92.713 Y162.492 E17.19379
G1 X91.977 Y161.583 E17.23269
G1 X91.295 Y160.688 E17.27011
G1 X90.46 Y159.523 E17.31779
G1 X89.772 Y158.496 E17.3589
G1 X89.063 Y157.367 E17.40324
G1 X88.503 Y156.417 E17.43992
G1 X87.761 Y155.076 E17.4909
G1 X87.183 Y153.947 E17.53308
G1 X86.546 Y152.613 E17.58225
G1 X85.765 Y150.808 E17.64766
G1 X85.656 Y150.539 E17.65732
G1 X84.954 Y148.694 E17.72297
G1 X84.408 Y147.084 E17.77952
G1 X84.321 Y146.808 E17.78914
G1 X83.759 Y144.893 E17.85552
G1 X83.273 Y142.967 E17.92159
G1 X82.867 Y141.071 E17.98608
G1 X82.549 Y139.282 E18.04651
G1 X82.265 Y137.272 E18.11403
G1 X82.062 Y135.343 E18.17854
G1 X81.923 Y133.322 E18.24592
G1 X81.865 Y131.708 E18.29964
G1 X81.85 Y130.499 E18.33985
G1 X81.851 Y104.426 E19.20704
G1 X81.9 Y102.169 E19.28213
G1 X81.915 Y101.829 E19.29345
G1 X82.07 Y99.566 E19.36889
G1 X82.102 Y99.225 E19.38029
G1 X82.352 Y97.054 E19.45297
G1 X82.398 Y96.717 E19.46428
G1 X82.747 Y94.564 E19.53683
G1 X82.81 Y94.229 E19.54816
G1 X83.255 Y92.108 E19.62024
G1 X83.334 Y91.768 E19.63185
G1 X83.874 Y89.687 E19.70336
G1 X83.972 Y89.345 E19.71519
G1 X84.59 Y87.361 E19.78431
G1 X84.701 Y87.032 E19.79586
G1 X85.426 Y85.039 E19.86639
G1 X85.557 Y84.704 E19.87836
G1 X86.289 Y82.961 E19.94124
G1 X86.417 Y82.674 E19.95169
G1 X87.135 Y81.149 E20.00775
G1 X87.275 Y80.867 E20.01822
G1 X88.044 Y79.399 E20.07334
G1 X88.201 Y79.116 E20.08411
G1 X89.026 Y77.696 E20.13873
G1 X89.19 Y77.426 E20.14923
G1 X90.063 Y76.061 E20.20313
G1 X90.254 Y75.777 E20.21451
G1 X91.179 Y74.468 E20.26782
G1 X91.377 Y74.201 E20.27888
G1 X92.346 Y72.953 E20.33143
G0 F6000 X92.662 Y73.198
G1 F1200 X92.873 Y72.939 E20.34254
G1 X93.89 Y71.751 E20.39455
G1 X94.113 Y71.503 E20.40565
G1 X95.17 Y70.381 E20.45691
G1 X95.413 Y70.136 E20.46839
G1 X96.405 Y69.182 E20.51417
G1 X96.626 Y68.978 E20.52417
G1 X97.768 Y67.978 E20.57466
G1 X98.706 Y67.218 E20.61481
G1 X99.911 Y66.319 E20.66481
G1 X100.157 Y66.145 E20.67484
G1 X101.136 Y65.484 E20.71412
G1 X101.405 Y65.311 E20.72476
G1 X102.404 Y64.701 E20.76369
G1 X102.673 Y64.545 E20.77404
G1 X103.689 Y63.985 E20.81262
G1 X103.979 Y63.833 E20.82351
G1 X105.012 Y63.325 E20.8618
G1 X105.323 Y63.182 E20.87318
G1 X106.41 Y62.712 E20.91257
G1 X106.725 Y62.584 E20.92388
G1 X107.784 Y62.186 E20.96151
G1 X108.116 Y62.071 E20.9732
G1 X109.189 Y61.728 E21.01066
G1 X109.51 Y61.634 E21.02179
G1 X110.545 Y61.357 E21.05742
G1 X110.865 Y61.279 E21.06838
G1 X111.893 Y61.055 E21.10337
G1 X112.196 Y60.996 E21.11364
G1 X113.091 Y60.842 E21.14384
G1 X114.22 Y60.689 E21.18174
G1 X114.515 Y60.656 E21.19161
G1 X115.409 Y60.577 E21.22146
G1 X116.58 Y60.515 E21.26046
G1 X117.762 Y60.501 E21.29978
G1 X118.953 Y60.537 E21.33941
G1 X120.127 Y60.621 E21.37856
G1 X121.304 Y60.754 E21.41795
G1 X122.478 Y60.936 E21.45747
G1 X123.635 Y61.164 E21.49669
G1 X124.801 Y61.444 E21.53657
G1 X125.933 Y61.764 E21.5757
G1 X127.073 Y62.136 E21.61558
G1 X128.187 Y62.549 E21.6551
G1 X128.45 Y62.654 E21.66452
G1 X129.533 Y63.116 E21.70368
G1 X130.628 Y63.633 E21.74396
G1 X131.718 Y64.201 E21.78484
G1 X132.733 Y64.779 E21.82369
