;FLAVOR:Marlin
;TIME:5275
;Filament used: 4.02512m
;Layer height: 0.2
;MINX:75.5
;MINY:61.5
;MINZ:0.2
;MAXX:159.5
;MAXY:173.5
;MAXZ:3.2
;Generated with Cura_SteamEngine 5.2.2
M140 S50
M105
M190 S50
M104 S200
M105
M109 S200
M82 ;absolute extrusion mode
; Ender 3 Custom Start G-code
G92 E0 ; Reset Extruder
G28 ; Home all axes
G1 Z2.0 F3000 ; Move Z Axis up little to prevent scratching of Heat Bed
G1 X0.1 Y20 Z0.3 F5000.0 ; Move to start position
G1 X0.1 Y200.0 Z0.3 F1500.0 E15 ; Draw the first line
G1 X0.4 Y200.0 Z0.3 F5000.0 ; Move to side a little
G1 X0.4 Y20 Z0.3 F1500.0 E30 ; Draw the second line
G92 E0 ; Reset Extruder
G1 Z2.0 F3000 ; Move Z Axis up little to prevent scratching of Heat Bed
G1 X5 Y20 Z0.3 F5000.0 ; Move over to prevent blob squish
G92 E0
G92 E0
G1 F2700 E-5
;LAYER_COUNT:16
;LAYER:0
M107
G0 F6000 X81.371 Y69.786 Z0.2
;TYPE:SKIRT
G1 F2700 E0
G1 F1200 X81.782 Y69.324 E0.02057
G1 X82.157 Y68.924 E0.0388
G1 X82.621 Y68.452 E0.06082
G1 X82.994 Y68.089 E0.07813
G1 X83.449 Y67.668 E0.09875
G1 X83.869 Y67.299 E0.11734
G1 X84.354 Y66.894 E0.13836
G1 X84.786 Y66.551 E0.1567
G1 X85.317 Y66.151 E0.17881
G1 X85.724 Y65.859 E0.19547
G1 X86.218 Y65.521 E0.21538
G1 X86.692 Y65.214 E0.23417
G1 X87.271 Y64.86 E0.25674
G1 X87.748 Y64.585 E0.27505
G1 X88.308 Y64.28 E0.29626
G1 X88.763 Y64.045 E0.31329
G1 X89.288 Y63.79 E0.33271
G1 X89.769 Y63.571 E0.35028
G1 X90.377 Y63.311 E0.37228
G1 X90.879 Y63.111 E0.39025
G1 X91.451 Y62.899 E0.41054
G1 X91.963 Y62.723 E0.42855
G1 X92.584 Y62.527 E0.45021
G1 X93.131 Y62.37 E0.46913
G1 X93.782 Y62.201 E0.4915
G1 X94.289 Y62.082 E0.50882
G1 X94.89 Y61.956 E0.52925
G1 X95.415 Y61.859 E0.54701
G1 X96.042 Y61.759 E0.56812
G1 X96.586 Y61.686 E0.58638
G1 X97.221 Y61.617 E0.60762
G1 X97.751 Y61.573 E0.62531
G1 X98.418 Y61.533 E0.64754
G1 X98.944 Y61.514 E0.66504
G1 X100.245 Y61.5 E0.70832
G1 X101.634 Y61.511 E0.75452
G1 X102.571 Y61.559 E0.78572
G1 X103.121 Y61.624 E0.80414
G1 X106.153 Y62.062 E0.90603
G1 X108.639 Y62.346 E0.98926
G1 X111.154 Y62.561 E1.07321
G1 X113.671 Y62.705 E1.15706
G1 X116.159 Y62.776 E1.23985
G1 X118.682 Y62.778 E1.32376
G1 X121.212 Y62.707 E1.40794
G1 X123.718 Y62.567 E1.49142
G1 X126.248 Y62.353 E1.57587
G1 X128.721 Y62.073 E1.65865
G1 X130.529 Y61.816 E1.71939
G1 X130.668 Y61.802 E1.72404
G1 X131.863 Y61.627 E1.76421
G1 X133.109 Y61.517 E1.80581
G1 X133.722 Y61.502 E1.8262
G1 X134.808 Y61.5 E1.86232
G1 X135.965 Y61.514 E1.90081
G1 X136.806 Y61.545 E1.9288
G1 X137.324 Y61.579 E1.94607
G1 X137.95 Y61.635 E1.96697
G1 X138.482 Y61.695 E1.98478
G1 X139.116 Y61.783 E2.00607
G1 X139.639 Y61.869 E2.02369
G1 X140.25 Y61.984 E2.04437
G1 X140.777 Y62.097 E2.0623
G1 X141.42 Y62.251 E2.08429
G1 X141.954 Y62.393 E2.10267
G1 X142.537 Y62.564 E2.12288
G1 X143.035 Y62.723 E2.14026
G1 X143.628 Y62.928 E2.16113
G1 X144.142 Y63.12 E2.17938
G1 X144.773 Y63.374 E2.20201
G1 X145.288 Y63.596 E2.22066
G1 X145.871 Y63.866 E2.24203
G1 X146.355 Y64.106 E2.26
G1 X146.912 Y64.398 E2.28091
G1 X147.374 Y64.654 E2.29848
G1 X147.902 Y64.964 E2.31884
G1 X148.332 Y65.23 E2.33566
G1 X148.873 Y65.582 E2.35713
G1 X149.334 Y65.899 E2.37574
G1 X149.826 Y66.256 E2.39596
G1 X150.269 Y66.595 E2.41451
G1 X150.795 Y67.019 E2.43698
G1 X151.196 Y67.358 E2.45444
G1 X151.687 Y67.794 E2.47628
G1 X152.088 Y68.168 E2.49452
G1 X152.519 Y68.591 E2.51461
G1 X152.885 Y68.969 E2.53211
G1 X153.335 Y69.455 E2.55414
G1 X153.707 Y69.877 E2.57285
G1 X154.112 Y70.362 E2.59386
G1 X154.442 Y70.777 E2.6115
G1 X154.83 Y71.29 E2.63289
G1 X155.135 Y71.714 E2.65026
G1 X155.471 Y72.205 E2.67005
G1 X155.778 Y72.678 E2.68881
G1 X156.14 Y73.27 E2.71189
G1 X156.388 Y73.699 E2.72837
G1 X156.641 Y74.158 E2.7458
G1 X156.881 Y74.619 E2.76309
G1 X157.186 Y75.24 E2.7861
G1 X157.431 Y75.774 E2.80564
G1 X157.692 Y76.386 E2.82777
G1 X157.892 Y76.887 E2.84571
G1 X158.116 Y77.493 E2.8672
G1 X158.291 Y78.008 E2.88529
G1 X158.474 Y78.59 E2.90558
G1 X158.626 Y79.118 E2.92386
G1 X158.797 Y79.775 E2.94644
G1 X158.918 Y80.289 E2.964
G1 X159.044 Y80.89 E2.98442
G1 X159.141 Y81.417 E3.00224
G1 X159.241 Y82.045 E3.0234
G1 X159.313 Y82.585 E3.04151
G1 X159.382 Y83.219 E3.06273
G1 X159.427 Y83.738 E3.08005
G1 X159.466 Y84.376 E3.10131
G1 X159.485 Y84.899 E3.11872
G1 X159.5 Y86.089 E3.1583
G1 X159.499 Y148.988 E5.25033
G1 X159.487 Y149.938 E5.28193
G1 X159.458 Y150.762 E5.30935
G1 X159.425 Y151.275 E5.32645
G1 X159.367 Y151.935 E5.34849
G1 X159.306 Y152.476 E5.3666
G1 X159.221 Y153.092 E5.38728
G1 X159.135 Y153.617 E5.40497
G1 X159.016 Y154.251 E5.42643
G1 X158.896 Y154.811 E5.44548
G1 X158.741 Y155.451 E5.46738
G1 X158.597 Y155.988 E5.48587
G1 X158.41 Y156.619 E5.50776
G1 X158.259 Y157.089 E5.52418
G1 X158.067 Y157.644 E5.54371
G1 X157.867 Y158.176 E5.56261
G1 X157.618 Y158.791 E5.58468
G1 X157.412 Y159.268 E5.60196
G1 X157.14 Y159.858 E5.62357
G1 X156.901 Y160.345 E5.64162
G1 X156.619 Y160.885 E5.66188
G1 X156.347 Y161.375 E5.68052
G1 X156.029 Y161.915 E5.70136
G1 X155.767 Y162.337 E5.71788
G1 X155.412 Y162.882 E5.73951
G1 X155.093 Y163.346 E5.75824
G1 X154.699 Y163.888 E5.78053
G1 X154.373 Y164.313 E5.79834
G1 X154.02 Y164.752 E5.81708
G1 X153.66 Y165.178 E5.83563
G1 X153.193 Y165.702 E5.85898
G1 X152.823 Y166.097 E5.87698
G1 X152.4 Y166.527 E5.89704
G1 X152.032 Y166.884 E5.91409
G1 X151.545 Y167.335 E5.93617
G1 X151.122 Y167.707 E5.9549
G1 X150.637 Y168.112 E5.97592
G1 X150.239 Y168.429 E5.99284
G1 X149.736 Y168.811 E6.01385
G1 X149.262 Y169.152 E6.03327
G1 X148.72 Y169.52 E6.05506
G1 X148.277 Y169.805 E6.07258
G1 X147.737 Y170.135 E6.09363
G1 X147.31 Y170.383 E6.11005
G1 X146.82 Y170.653 E6.12866
G1 X146.352 Y170.897 E6.14622
G1 X145.748 Y171.193 E6.16859
G1 X145.226 Y171.432 E6.18768
G1 X144.617 Y171.692 E6.20971
G1 X144.121 Y171.889 E6.22746
G1 X143.549 Y172.101 E6.24775
G1 X143.037 Y172.277 E6.26576
G1 X142.416 Y172.473 E6.28741
G1 X141.874 Y172.629 E6.30617
G1 X141.232 Y172.796 E6.32824
G1 X140.726 Y172.915 E6.34553
G1 X140.117 Y173.043 E6.36622
G1 X139.586 Y173.141 E6.38418
G1 X138.959 Y173.241 E6.4053
G1 X138.413 Y173.314 E6.42362
G1 X137.777 Y173.383 E6.4449
G1 X137.249 Y173.427 E6.46252
G1 X136.582 Y173.467 E6.48475
G1 X136.056 Y173.486 E6.50225
G1 X134.755 Y173.5 E6.54553
G1 X133.367 Y173.489 E6.59169
G1 X132.43 Y173.441 E6.6229
G1 X131.881 Y173.376 E6.64129
G1 X128.859 Y172.939 E6.74284
G1 X126.379 Y172.656 E6.82586
G1 X123.839 Y172.438 E6.91065
G1 X121.338 Y172.295 E6.99397
G1 X118.842 Y172.223 E7.07703
G1 X116.319 Y172.221 E7.16094
G1 X113.806 Y172.29 E7.24456
G1 X111.268 Y172.433 E7.3291
G1 X108.79 Y172.643 E7.41182
G1 X106.257 Y172.928 E7.4966
G1 X104.157 Y173.22 E7.56712
G1 X103.184 Y173.366 E7.59984
G1 X101.986 Y173.479 E7.63986
G1 X101.386 Y173.496 E7.65983
G1 X100.028 Y173.499 E7.70499
G1 X99.035 Y173.486 E7.73802
G1 X98.194 Y173.455 E7.76602
G1 X97.676 Y173.421 E7.78328
G1 X97.05 Y173.365 E7.80418
G1 X96.51 Y173.303 E7.82226
G1 X95.865 Y173.213 E7.84392
G1 X95.34 Y173.127 E7.86162
G1 X94.727 Y173.011 E7.88237
G1 X94.192 Y172.896 E7.90057
G1 X93.562 Y172.744 E7.92212
G1 X93.049 Y172.607 E7.93978
G1 X92.438 Y172.428 E7.96096
G1 X91.913 Y172.26 E7.97929
G1 X91.313 Y172.051 E8.00043
G1 X90.808 Y171.861 E8.01837
G1 X90.207 Y171.618 E8.03993
G1 X89.706 Y171.401 E8.05809
G1 X89.121 Y171.13 E8.07954
G1 X88.653 Y170.9 E8.09688
G1 X88.113 Y170.618 E8.11714
G1 X87.621 Y170.344 E8.13587
G1 X87.083 Y170.027 E8.15664
G1 X86.651 Y169.759 E8.17355
G1 X86.103 Y169.401 E8.19532
G1 X85.629 Y169.074 E8.21448
G1 X85.072 Y168.667 E8.23742
G1 X84.648 Y168.34 E8.25523
G1 X84.184 Y167.965 E8.27507
G1 X83.776 Y167.619 E8.29286
G1 X83.304 Y167.198 E8.3139
G1 X82.924 Y166.842 E8.33122
G1 X82.457 Y166.384 E8.35298
G1 X82.083 Y165.999 E8.37083
G1 X81.665 Y165.547 E8.3913
G1 X81.295 Y165.126 E8.40995
G1 X80.882 Y164.631 E8.43139
G1 X80.547 Y164.209 E8.44931
G1 X80.16 Y163.696 E8.47068
G1 X79.844 Y163.255 E8.48873
G1 X79.479 Y162.718 E8.51032
G1 X79.192 Y162.274 E8.52791
G1 X78.866 Y161.741 E8.54869
G1 X78.616 Y161.31 E8.56526
G1 X78.346 Y160.82 E8.58387
G1 X78.096 Y160.338 E8.60193
G1 X77.801 Y159.734 E8.62428
G1 X77.568 Y159.226 E8.64287
G1 X77.308 Y158.617 E8.6649
G1 X77.112 Y158.125 E8.68251
G1 X76.899 Y157.551 E8.70287
G1 X76.72 Y157.029 E8.72123
G1 X76.525 Y156.41 E8.74281
G1 X76.37 Y155.868 E8.76156
G1 X76.199 Y155.209 E8.78421
G1 X76.08 Y154.705 E8.80143
G1 X75.956 Y154.114 E8.82152
G1 X75.858 Y153.579 E8.83961
G1 X75.758 Y152.949 E8.86082
G1 X75.687 Y152.415 E8.87874
G1 X75.618 Y151.781 E8.89995
G1 X75.573 Y151.261 E8.91731
G1 X75.534 Y150.622 E8.9386
G1 X75.515 Y150.1 E8.95598
G1 X75.5 Y148.911 E8.99553
G1 X75.501 Y85.949 E11.08965
G1 X75.512 Y85.086 E11.11836
G1 X75.542 Y84.238 E11.14658
G1 X75.575 Y83.72 E11.16384
G1 X75.633 Y83.062 E11.18581
G1 X75.695 Y82.516 E11.20409
G1 X75.782 Y81.889 E11.22514
G1 X75.87 Y81.354 E11.24318
G1 X75.988 Y80.731 E11.26427
G1 X76.1 Y80.208 E11.28206
G1 X76.248 Y79.592 E11.30313
G1 X76.384 Y79.081 E11.32071
G1 X76.569 Y78.447 E11.34268
G1 X76.743 Y77.903 E11.36168
G1 X76.951 Y77.307 E11.38267
G1 X77.141 Y76.803 E11.40059
G1 X77.386 Y76.198 E11.4223
G1 X77.596 Y75.715 E11.43982
G1 X77.85 Y75.165 E11.45996
G1 X78.075 Y74.705 E11.477
G1 X78.366 Y74.145 E11.49799
G1 X78.644 Y73.643 E11.51707
G1 X78.979 Y73.073 E11.53906
G1 X79.251 Y72.634 E11.55624
G1 X79.597 Y72.104 E11.57729
G1 X79.942 Y71.606 E11.59744
G1 X80.351 Y71.049 E11.62043
G1 X80.651 Y70.659 E11.63679
G1 X81.024 Y70.196 E11.65657
G1 X81.371 Y69.786 E11.67443
G0 F6000 X81.67 Y70.052
G1 F1200 X82.081 Y69.59 E11.695
G1 X82.442 Y69.204 E11.71258
G1 X82.906 Y68.732 E11.73459
G1 X83.266 Y68.383 E11.75127
G1 X83.721 Y67.962 E11.77188
G1 X84.126 Y67.606 E11.78982
G1 X84.611 Y67.201 E11.81083
G1 X85.027 Y66.87 E11.82852
G1 X85.558 Y66.47 E11.85063
G1 X85.95 Y66.189 E11.86667
G1 X86.444 Y65.851 E11.88658
G1 X86.901 Y65.555 E11.90469
G1 X87.48 Y65.201 E11.92726
G1 X87.939 Y64.936 E11.94489
G1 X88.499 Y64.631 E11.9661
G1 X88.938 Y64.405 E11.98252
G1 X89.463 Y64.15 E12.00193
G1 X89.926 Y63.939 E12.01885
G1 X90.534 Y63.679 E12.04085
G1 X91.018 Y63.486 E12.05818
G1 X91.59 Y63.274 E12.07847
G1 X92.084 Y63.105 E12.09583
G1 X92.705 Y62.909 E12.11749
G1 X93.232 Y62.757 E12.13573
G1 X93.883 Y62.588 E12.1581
G1 X94.371 Y62.474 E12.17477
G1 X94.972 Y62.348 E12.1952
G1 X95.478 Y62.254 E12.21231
G1 X96.105 Y62.154 E12.23343
G1 X96.629 Y62.084 E12.25101
G1 X97.264 Y62.015 E12.27226
G1 X97.774 Y61.972 E12.28928
G1 X98.441 Y61.932 E12.31151
G1 X98.949 Y61.914 E12.32841
G1 X100.242 Y61.9 E12.37142
G1 X101.631 Y61.911 E12.41762
G1 X102.55 Y61.959 E12.44823
G1 X103.064 Y62.02 E12.46544
G1 X106.084 Y62.457 E12.56694
G1 X108.631 Y62.747 E12.6522
G1 X111.098 Y62.958 E12.73455
G1 X113.636 Y63.103 E12.8191
G1 X116.183 Y63.176 E12.90385
G1 X118.693 Y63.178 E12.98733
G1 X121.247 Y63.107 E13.07231
G1 X123.738 Y62.967 E13.15529
G1 X126.256 Y62.754 E13.23934
G1 X128.786 Y62.467 E13.32403
G1 X130.585 Y62.212 E13.38446
G1 X130.729 Y62.198 E13.38927
G1 X131.921 Y62.023 E13.42935
G1 X133.122 Y61.916 E13.46945
G1 X133.722 Y61.902 E13.48941
G1 X134.808 Y61.9 E13.52553
G1 X135.96 Y61.914 E13.56385
G1 X136.789 Y61.944 E13.59144
G1 X137.288 Y61.977 E13.60807
G1 X137.914 Y62.033 E13.62898
G1 X138.427 Y62.092 E13.64615
G1 X139.061 Y62.18 E13.66744
G1 X139.565 Y62.262 E13.68442
G1 X140.176 Y62.377 E13.7051
G1 X140.684 Y62.486 E13.72238
G1 X141.327 Y62.64 E13.74438
G1 X141.841 Y62.777 E13.76207
G1 X142.424 Y62.948 E13.78228
G1 X142.904 Y63.101 E13.79903
G1 X143.497 Y63.306 E13.8199
G1 X143.992 Y63.491 E13.83748
G1 X144.623 Y63.745 E13.8601
G1 X145.12 Y63.959 E13.8781
G1 X145.703 Y64.229 E13.89947
G1 X146.17 Y64.46 E13.9168
G1 X146.727 Y64.752 E13.93771
G1 X147.172 Y64.999 E13.95464
G1 X147.7 Y65.309 E13.97501
G1 X148.114 Y65.565 E13.99119
G1 X148.655 Y65.917 E14.01266
G1 X149.099 Y66.223 E14.0306
G1 X149.591 Y66.58 E14.05081
G1 X150.018 Y66.906 E14.06868
G1 X150.544 Y67.33 E14.09115
G1 X150.93 Y67.657 E14.10798
G1 X151.421 Y68.093 E14.12982
G1 X151.808 Y68.454 E14.14742
G1 X152.239 Y68.877 E14.16751
G1 X152.592 Y69.24 E14.18435
G1 X153.042 Y69.726 E14.20638
G1 X153.4 Y70.134 E14.22443
G1 X153.805 Y70.619 E14.24545
G1 X154.123 Y71.019 E14.26244
G1 X154.511 Y71.532 E14.28384
G1 X154.805 Y71.94 E14.30056
G1 X155.141 Y72.431 E14.32035
G1 X155.436 Y72.887 E14.33842
G1 X155.798 Y73.479 E14.36149
G1 X156.038 Y73.892 E14.37738
G1 X156.291 Y74.351 E14.39481
G1 X156.522 Y74.795 E14.41146
G1 X156.827 Y75.416 E14.43447
G1 X157.063 Y75.931 E14.45331
G1 X157.324 Y76.543 E14.47544
G1 X157.517 Y77.026 E14.49274
G1 X157.741 Y77.632 E14.51423
G1 X157.91 Y78.127 E14.53163
G1 X158.093 Y78.709 E14.55192
G1 X158.239 Y79.219 E14.56956
G1 X158.41 Y79.876 E14.59214
G1 X158.526 Y80.371 E14.60905
G1 X158.652 Y80.972 E14.62948
G1 X158.746 Y81.48 E14.64666
G1 X158.846 Y82.108 E14.66781
G1 X158.916 Y82.628 E14.68526
G1 X158.985 Y83.262 E14.70647
G1 X159.027 Y83.762 E14.72316
G1 X159.066 Y84.4 E14.74442
G1 X159.085 Y84.905 E14.76123
G1 X159.1 Y86.089 E14.80061
G1 X159.099 Y148.983 E16.89248
G1 X159.087 Y149.933 E16.92408
G1 X159.058 Y150.746 E16.95113
G1 X159.026 Y151.24 E16.9676
G1 X158.968 Y151.9 E16.98963
G1 X158.91 Y152.421 E17.00707
G1 X158.825 Y153.037 E17.02775
G1 X158.742 Y153.543 E17.04481
G1 X158.623 Y154.177 E17.06626
G1 X158.507 Y154.717 E17.08463
G1 X158.352 Y155.357 E17.10653
G1 X158.213 Y155.874 E17.12434
G1 X158.026 Y156.505 E17.14623
G1 X157.88 Y156.959 E17.16209
G1 X157.688 Y157.514 E17.18162
G1 X157.496 Y158.026 E17.19981
G1 X157.247 Y158.641 E17.22188
G1 X157.048 Y159.101 E17.23855
G1 X156.776 Y159.691 E17.26016
G1 X156.546 Y160.16 E17.27753
G1 X156.264 Y160.7 E17.29779
G1 X156.002 Y161.172 E17.31575
G1 X155.684 Y161.712 E17.33659
G1 X155.432 Y162.118 E17.35249
G1 X155.077 Y162.663 E17.37412
G1 X154.769 Y163.111 E17.3922
G1 X154.375 Y163.653 E17.41449
G1 X154.062 Y164.062 E17.43162
G1 X153.709 Y164.501 E17.45035
G1 X153.361 Y164.912 E17.46827
G1 X152.894 Y165.436 E17.49161
G1 X152.538 Y165.817 E17.50895
G1 X152.115 Y166.247 E17.52902
G1 X151.76 Y166.59 E17.54543
G1 X151.273 Y167.041 E17.56751
G1 X150.865 Y167.4 E17.58559
G1 X150.38 Y167.805 E17.6066
G1 X149.997 Y168.111 E17.62291
G1 X149.494 Y168.493 E17.64391
G1 X149.037 Y168.821 E17.66262
G1 X148.495 Y169.189 E17.68441
G1 X148.068 Y169.464 E17.70131
G1 X147.528 Y169.794 E17.72235
G1 X147.117 Y170.033 E17.73817
G1 X146.627 Y170.303 E17.75678
G1 X146.176 Y170.537 E17.77367
G1 X145.572 Y170.833 E17.79605
G1 X145.069 Y171.064 E17.81446
G1 X144.46 Y171.324 E17.83648
G1 X143.982 Y171.514 E17.85359
G1 X143.41 Y171.726 E17.87388
G1 X142.916 Y171.895 E17.89124
G1 X142.295 Y172.091 E17.9129
G1 X141.774 Y172.242 E17.93094
G1 X141.132 Y172.409 E17.95301
G1 X140.643 Y172.523 E17.96971
G1 X140.034 Y172.651 E17.99041
G1 X139.523 Y172.746 E18.00769
G1 X138.896 Y172.846 E18.02881
G1 X138.37 Y172.916 E18.04646
G1 X137.734 Y172.985 E18.06774
G1 X137.226 Y173.028 E18.08469
G1 X136.559 Y173.068 E18.10692
G1 X136.051 Y173.086 E18.12383
G1 X134.758 Y173.1 E18.16683
G1 X133.37 Y173.089 E18.213
G1 X132.451 Y173.041 E18.24361
G1 X131.938 Y172.98 E18.26079
G1 X128.928 Y172.545 E18.36194
G1 X126.383 Y172.254 E18.44714
G1 X123.898 Y172.041 E18.5301
G1 X121.373 Y171.897 E18.61421
G1 X118.819 Y171.823 E18.6992
G1 X116.308 Y171.821 E18.78271
G1 X113.771 Y171.891 E18.86713
G1 X111.251 Y172.033 E18.95107
G1 X108.745 Y172.245 E19.03472
G1 X106.197 Y172.532 E19.12
G1 X104.204 Y172.809 E19.18693
G1 X103.125 Y172.971 E19.22322
G1 X101.97 Y173.08 E19.26181
G1 X101.385 Y173.096 E19.28127
G1 X100.033 Y173.099 E19.32624
G1 X98.734 Y173.078 E19.36945
G1 X98.211 Y173.056 E19.38686
G1 X97.712 Y173.023 E19.40349
G1 X97.086 Y172.967 E19.4244
G1 X96.565 Y172.907 E19.44184
G1 X95.92 Y172.817 E19.4635
G1 X95.414 Y172.734 E19.48055
G1 X94.801 Y172.618 E19.5013
G1 X94.286 Y172.507 E19.51883
G1 X93.656 Y172.355 E19.54038
G1 X93.162 Y172.223 E19.55739
G1 X92.551 Y172.044 E19.57856
G1 X92.044 Y171.882 E19.59627
G1 X91.444 Y171.673 E19.6174
G1 X90.958 Y171.49 E19.63467
G1 X90.357 Y171.247 E19.65623
G1 X89.874 Y171.038 E19.67374
G1 X89.289 Y170.767 E19.69518
G1 X88.838 Y170.545 E19.7119
