;FLAVOR:Marlin
;TIME:11169
;Filament used: 5.39159m
;Layer height: 0.2
;MINX:78.2
;MINY:56.7
;MINZ:0.2
;MAXX:156.8
;MAXY:178.298
;MAXZ:3.6
;Generated with Cura_SteamEngine 5.2.2
M140 S50
M105
M190 S50
M104 S200
M105
M109 S200
M82 ;absolute extrusion mode
; Ender 3 Custom Start G-code
G92 E0 ; Reset Extruder
G28 ; Home all axes
G1 Z2.0 F3000 ; Move Z Axis up little to prevent scratching of Heat Bed
G1 X0.1 Y20 Z0.3 F5000.0 ; Move to start position
G1 X0.1 Y200.0 Z0.3 F1500.0 E15 ; Draw the first line
G1 X0.4 Y200.0 Z0.3 F5000.0 ; Move to side a little
G1 X0.4 Y20 Z0.3 F1500.0 E30 ; Draw the second line
G92 E0 ; Reset Extruder
G1 Z2.0 F3000 ; Move Z Axis up little to prevent scratching of Heat Bed
G1 X5 Y20 Z0.3 F5000.0 ; Move over to prevent blob squish
G92 E0
G92 E0
G1 F2700 E-5
;LAYER_COUNT:18
;LAYER:0
M107
G0 F6000 X81.827 Y63.734 Z0.2
;TYPE:SKIRT
G1 F2700 E0
G1 F1200 X82.141 Y63.333 E0.01694
G1 X82.376 Y63.047 E0.02925
G1 X82.696 Y62.676 E0.04555
G1 X82.964 Y62.381 E0.0588
G1 X83.553 Y61.777 E0.08686
G1 X83.922 Y61.426 E0.1038
G1 X84.211 Y61.165 E0.11675
G1 X84.857 Y60.621 E0.14484
G1 X85.545 Y60.095 E0.17365
G1 X85.946 Y59.812 E0.18997
G1 X86.28 Y59.589 E0.20333
G1 X86.695 Y59.327 E0.21965
G1 X87.018 Y59.134 E0.23217
G1 X87.444 Y58.893 E0.24845
G1 X87.778 Y58.715 E0.26103
G1 X88.235 Y58.485 E0.27805
G1 X88.589 Y58.318 E0.29107
G1 X89.037 Y58.12 E0.30736
G1 X89.411 Y57.966 E0.32081
G1 X90.192 Y57.676 E0.34852
G1 X90.641 Y57.527 E0.36426
G1 X91.027 Y57.41 E0.37767
G1 X91.499 Y57.28 E0.39395
G1 X92.329 Y57.084 E0.42232
G1 X92.717 Y57.006 E0.43548
G1 X93.202 Y56.922 E0.45185
G1 X93.581 Y56.866 E0.4646
G1 X94.069 Y56.806 E0.48095
G1 X94.447 Y56.769 E0.49358
G1 X94.935 Y56.733 E0.50986
G1 X95.318 Y56.714 E0.52261
G1 X96 Y56.7 E0.5453
G1 X139 Y56.7 E1.97549
G1 X139.709 Y56.716 E1.99907
G1 X140.099 Y56.735 E2.01206
G1 X140.588 Y56.772 E2.02837
G1 X140.968 Y56.81 E2.04107
G1 X141.455 Y56.871 E2.0574
G1 X141.838 Y56.929 E2.07028
G1 X142.681 Y57.086 E2.0988
G1 X143.161 Y57.194 E2.11517
G1 X143.565 Y57.296 E2.12902
G1 X144.037 Y57.429 E2.14533
G1 X144.853 Y57.692 E2.17385
G1 X145.651 Y57.991 E2.20219
G1 X146.436 Y58.329 E2.23062
G1 X146.789 Y58.496 E2.24361
G1 X147.243 Y58.725 E2.26052
G1 X147.6 Y58.917 E2.274
G1 X148.328 Y59.342 E2.30204
G1 X148.742 Y59.604 E2.31834
G1 X149.075 Y59.827 E2.33166
G1 X149.461 Y60.1 E2.34739
G1 X149.766 Y60.327 E2.36004
G1 X150.167 Y60.641 E2.37698
G1 X150.463 Y60.884 E2.38971
G1 X150.835 Y61.206 E2.40608
G1 X151.452 Y61.783 E2.43417
G1 X151.722 Y62.053 E2.44687
G1 X152.074 Y62.423 E2.46386
G1 X152.344 Y62.722 E2.47726
G1 X152.894 Y63.375 E2.50565
G1 X153.405 Y64.045 E2.53368
G1 X153.688 Y64.446 E2.55
G1 X153.911 Y64.78 E2.56336
G1 X154.173 Y65.195 E2.57969
G1 X154.37 Y65.526 E2.5925
G1 X154.62 Y65.969 E2.60942
G1 X154.797 Y66.301 E2.62193
G1 X155.018 Y66.741 E2.63831
G1 X155.185 Y67.095 E2.65132
G1 X155.383 Y67.544 E2.66765
G1 X155.53 Y67.902 E2.68052
G1 X155.829 Y68.706 E2.70905
G1 X155.977 Y69.155 E2.72477
G1 X156.089 Y69.526 E2.73766
G1 X156.305 Y70.338 E2.76561
G1 X156.414 Y70.817 E2.78195
G1 X156.494 Y71.217 E2.79551
G1 X156.578 Y71.702 E2.81189
G1 X156.693 Y72.563 E2.84078
G1 X156.731 Y72.947 E2.85361
G1 X156.767 Y73.437 E2.86995
G1 X156.786 Y73.818 E2.88264
G1 X156.8 Y74.499 E2.9053
G1 X156.799 Y130.102 E4.75466
G1 X156.776 Y131.68 E4.80715
G1 X156.711 Y133.268 E4.86001
G1 X156.615 Y134.7 E4.90775
G1 X156.427 Y136.667 E4.97347
G1 X156.206 Y138.396 E5.03144
G1 X155.936 Y140.115 E5.08932
G1 X155.677 Y141.514 E5.13664
G1 X155.259 Y143.448 E5.20245
G1 X154.898 Y144.9 E5.25221
G1 X154.464 Y146.466 E5.30626
G1 X153.951 Y148.117 E5.36376
G1 X153.396 Y149.732 E5.42056
G1 X152.821 Y151.251 E5.47458
G1 X152.169 Y152.822 E5.53116
G1 X151.471 Y154.364 E5.58745
G1 X150.762 Y155.806 E5.6409
G1 X149.84 Y157.527 E5.70583
G1 X148.975 Y159.004 E5.76276
G1 X148.213 Y160.215 E5.81035
G1 X147.246 Y161.649 E5.86788
G1 X146.243 Y163.018 E5.92432
G1 X145.204 Y164.336 E5.98015
G1 X144.461 Y165.217 E6.01848
G1 X143.379 Y166.421 E6.07232
G1 X143.169 Y166.645 E6.08253
G1 X142.242 Y167.594 E6.12665
G1 X141.08 Y168.705 E6.18012
G1 X140.838 Y168.926 E6.19102
G1 X139.856 Y169.783 E6.23437
G1 X138.689 Y170.734 E6.28444
G1 X138.424 Y170.939 E6.29559
G1 X137.098 Y171.914 E6.35033
G1 X136.101 Y172.592 E6.39043
G1 X134.77 Y173.425 E6.44266
G1 X134.475 Y173.6 E6.45406
G1 X133.375 Y174.217 E6.49601
G1 X133.081 Y174.374 E6.5071
G1 X132 Y174.921 E6.54739
G1 X131.683 Y175.072 E6.55907
G1 X130.589 Y175.565 E6.59898
G1 X130.28 Y175.697 E6.61016
G1 X129.212 Y176.124 E6.64841
G1 X128.883 Y176.246 E6.66008
G1 X127.721 Y176.651 E6.70101
G1 X127.375 Y176.763 E6.71311
G1 X126.244 Y177.099 E6.75235
G1 X125.893 Y177.195 E6.76445
G1 X124.755 Y177.476 E6.80344
G1 X124.41 Y177.553 E6.8152
G1 X123.261 Y177.782 E6.85417
G1 X122.899 Y177.845 E6.86639
G1 X121.745 Y178.019 E6.9052
G1 X121.375 Y178.066 E6.91761
G1 X120.22 Y178.184 E6.95622
G1 X119.85 Y178.213 E6.96857
G1 X118.689 Y178.276 E7.00724
G1 X118.34 Y178.287 E7.01885
G1 X117.181 Y178.298 E7.0574
G1 X116.798 Y178.292 E7.07014
G1 X115.638 Y178.246 E7.10875
G1 X115.263 Y178.222 E7.12125
G1 X114.105 Y178.12 E7.15992
G1 X113.75 Y178.08 E7.1718
G1 X112.597 Y177.925 E7.21049
G1 X112.228 Y177.867 E7.22292
G1 X111.078 Y177.656 E7.2618
G1 X110.724 Y177.582 E7.27383
G1 X109.538 Y177.307 E7.31433
G1 X109.173 Y177.213 E7.32686
G1 X108.083 Y176.904 E7.36454
G1 X107.759 Y176.805 E7.37581
G1 X106.635 Y176.433 E7.41519
G1 X106.302 Y176.314 E7.42695
G1 X105.148 Y175.873 E7.46804
G1 X104.811 Y175.735 E7.48015
G1 X103.707 Y175.253 E7.52022
G1 X103.391 Y175.107 E7.5318
G1 X102.297 Y174.57 E7.57233
G1 X102.001 Y174.417 E7.58341
G1 X100.924 Y173.83 E7.62421
G1 X100.635 Y173.664 E7.6353
G1 X99.623 Y173.055 E7.67458
G1 X99.33 Y172.87 E7.6861
G1 X98.175 Y172.103 E7.73222
G1 X97.91 Y171.919 E7.74295
G1 X96.912 Y171.195 E7.78396
G1 X96.624 Y170.975 E7.79601
G1 X95.406 Y170.002 E7.84786
G1 X95.096 Y169.741 E7.86134
G1 X93.788 Y168.58 E7.91951
G1 X93.503 Y168.314 E7.93248
G1 X92.378 Y167.21 E7.9849
G1 X92.133 Y166.959 E7.99657
G1 X91.047 Y165.793 E8.04956
G1 X90.807 Y165.523 E8.06158
G1 X89.766 Y164.296 E8.1151
G1 X89.557 Y164.039 E8.12612
G1 X88.559 Y162.756 E8.18018
G1 X88.347 Y162.47 E8.19202
G1 X87.326 Y161.026 E8.25084
G1 X87.144 Y160.757 E8.26164
G1 X86.276 Y159.414 E8.31483
G1 X86.094 Y159.118 E8.32639
G1 X85.137 Y157.482 E8.38942
G1 X84.958 Y157.159 E8.40171
G1 X83.961 Y155.253 E8.47325
G1 X83.79 Y154.905 E8.48615
G1 X82.884 Y152.941 E8.55808
G1 X82.735 Y152.595 E8.57061
G1 X81.918 Y150.572 E8.64318
G1 X81.788 Y150.229 E8.65538
G1 X81.059 Y148.147 E8.72875
G1 X80.947 Y147.8 E8.74088
G1 X80.311 Y145.669 E8.81484
G1 X80.216 Y145.322 E8.82681
G1 X79.675 Y143.149 E8.90129
G1 X79.599 Y142.811 E8.91281
G1 X79.152 Y140.601 E8.98781
G1 X79.09 Y140.253 E8.99956
G1 X78.742 Y138.014 E9.07493
G1 X78.696 Y137.67 E9.08647
G1 X78.447 Y135.41 E9.16209
G1 X78.417 Y135.07 E9.17345
G1 X78.267 Y132.797 E9.24921
G1 X78.252 Y132.454 E9.26063
G1 X78.2 Y130 E9.34227
G1 X78.202 Y74.309 E11.19456
G1 X78.214 Y73.818 E11.21089
G1 X78.234 Y73.427 E11.22392
G1 X78.309 Y72.54 E11.25352
G1 X78.367 Y72.073 E11.26917
G1 X78.424 Y71.692 E11.28199
G1 X78.512 Y71.188 E11.299
G1 X78.587 Y70.813 E11.31172
G1 X78.691 Y70.352 E11.32744
G1 X78.788 Y69.969 E11.34058
G1 X79.032 Y69.127 E11.36974
G1 X79.18 Y68.68 E11.3854
G1 X79.492 Y67.848 E11.41495
G1 X79.638 Y67.495 E11.42766
G1 X79.829 Y67.064 E11.44334
G1 X79.993 Y66.717 E11.45611
G1 X80.213 Y66.28 E11.47238
G1 X80.403 Y65.925 E11.48577
G1 X80.656 Y65.481 E11.50277
G1 X81.104 Y64.758 E11.53106
G1 X81.327 Y64.425 E11.54439
G1 X81.6 Y64.039 E11.56011
G1 X81.827 Y63.734 E11.57276
G0 F6000 X82.142 Y63.981
G1 F1200 X82.678 Y63.309 E11.60135
G1 X82.998 Y62.938 E11.61764
G1 X83.253 Y62.657 E11.63026
G1 X83.58 Y62.315 E11.646
G1 X84.198 Y61.716 E11.67463
G1 X84.472 Y61.468 E11.68692
G1 X85.103 Y60.936 E11.71437
G1 X85.49 Y60.634 E11.7307
G1 X86.177 Y60.139 E11.75886
G1 X86.494 Y59.928 E11.77152
G1 X87.215 Y59.482 E11.79972
G1 X87.641 Y59.241 E11.816
G1 X88.415 Y58.842 E11.84496
G1 X89.199 Y58.486 E11.8736
G1 X89.554 Y58.34 E11.88637
G1 X90.318 Y58.056 E11.91348
G1 X90.767 Y57.907 E11.92921
G1 X91.133 Y57.796 E11.94193
G1 X91.939 Y57.582 E11.96967
G1 X92.417 Y57.474 E11.98597
G1 X92.785 Y57.401 E11.99845
G1 X93.63 Y57.263 E12.02692
G1 X94.118 Y57.203 E12.04328
G1 X94.965 Y57.132 E12.07155
G1 X95.328 Y57.114 E12.08364
G1 X96 Y57.1 E12.10599
G1 X139.189 Y57.102 E13.54246
G1 X139.699 Y57.115 E13.55943
G1 X140.068 Y57.134 E13.57172
G1 X140.919 Y57.207 E13.60013
G1 X141.406 Y57.268 E13.61645
G1 X141.769 Y57.323 E13.62867
G1 X142.593 Y57.476 E13.65654
G1 X143.073 Y57.584 E13.6729
G1 X143.456 Y57.681 E13.68604
G1 X143.928 Y57.814 E13.70235
G1 X144.726 Y58.072 E13.73025
G1 X145.507 Y58.365 E13.75799
G1 X145.843 Y58.504 E13.77009
G1 X146.609 Y58.853 E13.79808
G1 X147.063 Y59.082 E13.815
G1 X147.401 Y59.264 E13.82776
G1 X148.114 Y59.68 E13.85522
G1 X148.528 Y59.942 E13.87152
G1 X148.844 Y60.153 E13.88415
G1 X149.23 Y60.426 E13.89988
G1 X149.92 Y60.956 E13.92882
G1 X150.201 Y61.187 E13.94092
G1 X150.573 Y61.509 E13.95728
G1 X151.176 Y62.072 E13.98472
G1 X151.432 Y62.328 E13.99676
G1 X151.784 Y62.698 E14.01375
G1 X152.04 Y62.982 E14.02646
G1 X152.578 Y63.621 E14.05425
G1 X153.078 Y64.276 E14.08165
G1 X153.361 Y64.677 E14.09798
G1 X153.572 Y64.994 E14.11064
G1 X154.022 Y65.722 E14.13911
G1 X154.272 Y66.165 E14.15603
G1 X154.661 Y66.921 E14.1843
G1 X154.819 Y67.256 E14.19662
G1 X155.017 Y67.705 E14.21295
G1 X155.157 Y68.045 E14.22517
G1 X155.332 Y68.502 E14.24145
G1 X155.597 Y69.28 E14.26879
G1 X155.703 Y69.632 E14.28101
G1 X155.915 Y70.427 E14.30838
G1 X156.024 Y70.906 E14.32472
G1 X156.099 Y71.285 E14.33757
G1 X156.236 Y72.126 E14.36591
G1 X156.296 Y72.612 E14.3822
G1 X156.332 Y72.977 E14.3944
G1 X156.386 Y73.828 E14.42276
G1 X156.4 Y74.499 E14.44508
G1 X156.399 Y130.097 E16.29428
G1 X156.376 Y131.664 E16.3464
G1 X156.311 Y133.241 E16.3989
G1 X156.199 Y134.879 E16.4535
G1 X156.055 Y136.393 E16.50409
G1 X155.84 Y138.125 E16.56214
G1 X155.542 Y140.042 E16.62666
G1 X155.24 Y141.657 E16.68131
G1 X154.922 Y143.129 E16.7314
G1 X154.456 Y145.007 E16.79575
G1 X154.079 Y146.358 E16.8424
G1 X153.5 Y148.208 E16.90688
G1 X152.939 Y149.818 E16.96358
G1 X152.362 Y151.322 E17.01716
G1 X151.8 Y152.668 E17.06568
G1 X151.004 Y154.416 E17.12956
G1 X150.296 Y155.838 E17.18239
G1 X149.494 Y157.326 E17.23861
G1 X148.758 Y158.59 E17.28726
G1 X147.88 Y159.993 E17.34231
G1 X147.088 Y161.176 E17.38966
G1 X146.922 Y161.413 E17.39929
G1 X145.929 Y162.771 E17.45524
G1 X145.065 Y163.873 E17.50182
G1 X144.155 Y164.959 E17.54894
G1 X142.883 Y166.366 E17.61203
G1 X141.956 Y167.315 E17.65615
G1 X140.805 Y168.415 E17.7091
G1 X140.575 Y168.624 E17.71944
G1 X139.384 Y169.657 E17.77188
G1 X138.438 Y170.423 E17.81236
G1 X138.186 Y170.618 E17.82296
G1 X137.117 Y171.41 E17.86721
G1 X136.873 Y171.583 E17.87716
G1 X135.616 Y172.431 E17.92759
G1 X134.56 Y173.086 E17.96892
G1 X134.279 Y173.251 E17.97976
G1 X133.179 Y173.868 E18.02171
G1 X132.9 Y174.017 E18.03223
G1 X131.819 Y174.564 E18.07252
G1 X131.518 Y174.708 E18.08362
G1 X130.424 Y175.201 E18.12353
G1 X129.063 Y175.752 E18.17237
G1 X128.751 Y175.869 E18.18345
G1 X127.589 Y176.274 E18.22438
G1 X127.261 Y176.38 E18.23584
G1 X126.13 Y176.716 E18.27509
G1 X125.797 Y176.806 E18.28656
G1 X124.659 Y177.087 E18.32555
G1 X124.331 Y177.16 E18.33672
G1 X123.182 Y177.389 E18.37569
G1 X122.839 Y177.449 E18.38727
G1 X121.685 Y177.623 E18.42609
G1 X121.334 Y177.668 E18.43786
G1 X120.179 Y177.786 E18.47647
G1 X119.828 Y177.813 E18.48818
G1 X118.667 Y177.876 E18.52685
G1 X118.336 Y177.887 E18.53787
G1 X117.177 Y177.898 E18.57642
G1 X116.814 Y177.892 E18.58849
G1 X115.654 Y177.846 E18.62711
G1 X115.298 Y177.823 E18.63897
G1 X114.14 Y177.721 E18.67764
G1 X113.803 Y177.684 E18.68891
G1 X112.65 Y177.529 E18.72761
G1 X112.301 Y177.474 E18.73936
G1 X111.151 Y177.263 E18.77824
G1 X110.814 Y177.193 E18.78969
G1 X109.628 Y176.918 E18.83018
G1 X109.282 Y176.828 E18.84208
G1 X108.192 Y176.519 E18.87976
G1 X107.885 Y176.425 E18.89044
G1 X106.761 Y176.053 E18.92982
G1 X106.444 Y175.94 E18.94101
G1 X105.29 Y175.499 E18.9821
G1 X104.971 Y175.369 E18.99356
G1 X103.867 Y174.887 E19.03362
G1 X103.567 Y174.748 E19.04462
G1 X102.473 Y174.211 E19.08515
G1 X102.193 Y174.066 E19.09564
G1 X101.116 Y173.479 E19.13644
G1 X100.841 Y173.321 E19.14698
G1 X99.829 Y172.712 E19.18627
G1 X99.551 Y172.537 E19.19719
G1 X98.396 Y171.77 E19.24331
G1 X97.147 Y170.871 E19.29449
G1 X96.873 Y170.663 E19.30593
G1 X95.655 Y169.69 E19.35778
G1 X95.362 Y169.442 E19.37055
G1 X94.054 Y168.281 E19.42872
G1 X93.783 Y168.029 E19.44103
G1 X92.658 Y166.925 E19.49346
G1 X92.426 Y166.687 E19.50451
G1 X91.34 Y165.521 E19.55751
G1 X91.112 Y165.264 E19.56893
G1 X90.071 Y164.037 E19.62245
G1 X89.873 Y163.793 E19.6329
G1 X88.875 Y162.51 E19.68697
G1 X88.674 Y162.239 E19.69819
G1 X87.653 Y160.795 E19.75701
G1 X87.48 Y160.54 E19.76726
G1 X86.612 Y159.197 E19.82044
G1 X86.44 Y158.916 E19.8314
G1 X85.483 Y157.28 E19.89444
G1 X85.313 Y156.974 E19.90608
G1 X84.316 Y155.068 E19.97763
G1 X84.153 Y154.738 E19.98987
G1 X83.247 Y152.774 E20.06181
G1 X83.105 Y152.445 E20.07373
G1 X82.288 Y150.422 E20.14629
G1 X82.166 Y150.096 E20.15787
G1 X81.437 Y148.014 E20.23124
G1 X81.33 Y147.685 E20.24274
G1 X80.694 Y145.554 E20.31671
G1 X80.604 Y145.226 E20.32802
G1 X80.063 Y143.053 E20.4025
G1 X79.991 Y142.732 E20.41345
G1 X79.544 Y140.522 E20.48844
G1 X79.485 Y140.192 E20.49959
G1 X79.137 Y137.953 E20.57495
G1 X79.094 Y137.626 E20.58592
G1 X78.845 Y135.366 E20.66155
G1 X78.816 Y135.043 E20.67233
G1 X78.666 Y132.77 E20.7481
G1 X78.652 Y132.445 E20.75892
G1 X78.6 Y130 E20.84026
G1 X78.602 Y74.319 E22.69221
G1 X78.614 Y73.828 E22.70855
G1 X78.633 Y73.457 E22.7209
G1 X78.706 Y72.589 E22.74988
G1 X78.764 Y72.122 E22.76553
G1 X78.818 Y71.761 E22.77767
G1 X78.906 Y71.257 E22.79468
G1 X78.977 Y70.902 E22.80673
G1 X79.081 Y70.441 E22.82244
G1 X79.173 Y70.076 E22.83496
G1 X79.31 Y69.586 E22.85189
G1 X79.56 Y68.806 E22.87913
G1 X79.865 Y67.992 E22.90804
G1 X80.004 Y67.657 E22.9201
G1 X80.35 Y66.896 E22.94791
G1 X80.57 Y66.459 E22.96418
G1 X80.751 Y66.123 E22.97687
G1 X81.18 Y65.386 E23.00524
G1 X81.442 Y64.972 E23.02153
G1 X81.653 Y64.656 E23.03417
G1 X81.926 Y64.27 E23.0499
G1 X82.142 Y63.981 E23.0619
G0 F6000 X82.457 Y64.227
G1 F1200 X82.981 Y63.57 E23.08985
G1 X83.301 Y63.199 E23.10614
G1 X83.543 Y62.933 E23.1181
G1 X83.87 Y62.591 E23.13384
G1 X84.474 Y62.006 E23.16181
G1 X84.733 Y61.772 E23.17342
G1 X85.35 Y61.251 E23.20028
G1 X85.737 Y60.949 E23.2166
G1 X86.408 Y60.466 E23.2441
G1 X86.707 Y60.266 E23.25607
G1 X87.412 Y59.83 E23.28364
G1 X87.838 Y59.589 E23.29992
G1 X88.595 Y59.199 E23.32824
G1 X88.912 Y59.049 E23.3399
G1 X89.36 Y58.851 E23.35619
G1 X89.696 Y58.713 E23.36828
G1 X90.155 Y58.538 E23.38461
G1 X90.893 Y58.286 E23.41055
G1 X91.239 Y58.181 E23.42258
G1 X91.711 Y58.051 E23.43886
G1 X92.505 Y57.864 E23.46599
G1 X92.853 Y57.795 E23.47779
G1 X93.679 Y57.66 E23.50563
G1 X94.167 Y57.6 E23.52198
G1 X94.994 Y57.531 E23.54958
G1 X95.338 Y57.514 E23.56104
G1 X96 Y57.5 E23.58306
G1 X139 Y57.5 E25.01325
G1 X139.688 Y57.515 E25.03614
G1 X140.038 Y57.533 E25.04779
G1 X140.869 Y57.604 E25.07553
G1 X141.356 Y57.665 E25.09186
G1 X142.182 Y57.802 E25.11971
G1 X142.986 Y57.975 E25.14706
G1 X143.348 Y58.066 E25.15947
G1 X143.82 Y58.199 E25.17578
G1 X144.6 Y58.451 E25.20305
G1 X145.364 Y58.738 E25.23019
G1 X145.681 Y58.869 E25.2416
G1 X146.429 Y59.21 E25.26894
G1 X146.883 Y59.439 E25.28585
G1 X147.203 Y59.611 E25.29794
G1 X147.63 Y59.855 E25.31429
G1 X148.314 Y60.28 E25.34108
G1 X148.613 Y60.48 E25.35304
G1 X149.273 Y60.957 E25.38013
G1 X149.939 Y61.489 E25.40848
G1 X150.311 Y61.811 E25.42484
G1 X150.559 Y62.037 E25.436
G1 X151.143 Y62.604 E25.46307
G1 X151.495 Y62.974 E25.48006
G1 X151.737 Y63.242 E25.49207
G1 X152.263 Y63.867 E25.51924
G1 X152.553 Y64.239 E25.53493
G1 X153.034 Y64.908 E25.56233
G1 X153.234 Y65.207 E25.5743
G1 X153.496 Y65.622 E25.59062
G1 X153.923 Y66.362 E25.61904
