;FLAVOR:Marlin
;TIME:5433
;Filament used: 2.32507m
;Layer height: 0.2
;MINX:81.2
;MINY:58.702
;MINZ:0.2
;MAXX:153.8
;MAXY:176.299
;MAXZ:3.2
;Generated with Cura_SteamEngine 5.2.2
M140 S50
M105
M190 S50
M104 S200
M105
M109 S200
M82 ;absolute extrusion mode
; Ender 3 Custom Start G-code
G92 E0 ; Reset Extruder
G28 ; Home all axes
G1 Z2.0 F3000 ; Move Z Axis up little to prevent scratching of Heat Bed
G1 X0.1 Y20 Z0.3 F5000.0 ; Move to start position
G1 X0.1 Y200.0 Z0.3 F1500.0 E15 ; Draw the first line
G1 X0.4 Y200.0 Z0.3 F5000.0 ; Move to side a little
G1 X0.4 Y20 Z0.3 F1500.0 E30 ; Draw the second line
G92 E0 ; Reset Extruder
G1 Z2.0 F3000 ; Move Z Axis up little to prevent scratching of Heat Bed
G1 X5 Y20 Z0.3 F5000.0 ; Move over to prevent blob squish
G92 E0
G92 E0
G1 F2700 E-5
;LAYER_COUNT:16
;LAYER:0
M107
G0 F6000 X101.577 Y66.848 Z0.2
;TYPE:SKIRT
G1 F2700 E0
G1 F1200 X101.801 Y66.51 E0.01349
G1 X102.143 Y66.027 E0.03317
G1 X102.504 Y65.55 E0.05307
G1 X102.895 Y65.071 E0.07363
G1 X103.277 Y64.631 E0.09301
G1 X103.506 Y64.381 E0.10429
G1 X103.8 Y64.077 E0.11835
G1 X104.285 Y63.602 E0.14093
G1 X104.837 Y63.101 E0.16573
G1 X105.3 Y62.715 E0.18578
G1 X105.987 Y62.185 E0.21464
G1 X106.456 Y61.853 E0.23375
G1 X106.739 Y61.663 E0.24509
G1 X107.274 Y61.326 E0.26612
G1 X107.782 Y61.03 E0.28567
G1 X108.298 Y60.75 E0.3052
G1 X108.684 Y60.557 E0.31955
G1 X109.3 Y60.271 E0.34214
G1 X109.965 Y59.991 E0.36614
G1 X110.531 Y59.779 E0.38624
G1 X111.1 Y59.587 E0.40621
G1 X111.69 Y59.411 E0.42669
G1 X112.055 Y59.314 E0.43925
G1 X112.714 Y59.157 E0.46178
G1 X113.243 Y59.051 E0.47973
G1 X113.905 Y58.941 E0.50205
G1 X114.293 Y58.886 E0.51508
G1 X114.921 Y58.818 E0.53609
G1 X115.446 Y58.775 E0.55361
G1 X116.169 Y58.732 E0.5777
G1 X117.397 Y58.702 E0.61856
G1 X117.742 Y58.702 E0.63003
G1 X118.656 Y58.724 E0.66044
G1 X119.027 Y58.742 E0.6728
G1 X120.001 Y58.812 E0.70527
G1 X120.806 Y58.899 E0.7322
G1 X121.583 Y59.018 E0.75835
G1 X121.94 Y59.084 E0.77042
G1 X122.741 Y59.261 E0.79771
G1 X123.179 Y59.375 E0.81276
G1 X123.913 Y59.592 E0.83822
G1 X124.277 Y59.713 E0.85098
G1 X124.981 Y59.971 E0.87592
G1 X125.401 Y60.14 E0.89097
G1 X125.783 Y60.306 E0.90483
G1 X126.477 Y60.636 E0.93039
G1 X126.878 Y60.843 E0.94539
G1 X127.201 Y61.02 E0.95764
G1 X127.877 Y61.418 E0.98374
G1 X128.187 Y61.615 E0.99595
G1 X128.678 Y61.945 E1.01563
G1 X129.176 Y62.305 E1.03607
G1 X129.493 Y62.551 E1.04941
G1 X130.018 Y62.98 E1.07196
G1 X130.315 Y63.235 E1.08498
G1 X130.769 Y63.652 E1.10549
G1 X131.279 Y64.161 E1.12945
G1 X131.743 Y64.658 E1.15207
G1 X132.008 Y64.956 E1.16533
G1 X132.403 Y65.433 E1.18593
G1 X132.759 Y65.894 E1.2053
G1 X133.122 Y66.397 E1.22593
G1 X133.46 Y66.902 E1.24614
G1 X133.78 Y67.418 E1.26634
G1 X133.951 Y67.711 E1.27762
G1 X134.234 Y68.226 E1.29717
G1 X134.509 Y68.768 E1.31738
G1 X134.765 Y69.318 E1.33756
G1 X134.92 Y69.681 E1.35069
G1 X135.17 Y70.312 E1.37326
G1 X135.313 Y70.705 E1.38717
G1 X135.492 Y71.249 E1.40622
G1 X135.665 Y71.837 E1.4266
G1 X135.811 Y72.404 E1.44608
G1 X135.95 Y73.035 E1.46757
G1 X136.054 Y73.602 E1.48674
G1 X136.146 Y74.211 E1.50723
G1 X136.187 Y74.547 E1.51848
G1 X136.243 Y75.137 E1.5382
G1 X136.281 Y75.725 E1.55779
G1 X136.299 Y76.403 E1.58035
G1 X136.3 Y87.078 E1.9354
G1 X136.312 Y87.399 E1.94609
G1 X136.401 Y87.838 E1.96099
G1 X136.606 Y88.326 E1.97859
G1 X150.276 Y106.684 E2.73987
G1 X150.668 Y107.233 E2.7623
G1 X150.891 Y107.565 E2.77561
G1 X151.155 Y107.981 E2.79199
G1 X151.351 Y108.307 E2.80464
G1 X151.772 Y109.066 E2.83351
G1 X151.995 Y109.507 E2.84995
G1 X152.162 Y109.859 E2.86291
G1 X152.362 Y110.309 E2.87929
G1 X152.682 Y111.109 E2.90794
G1 X152.815 Y111.478 E2.92099
G1 X152.97 Y111.945 E2.93736
G1 X153.086 Y112.328 E2.95067
G1 X153.217 Y112.803 E2.96705
G1 X153.413 Y113.63 E2.99532
G1 X153.493 Y114.029 E3.00886
G1 X153.631 Y114.874 E3.03733
G1 X153.692 Y115.361 E3.05366
G1 X153.731 Y115.761 E3.06703
G1 X153.786 Y116.632 E3.09605
G1 X153.8 Y117.315 E3.11877
G1 X153.798 Y129.187 E3.51364
G1 X153.769 Y130.939 E3.57192
G1 X153.653 Y133.264 E3.64934
G1 X153.498 Y135.119 E3.71126
G1 X153.254 Y137.224 E3.78174
G1 X152.891 Y139.589 E3.86132
G1 X152.549 Y141.393 E3.92239
G1 X152.022 Y143.718 E4.00168
G1 X151.558 Y145.469 E4.06193
G1 X150.96 Y147.456 E4.13095
G1 X150.288 Y149.419 E4.19996
G1 X149.551 Y151.336 E4.26826
G1 X149.434 Y151.621 E4.27851
G1 X148.617 Y153.492 E4.34642
G1 X147.871 Y155.046 E4.40375
G1 X146.906 Y156.875 E4.47253
G1 X146.239 Y158.038 E4.51712
G1 X145.661 Y158.988 E4.55411
G1 X144.943 Y160.101 E4.59816
G1 X144.039 Y161.409 E4.65104
G1 X143.418 Y162.253 E4.68589
G1 X142.616 Y163.282 E4.72929
G1 X141.596 Y164.502 E4.78218
G1 X140.763 Y165.431 E4.82368
G1 X139.855 Y166.383 E4.86743
G1 X139.123 Y167.103 E4.90158
G1 X138.198 Y167.962 E4.94357
G1 X137.018 Y168.975 E4.9953
G1 X136.215 Y169.618 E5.02951
G1 X135.235 Y170.354 E5.07027
G1 X134.191 Y171.079 E5.11255
G1 X133.141 Y171.752 E5.15403
G1 X132.878 Y171.912 E5.16427
G1 X131.786 Y172.54 E5.20617
G1 X130.682 Y173.12 E5.24765
G1 X129.545 Y173.662 E5.28954
G1 X128.404 Y174.15 E5.33081
G1 X127.539 Y174.485 E5.36167
G1 X127.227 Y174.598 E5.3727
G1 X126.354 Y174.894 E5.40336
G1 X125.173 Y175.248 E5.44437
G1 X124.852 Y175.335 E5.45543
G1 X123.654 Y175.626 E5.49644
G1 X122.765 Y175.808 E5.52662
G1 X122.426 Y175.869 E5.53807
G1 X121.202 Y176.057 E5.57926
G1 X120.309 Y176.16 E5.60916
G1 X119.073 Y176.255 E5.65039
G1 X118.735 Y176.272 E5.66165
G1 X117.838 Y176.297 E5.69149
G1 X117.486 Y176.299 E5.7032
G1 X116.561 Y176.283 E5.73397
G1 X115.361 Y176.218 E5.77394
G1 X115.02 Y176.19 E5.78532
G1 X114.126 Y176.097 E5.81522
G1 X113.794 Y176.055 E5.82635
G1 X112.546 Y175.864 E5.86834
G1 X111.684 Y175.699 E5.89753
G1 X111.347 Y175.627 E5.90899
G1 X110.154 Y175.337 E5.94983
G1 X109.276 Y175.09 E5.98016
G1 X108.09 Y174.709 E6.02159
G1 X107.768 Y174.596 E6.03294
G1 X106.805 Y174.234 E6.06716
G1 X106.455 Y174.092 E6.07972
G1 X105.398 Y173.635 E6.11803
G1 X105.045 Y173.473 E6.13094
G1 X104.002 Y172.959 E6.16962
G1 X103.678 Y172.789 E6.18179
G1 X102.648 Y172.22 E6.22093
G1 X102.317 Y172.026 E6.23369
G1 X101.305 Y171.4 E6.27326
G1 X101.017 Y171.214 E6.28467
G1 X100.023 Y170.537 E6.32467
G1 X99.73 Y170.327 E6.33666
G1 X98.754 Y169.594 E6.37725
G1 X98.487 Y169.384 E6.38855
G1 X97.535 Y168.602 E6.42953
G1 X97.278 Y168.382 E6.44078
G1 X96.348 Y167.548 E6.48233
G1 X96.096 Y167.312 E6.49381
G1 X95.091 Y166.327 E6.54062
G1 X94.836 Y166.064 E6.5528
G1 X93.755 Y164.9 E6.60564
G1 X93.499 Y164.61 E6.6185
G1 X92.462 Y163.376 E6.67211
G1 X92.236 Y163.095 E6.68411
G1 X91.24 Y161.792 E6.73866
G1 X91.028 Y161.501 E6.75063
G1 X90.081 Y160.136 E6.80589
G1 X89.893 Y159.852 E6.81721
G1 X88.992 Y158.424 E6.87337
G1 X88.814 Y158.128 E6.88486
G1 X87.966 Y156.642 E6.94177
G1 X87.805 Y156.345 E6.953
G1 X86.922 Y154.629 E7.01719
G1 X86.758 Y154.29 E7.02972
G1 X85.858 Y152.312 E7.10199
G1 X85.711 Y151.965 E7.11453
G1 X84.895 Y149.914 E7.18795
G1 X84.765 Y149.563 E7.2004
G1 X84.04 Y147.451 E7.27466
G1 X83.931 Y147.111 E7.28654
G1 X83.296 Y144.942 E7.36171
G1 X83.204 Y144.596 E7.37362
G1 X82.664 Y142.379 E7.44951
G1 X82.589 Y142.042 E7.46099
G1 X82.144 Y139.785 E7.53751
G1 X82.085 Y139.447 E7.54892
G1 X81.737 Y137.156 E7.62599
G1 X81.694 Y136.819 E7.63729
G1 X81.445 Y134.504 E7.71473
G1 X81.416 Y134.171 E7.72585
G1 X81.266 Y131.84 E7.80354
G1 X81.252 Y131.506 E7.81466
G1 X81.2 Y129.001 E7.89799
G1 X81.2 Y117.299 E8.2872
G1 X81.216 Y116.601 E8.31043
G1 X81.235 Y116.221 E8.32308
G1 X81.272 Y115.73 E8.33946
G1 X81.31 Y115.349 E8.35219
G1 X81.369 Y114.877 E8.36801
G1 X81.507 Y114.025 E8.39672
G1 X81.596 Y113.585 E8.41165
G1 X81.793 Y112.765 E8.4397
G1 X81.925 Y112.292 E8.45603
G1 X82.189 Y111.469 E8.48478
G1 X82.328 Y111.082 E8.49846
G1 X82.507 Y110.624 E8.51481
G1 X82.653 Y110.276 E8.52736
G1 X83.012 Y109.494 E8.55598
G1 X83.235 Y109.053 E8.57242
G1 X83.421 Y108.708 E8.58546
G1 X83.664 Y108.282 E8.60177
G1 X83.858 Y107.96 E8.61427
G1 X84.122 Y107.545 E8.63063
G1 X84.349 Y107.208 E8.64414
G1 X84.626 Y106.819 E8.66003
G1 X98.213 Y88.567 E9.41683
G1 X98.391 Y88.306 E9.42733
G1 X98.526 Y88.037 E9.43734
G1 X98.655 Y87.616 E9.45199
G1 X98.695 Y87.299 E9.46262
G1 X98.702 Y76.342 E9.82705
G1 X98.713 Y75.892 E9.84202
G1 X98.761 Y75.097 E9.86851
G1 X98.843 Y74.304 E9.89503
G1 X98.965 Y73.497 E9.92217
G1 X99.116 Y72.728 E9.94824
G1 X99.2 Y72.361 E9.96076
G1 X99.408 Y71.581 E9.98761
G1 X99.54 Y71.149 E10.00263
G1 X99.791 Y70.416 E10.0284
G1 X100.09 Y69.654 E10.05563
G1 X100.236 Y69.317 E10.06784
G1 X100.562 Y68.625 E10.09329
G1 X100.84 Y68.087 E10.11343
G1 X101.004 Y67.789 E10.12474
G1 X101.218 Y67.424 E10.13881
G1 X101.577 Y66.848 E10.16139
G0 F6000 X101.917 Y67.06
G1 F1200 X102.129 Y66.739 E10.17418
G1 X102.463 Y66.266 E10.19344
G1 X102.667 Y65.993 E10.20478
G1 X103.198 Y65.331 E10.233
G1 X103.572 Y64.902 E10.25193
G1 X104.08 Y64.363 E10.27657
G1 X104.565 Y63.888 E10.29915
G1 X104.847 Y63.626 E10.31195
G1 X105.293 Y63.238 E10.33161
G1 X105.729 Y62.883 E10.35031
G1 X106.22 Y62.51 E10.37082
G1 X106.679 Y62.185 E10.38952
G1 X107.196 Y61.844 E10.41012
G1 X107.484 Y61.666 E10.42138
G1 X107.981 Y61.376 E10.44052
G1 X108.487 Y61.103 E10.45965
G1 X108.853 Y60.92 E10.47326
G1 X109.469 Y60.634 E10.49584
G1 X109.803 Y60.489 E10.50796
G1 X110.35 Y60.272 E10.52753
G1 X110.903 Y60.073 E10.54708
G1 X111.225 Y59.967 E10.55835
G1 X111.801 Y59.795 E10.57834
G1 X112.148 Y59.703 E10.59028
G1 X112.807 Y59.546 E10.61282
G1 X113.309 Y59.445 E10.62985
G1 X113.971 Y59.335 E10.65217
G1 X114.339 Y59.283 E10.66453
G1 X114.954 Y59.217 E10.6851
G1 X115.663 Y59.161 E10.70876
G1 X116.462 Y59.121 E10.73536
G1 X117.732 Y59.102 E10.77761
G1 X118.646 Y59.124 E10.80802
G1 X118.998 Y59.141 E10.81974
G1 X119.972 Y59.211 E10.85222
G1 X120.311 Y59.243 E10.86354
G1 X121.075 Y59.34 E10.88916
G1 X121.519 Y59.412 E10.90412
G1 X122.3 Y59.569 E10.93061
G1 X122.64 Y59.649 E10.94223
G1 X123.366 Y59.844 E10.96723
G1 X124.142 Y60.089 E10.9943
G1 X124.566 Y60.241 E11.00928
G1 X125.251 Y60.511 E11.03377
G1 X125.614 Y60.668 E11.04692
G1 X126.293 Y60.991 E11.07193
G1 X127.001 Y61.366 E11.09858
G1 X127.662 Y61.755 E11.12409
G1 X127.972 Y61.952 E11.13631
G1 X128.453 Y62.276 E11.1556
G1 X128.939 Y62.627 E11.17553
G1 X129.24 Y62.861 E11.18822
G1 X129.765 Y63.29 E11.21077
G1 X130.298 Y63.759 E11.23438
G1 X130.734 Y64.176 E11.25445
G1 X130.987 Y64.434 E11.26646
G1 X131.451 Y64.931 E11.28908
G1 X131.702 Y65.214 E11.30166
G1 X132.088 Y65.68 E11.32179
G1 X132.437 Y66.131 E11.34075
G1 X132.638 Y66.405 E11.35206
G1 X132.982 Y66.903 E11.37219
G1 X133.302 Y67.403 E11.39193
G1 X133.605 Y67.913 E11.41166
G1 X133.882 Y68.417 E11.43079
G1 X134.151 Y68.946 E11.45053
G1 X134.401 Y69.484 E11.47026
G1 X134.548 Y69.828 E11.4827
G1 X134.798 Y70.459 E11.50528
G1 X135.042 Y71.154 E11.52977
G1 X135.278 Y71.939 E11.55704
G1 X135.421 Y72.494 E11.5761
G1 X135.557 Y73.109 E11.59705
G1 X135.659 Y73.665 E11.61585
G1 X135.749 Y74.26 E11.63587
G1 X135.79 Y74.596 E11.64712
G1 X135.845 Y75.173 E11.6664
G1 X135.881 Y75.747 E11.68553
G1 X135.899 Y76.41 E11.70759
G1 X135.9 Y87.088 E12.06274
G1 X135.914 Y87.439 E12.07443
G1 X135.989 Y87.867 E12.08888
G1 X136.103 Y88.189 E12.10024
G1 X136.267 Y88.514 E12.11235
G1 X136.474 Y88.817 E12.12455
G1 X149.955 Y106.922 E12.87532
G1 X150.342 Y107.464 E12.89748
G1 X150.553 Y107.779 E12.91009
G1 X150.817 Y108.195 E12.92647
G1 X151.003 Y108.505 E12.9385
G1 X151.415 Y109.247 E12.96673
G1 X151.638 Y109.688 E12.98316
G1 X151.796 Y110.022 E12.99545
G1 X152.131 Y110.796 E13.0235
G1 X152.309 Y111.254 E13.03985
G1 X152.435 Y111.604 E13.05222
G1 X152.59 Y112.071 E13.06858
G1 X152.701 Y112.435 E13.08124
G1 X152.832 Y112.91 E13.09763
G1 X153.023 Y113.718 E13.12524
G1 X153.099 Y114.097 E13.1381
G1 X153.234 Y114.923 E13.16594
G1 X153.295 Y115.41 E13.18226
G1 X153.332 Y115.79 E13.19496
G1 X153.386 Y116.642 E13.22335
G1 X153.4 Y117.315 E13.24574
G1 X153.398 Y129.18 E13.64038
G1 X153.361 Y131.179 E13.70687
G1 X153.271 Y132.984 E13.76698
G1 X153.074 Y135.337 E13.84552
G1 X152.822 Y137.436 E13.91583
G1 X152.498 Y139.514 E13.98578
G1 X152.156 Y141.318 E14.04685
G1 X151.635 Y143.616 E14.12522
G1 X151.171 Y145.367 E14.18547
G1 X150.577 Y147.34 E14.254
G1 X149.91 Y149.289 E14.32252
G1 X149.178 Y151.192 E14.39033
G1 X148.374 Y153.06 E14.45797
G1 X148.256 Y153.318 E14.46741
G1 X147.383 Y155.125 E14.53416
G1 X146.559 Y156.677 E14.5926
G1 X146.001 Y157.654 E14.63002
G1 X145.319 Y158.78 E14.67381
G1 X144.481 Y160.072 E14.72503
G1 X143.716 Y161.172 E14.76959
G1 X142.96 Y162.194 E14.81187
G1 X142.301 Y163.035 E14.84741
G1 X141.452 Y164.056 E14.89157
G1 X140.622 Y164.993 E14.93321
G1 X139.758 Y165.91 E14.97511
G1 X138.842 Y166.818 E15.01801
G1 X137.927 Y167.668 E15.05955
G1 X136.959 Y168.504 E15.10209
G1 X135.965 Y169.305 E15.14455
G1 X134.996 Y170.033 E15.18486
G1 X133.964 Y170.749 E15.22664
G1 X132.926 Y171.414 E15.26764
G1 X132.677 Y171.566 E15.27734
G1 X131.599 Y172.187 E15.31872
G1 X130.761 Y172.632 E15.35028
G1 X129.661 Y173.169 E15.39099
G1 X128.53 Y173.666 E15.43208
G1 X127.394 Y174.112 E15.47267
G1 X126.225 Y174.515 E15.5138
G1 X125.06 Y174.864 E15.55425
G1 X124.755 Y174.947 E15.56476
G1 X123.574 Y175.234 E15.60518
G1 X122.685 Y175.416 E15.63536
G1 X121.47 Y175.616 E15.67632
G1 X120.263 Y175.762 E15.71676
G1 X119.942 Y175.792 E15.72748
G1 X119.045 Y175.856 E15.75739
G1 X118.724 Y175.872 E15.76808
G1 X117.827 Y175.897 E15.79793
G1 X117.493 Y175.899 E15.80903
G1 X116.254 Y175.871 E15.85025
G1 X115.385 Y175.819 E15.87921
G1 X115.061 Y175.792 E15.89002
G1 X113.852 Y175.66 E15.93047
G1 X112.931 Y175.524 E15.96144
G1 X111.759 Y175.306 E16.00109
G1 X111.44 Y175.238 E16.01194
G1 X110.556 Y175.028 E16.04216
G1 X109.384 Y174.704 E16.0826
G1 X109.089 Y174.615 E16.09285
G1 X108.214 Y174.329 E16.12347
G1 X107.909 Y174.222 E16.13422
G1 X106.946 Y173.86 E16.16843
G1 X106.613 Y173.725 E16.18038
G1 X105.556 Y173.268 E16.21869
G1 X105.222 Y173.114 E16.23092
G1 X104.179 Y172.6 E16.26959
G1 X103.872 Y172.439 E16.28112
G1 X102.842 Y171.87 E16.32026
G1 X102.527 Y171.686 E16.33239
G1 X101.515 Y171.06 E16.37197
G1 X101.242 Y170.883 E16.38279
G1 X100.248 Y170.206 E16.42279
G1 X99.97 Y170.007 E16.43417
G1 X98.994 Y169.274 E16.47476
G1 X98.741 Y169.075 E16.48547
G1 X97.789 Y168.293 E16.52645
G1 X97.545 Y168.084 E16.53713
G1 X96.615 Y167.25 E16.57868
G1 X96.376 Y167.026 E16.58957
G1 X95.371 Y166.041 E16.63638
G1 X95.129 Y165.792 E16.64793
G1 X94.048 Y164.628 E16.70076
G1 X93.805 Y164.353 E16.71297
G1 X92.768 Y163.119 E16.76658
G1 X92.554 Y162.852 E16.77796
G1 X91.558 Y161.549 E16.83251
G1 X91.357 Y161.273 E16.84386
G1 X90.41 Y159.908 E16.89912
G1 X90.232 Y159.639 E16.90985
G1 X89.331 Y158.211 E16.96601
G1 X89.162 Y157.93 E16.97691
G1 X88.314 Y156.444 E17.03382
G1 X88.161 Y156.162 E17.04449
G1 X87.278 Y154.446 E17.10868
G1 X87.122 Y154.125 E17.12055
G1 X86.222 Y152.147 E17.19283
G1 X86.082 Y151.818 E17.20472
G1 X85.266 Y149.767 E17.27814
G1 X85.143 Y149.434 E17.28994
G1 X84.418 Y147.322 E17.36421
G1 X84.315 Y146.998 E17.37552
G1 X83.68 Y144.829 E17.45069
G1 X83.592 Y144.501 E17.46198
G1 X83.052 Y142.284 E17.53788
G1 X82.982 Y141.964 E17.54877
G1 X82.537 Y139.707 E17.62529
G1 X82.481 Y139.387 E17.63609
G1 X82.133 Y137.096 E17.71316
G1 X82.091 Y136.776 E17.7239
G1 X81.842 Y134.461 E17.80134
G1 X81.815 Y134.145 E17.81189
G1 X81.665 Y131.814 E17.88958
G1 X81.652 Y131.497 E17.90013
G1 X81.6 Y129.001 E17.98317
G1 X81.6 Y117.299 E18.37238
G1 X81.616 Y116.612 E18.39523
G1 X81.634 Y116.251 E18.40725
G1 X81.671 Y115.76 E18.42363
G1 X81.707 Y115.398 E18.43573
G1 X81.815 Y114.594 E18.46271
G1 X81.901 Y114.092 E18.47965
G1 X81.985 Y113.675 E18.4938
G1 X82.178 Y112.873 E18.52124
G1 X82.413 Y112.062 E18.54932
G1 X82.568 Y111.594 E18.56572
G1 X82.701 Y111.227 E18.5787
G1 X83.018 Y110.439 E18.60695
G1 X83.369 Y109.675 E18.63491
G1 X83.592 Y109.234 E18.65135
G1 X83.768 Y108.906 E18.66373
G1 X84.011 Y108.48 E18.68004
G1 X84.459 Y107.76 E18.70825
G1 X84.675 Y107.44 E18.72109
G1 X85.044 Y106.924 E18.74219
G1 X98.542 Y88.794 E19.49396
G1 X98.736 Y88.509 E19.50543
G1 X98.854 Y88.284 E19.51388
