;FLAVOR:Marlin
;TIME:6620
;Filament used: 2.88803m
;Layer height: 0.2
;MINX:81.2
;MINY:59.704
;MINZ:0.2
;MAXX:153.8
;MAXY:175.296
;MAXZ:3.2
;Generated with Cura_SteamEngine 5.2.2
M140 S50
M105
M190 S50
M104 S200
M105
M109 S200
M82 ;absolute extrusion mode
; Ender 3 Custom Start G-code
G92 E0 ; Reset Extruder
G28 ; Home all axes
G1 Z2.0 F3000 ; Move Z Axis up little to prevent scratching of Heat Bed
G1 X0.1 Y20 Z0.3 F5000.0 ; Move to start position
G1 X0.1 Y200.0 Z0.3 F1500.0 E15 ; Draw the first line
G1 X0.4 Y200.0 Z0.3 F5000.0 ; Move to side a little
G1 X0.4 Y20 Z0.3 F1500.0 E30 ; Draw the second line
G92 E0 ; Reset Extruder
G1 Z2.0 F3000 ; Move Z Axis up little to prevent scratching of Heat Bed
G1 X5 Y20 Z0.3 F5000.0 ; Move over to prevent blob squish
G92 E0
G92 E0
G1 F2700 E-5
;LAYER_COUNT:16
;LAYER:0
M107
G0 F6000 X91.589 Y73.183 Z0.2
;TYPE:SKIRT
G1 F2700 E0
G1 F1200 X92.387 Y72.2 E0.04211
G1 X93.231 Y71.226 E0.08498
G1 X94.088 Y70.296 E0.12704
G1 X94.972 Y69.4 E0.1689
G1 X95.886 Y68.53 E0.21087
G1 X96.628 Y67.865 E0.24401
G1 X97.583 Y67.06 E0.28556
G1 X98.572 Y66.284 E0.32737
G1 X99.802 Y65.393 E0.37788
G1 X100.841 Y64.701 E0.4194
G1 X101.653 Y64.198 E0.45117
G1 X102.724 Y63.583 E0.49225
G1 X103.808 Y63.011 E0.53302
G1 X104.951 Y62.463 E0.57517
G1 X106.051 Y61.987 E0.61504
G1 X107.193 Y61.544 E0.65578
G1 X108.35 Y61.147 E0.69646
G1 X108.643 Y61.054 E0.70669
G1 X109.827 Y60.712 E0.74768
G1 X111.017 Y60.42 E0.78843
G1 X111.902 Y60.236 E0.8185
G1 X113.105 Y60.03 E0.85909
G1 X114.315 Y59.873 E0.89967
G1 X115.537 Y59.767 E0.94047
G1 X116.748 Y59.711 E0.98079
G1 X117.086 Y59.704 E0.99204
G1 X118.328 Y59.713 E1.03335
G1 X119.513 Y59.77 E1.0728
G1 X120.409 Y59.845 E1.10271
G1 X120.729 Y59.879 E1.11341
G1 X121.928 Y60.035 E1.15363
G1 X122.79 Y60.178 E1.18269
G1 X123.129 Y60.242 E1.19416
G1 X124.144 Y60.457 E1.22867
G1 X124.51 Y60.544 E1.24119
G1 X125.595 Y60.829 E1.2785
G1 X125.963 Y60.935 E1.29123
G1 X127.039 Y61.275 E1.32877
G1 X127.395 Y61.397 E1.34128
G1 X128.463 Y61.792 E1.37916
G1 X128.822 Y61.936 E1.39202
G1 X129.875 Y62.386 E1.43011
G1 X130.203 Y62.535 E1.44209
G1 X131.244 Y63.038 E1.48054
G1 X131.565 Y63.202 E1.49253
G1 X132.59 Y63.757 E1.5313
G1 X132.911 Y63.94 E1.54359
G1 X133.917 Y64.548 E1.58269
G1 X134.206 Y64.732 E1.59408
G1 X135.194 Y65.39 E1.63356
G1 X135.48 Y65.59 E1.64517
G1 X136.449 Y66.3 E1.68513
G1 X136.712 Y66.502 E1.69616
G1 X137.658 Y67.259 E1.73645
G1 X137.912 Y67.471 E1.74746
G1 X138.836 Y68.277 E1.78824
G1 X139.09 Y68.508 E1.79966
G1 X140.087 Y69.458 E1.84546
G1 X140.348 Y69.719 E1.85774
G1 X141.418 Y70.84 E1.90928
G1 X141.67 Y71.117 E1.92174
G1 X142.698 Y72.303 E1.97394
G1 X142.935 Y72.59 E1.98632
G1 X143.919 Y73.841 E2.03926
G1 X144.134 Y74.128 E2.05118
G1 X145.07 Y75.438 E2.10473
G1 X145.267 Y75.727 E2.11637
G1 X146.156 Y77.097 E2.17069
G1 X146.336 Y77.388 E2.18207
G1 X147.173 Y78.811 E2.23698
G1 X147.336 Y79.101 E2.24804
G1 X148.121 Y80.576 E2.30361
G1 X148.276 Y80.885 E2.31511
G1 X149.083 Y82.578 E2.37749
G1 X149.237 Y82.922 E2.39003
G1 X150.052 Y84.869 E2.46023
G1 X150.191 Y85.225 E2.47294
G1 X150.917 Y87.23 E2.54386
G1 X151.037 Y87.588 E2.55642
G1 X151.672 Y89.648 E2.62812
G1 X151.774 Y90.01 E2.64063
G1 X152.313 Y92.114 E2.71287
G1 X152.394 Y92.461 E2.72472
G1 X152.84 Y94.605 E2.79756
G1 X152.905 Y94.961 E2.80959
G1 X153.253 Y97.135 E2.88282
G1 X153.301 Y97.49 E2.89473
G1 X153.55 Y99.688 E2.96831
G1 X153.582 Y100.038 E2.98
G1 X153.732 Y102.25 E3.05374
G1 X153.748 Y102.603 E3.06549
G1 X153.8 Y105 E3.14523
G1 X153.799 Y130.096 E3.97993
G1 X153.78 Y131.506 E4.02683
G1 X153.723 Y132.957 E4.07513
G1 X153.609 Y134.662 E4.13196
G1 X153.37 Y136.981 E4.2095
G1 X153.118 Y138.78 E4.26992
G1 X152.722 Y141.011 E4.34529
G1 X152.342 Y142.772 E4.4052
G1 X151.843 Y144.741 E4.47276
G1 X151.186 Y146.956 E4.54961
G1 X150.535 Y148.86 E4.61653
G1 X149.93 Y150.441 E4.67284
G1 X149.814 Y150.727 E4.6831
G1 X149.152 Y152.271 E4.73898
G1 X148.395 Y153.878 E4.79806
G1 X147.682 Y155.265 E4.84993
G1 X147.157 Y156.221 E4.88621
G1 X146.493 Y157.356 E4.92994
G1 X145.687 Y158.642 E4.98042
G1 X144.958 Y159.728 E5.02392
G1 X144.211 Y160.77 E5.06657
G1 X143.577 Y161.607 E5.10149
G1 X142.78 Y162.601 E5.14387
G1 X141.915 Y163.61 E5.18807
G1 X140.913 Y164.703 E5.23739
G1 X140.028 Y165.601 E5.27932
G1 X139.303 Y166.295 E5.3127
G1 X138.377 Y167.131 E5.3542
G1 X137.414 Y167.943 E5.39609
G1 X136.43 Y168.715 E5.43769
G1 X135.201 Y169.605 E5.48816
G1 X134.159 Y170.299 E5.5298
G1 X133.347 Y170.802 E5.56157
G1 X132.278 Y171.417 E5.60259
G1 X131.189 Y171.991 E5.64353
G1 X130.081 Y172.523 E5.68441
G1 X129.801 Y172.649 E5.69462
G1 X128.671 Y173.126 E5.73542
G1 X127.808 Y173.456 E5.76615
G1 X126.649 Y173.853 E5.8069
G1 X126.358 Y173.946 E5.81706
G1 X125.483 Y174.204 E5.8474
G1 X125.167 Y174.29 E5.85829
G1 X124.286 Y174.51 E5.88849
G1 X123.067 Y174.769 E5.92994
G1 X121.891 Y174.97 E5.96962
G1 X120.688 Y175.126 E6.00997
G1 X120.358 Y175.16 E6.02101
G1 X119.462 Y175.233 E6.05091
G1 X118.253 Y175.289 E6.09116
G1 X117.923 Y175.296 E6.10214
G1 X116.705 Y175.288 E6.14265
G1 X115.486 Y175.23 E6.18324
G1 X114.272 Y175.122 E6.22378
G1 X113.378 Y175.01 E6.25374
G1 X112.209 Y174.821 E6.29313
G1 X111.87 Y174.757 E6.3046
G1 X110.856 Y174.542 E6.33908
G1 X110.491 Y174.456 E6.35155
G1 X109.403 Y174.17 E6.38897
G1 X109.042 Y174.066 E6.40146
G1 X107.966 Y173.727 E6.43899
G1 X107.604 Y173.603 E6.45171
G1 X106.536 Y173.208 E6.48959
G1 X106.177 Y173.064 E6.50245
G1 X105.124 Y172.614 E6.54054
G1 X104.79 Y172.463 E6.55273
G1 X103.751 Y171.96 E6.59112
G1 X103.436 Y171.798 E6.60291
G1 X102.411 Y171.243 E6.64167
G1 X102.089 Y171.058 E6.65403
G1 X101.082 Y170.449 E6.69317
G1 X100.797 Y170.269 E6.70438
G1 X99.808 Y169.611 E6.74389
G1 X99.519 Y169.409 E6.75562
G1 X98.55 Y168.699 E6.79557
G1 X98.287 Y168.497 E6.8066
G1 X97.341 Y167.74 E6.8469
G1 X97.087 Y167.528 E6.8579
G1 X96.163 Y166.722 E6.89868
G1 X95.909 Y166.491 E6.9101
G1 X94.913 Y165.542 E6.95586
G1 X94.652 Y165.281 E6.96814
G1 X93.582 Y164.16 E7.01968
G1 X93.33 Y163.883 E7.03213
G1 X92.301 Y162.696 E7.08438
G1 X92.064 Y162.409 E7.09676
G1 X91.08 Y161.158 E7.1497
G1 X90.865 Y160.871 E7.16163
G1 X89.929 Y159.561 E7.21518
G1 X89.732 Y159.272 E7.22681
G1 X88.843 Y157.902 E7.28113
G1 X88.663 Y157.611 E7.29251
G1 X87.826 Y156.188 E7.34742
G1 X87.663 Y155.896 E7.35854
G1 X86.879 Y154.422 E7.41407
G1 X86.723 Y154.114 E7.42555
G1 X85.916 Y152.42 E7.48796
G1 X85.763 Y152.077 E7.50046
G1 X84.948 Y150.13 E7.57066
G1 X84.809 Y149.774 E7.58337
G1 X84.083 Y147.769 E7.65429
G1 X83.963 Y147.411 E7.66685
G1 X83.328 Y145.351 E7.73855
G1 X83.227 Y144.992 E7.75095
G1 X82.687 Y142.888 E7.8232
G1 X82.605 Y142.536 E7.83522
G1 X82.16 Y140.394 E7.90798
G1 X82.095 Y140.039 E7.91999
G1 X81.747 Y137.863 E7.99328
G1 X81.699 Y137.509 E8.00516
G1 X81.45 Y135.311 E8.07874
G1 X81.418 Y134.961 E8.09043
G1 X81.268 Y132.749 E8.16417
G1 X81.252 Y132.397 E8.17589
G1 X81.2 Y130.001 E8.2556
G1 X81.201 Y104.901 E9.09043
G1 X81.221 Y103.451 E9.13866
G1 X81.277 Y102.043 E9.18552
G1 X81.391 Y100.337 E9.24239
G1 X81.596 Y98.302 E9.31042
G1 X81.882 Y96.221 E9.38029
G1 X82.223 Y94.271 E9.44613
G1 X82.659 Y92.228 E9.51561
G1 X82.727 Y91.937 E9.52555
G1 X83.157 Y90.26 E9.58313
G1 X83.723 Y88.331 E9.64999
G1 X84.363 Y86.425 E9.71686
G1 X85.072 Y84.557 E9.78332
G1 X85.187 Y84.273 E9.79351
G1 X85.97 Y82.46 E9.85919
G1 X86.719 Y80.892 E9.91699
G1 X87.321 Y79.731 E9.96049
G1 X87.864 Y78.744 E9.99796
G1 X88.508 Y77.644 E10.04035
G1 X89.19 Y76.549 E10.08326
G1 X90.042 Y75.272 E10.13432
G1 X90.821 Y74.187 E10.17874
G1 X91.589 Y73.183 E10.22078
G0 F6000 X91.774 Y73.595
G1 F1200 X92.533 Y72.65 E10.2611
G1 X93.526 Y71.496 E10.31173
G1 X94.194 Y70.765 E10.34467
G1 X95.083 Y69.853 E10.38703
G1 X96.153 Y68.828 E10.43631
G1 X96.895 Y68.163 E10.46945
G1 X98.045 Y67.201 E10.51932
G1 X99.019 Y66.448 E10.56027
G1 X99.805 Y65.878 E10.59256
G1 X101.052 Y65.041 E10.64251
G1 X102.1 Y64.398 E10.68341
G1 X103.158 Y63.801 E10.72381
G1 X104.25 Y63.237 E10.76469
G1 X105.122 Y62.824 E10.79678
G1 X106.208 Y62.354 E10.83614
G1 X106.475 Y62.246 E10.84572
G1 X107.608 Y61.819 E10.88599
G1 X108.756 Y61.437 E10.92623
G1 X109.632 Y61.179 E10.9566
G1 X110.806 Y60.879 E10.99691
G1 X111.984 Y60.628 E11.03697
G1 X112.279 Y60.573 E11.04695
G1 X113.47 Y60.381 E11.08707
G1 X114.674 Y60.238 E11.1274
G1 X115.569 Y60.165 E11.15726
G1 X116.764 Y60.11 E11.19705
G1 X118.011 Y60.106 E11.23853
G1 X119.178 Y60.15 E11.27737
G1 X120.375 Y60.244 E11.3173
G1 X120.679 Y60.276 E11.32747
G1 X121.862 Y60.43 E11.36715
G1 X122.724 Y60.573 E11.39621
G1 X123.046 Y60.634 E11.40711
G1 X124.061 Y60.849 E11.44162
G1 X124.408 Y60.931 E11.45348
G1 X125.493 Y61.216 E11.49079
G1 X125.843 Y61.317 E11.50291
G1 X126.919 Y61.657 E11.54044
G1 X127.256 Y61.772 E11.55228
G1 X128.324 Y62.167 E11.59016
G1 X128.665 Y62.303 E11.60237
G1 X129.718 Y62.753 E11.64045
G1 X130.029 Y62.895 E11.65182
G1 X131.07 Y63.398 E11.69028
G1 X131.374 Y63.554 E11.70164
G1 X132.399 Y64.109 E11.74041
G1 X132.704 Y64.283 E11.75209
G1 X133.71 Y64.891 E11.79119
G1 X133.984 Y65.065 E11.80198
G1 X134.972 Y65.723 E11.84146
G1 X135.244 Y65.913 E11.8525
G1 X136.213 Y66.623 E11.89245
G1 X136.462 Y66.814 E11.90289
G1 X137.408 Y67.571 E11.94319
G1 X137.649 Y67.772 E11.95363
G1 X138.573 Y68.578 E11.99441
G1 X138.814 Y68.798 E12.00526
G1 X139.811 Y69.748 E12.05106
G1 X140.059 Y69.996 E12.06273
G1 X141.129 Y71.117 E12.11427
G1 X141.368 Y71.379 E12.12607
G1 X142.396 Y72.565 E12.17827
G1 X142.62 Y72.837 E12.18999
G1 X143.604 Y74.088 E12.24293
G1 X143.809 Y74.361 E12.25428
G1 X144.745 Y75.671 E12.30783
G1 X144.932 Y75.945 E12.31887
G1 X145.821 Y77.315 E12.37318
G1 X145.991 Y77.591 E12.38397
G1 X146.828 Y79.014 E12.43888
G1 X146.982 Y79.289 E12.44936
G1 X147.767 Y80.764 E12.50493
G1 X147.915 Y81.057 E12.51585
G1 X148.722 Y82.75 E12.57823
G1 X148.868 Y83.077 E12.59014
G1 X149.683 Y85.024 E12.66034
G1 X149.815 Y85.362 E12.67241
G1 X150.541 Y87.367 E12.74334
G1 X150.655 Y87.706 E12.75523
G1 X151.29 Y89.766 E12.82693
G1 X151.387 Y90.11 E12.83882
G1 X151.926 Y92.214 E12.91105
G1 X152.002 Y92.543 E12.92229
G1 X152.448 Y94.687 E12.99512
G1 X152.51 Y95.024 E13.00652
G1 X152.858 Y97.198 E13.07975
G1 X152.904 Y97.535 E13.09106
G1 X153.153 Y99.733 E13.16463
G1 X153.183 Y100.065 E13.17572
G1 X153.333 Y102.277 E13.24946
G1 X153.348 Y102.612 E13.26061
G1 X153.4 Y105 E13.34006
G1 X153.399 Y130.091 E14.17459
G1 X153.38 Y131.491 E14.22116
G1 X153.324 Y132.931 E14.26909
G1 X153.21 Y134.636 E14.32592
G1 X153.006 Y136.657 E14.39348
G1 X152.679 Y138.991 E14.47187
G1 X152.331 Y140.927 E14.53729
G1 X151.951 Y142.688 E14.59721
G1 X151.455 Y144.642 E14.66426
G1 X150.893 Y146.557 E14.73064
G1 X150.259 Y148.446 E14.79692
G1 X149.556 Y150.298 E14.8628
G1 X149.446 Y150.569 E14.87253
G1 X148.667 Y152.372 E14.93786
G1 X147.927 Y153.922 E14.99498
G1 X147.423 Y154.9 E15.03158
G1 X146.698 Y156.218 E15.08161
G1 X146.04 Y157.331 E15.12461
G1 X145.354 Y158.42 E15.16742
G1 X144.632 Y159.496 E15.21052
G1 X144.018 Y160.357 E15.24569
G1 X143.121 Y161.541 E15.2951
G1 X142.469 Y162.35 E15.32965
G1 X141.474 Y163.504 E15.38033
G1 X140.807 Y164.234 E15.41322
G1 X139.751 Y165.312 E15.46341
G1 X139.026 Y166.006 E15.49679
G1 X138.11 Y166.833 E15.53784
G1 X137.157 Y167.636 E15.57929
G1 X135.98 Y168.553 E15.62891
G1 X135.195 Y169.122 E15.66116
G1 X134.177 Y169.811 E15.70205
G1 X133.136 Y170.462 E15.74288
G1 X132.08 Y171.069 E15.78339
G1 X131.004 Y171.636 E15.82385
G1 X129.91 Y172.161 E15.86421
G1 X129.644 Y172.281 E15.87391
G1 X128.528 Y172.752 E15.9142
G1 X127.391 Y173.181 E15.95462
G1 X126.521 Y173.475 E15.98516
G1 X125.37 Y173.82 E16.02513
G1 X125.07 Y173.902 E16.03547
G1 X124.189 Y174.122 E16.06568
G1 X122.986 Y174.377 E16.10658
G1 X122.689 Y174.433 E16.11663
G1 X121.825 Y174.576 E16.14576
G1 X120.639 Y174.729 E16.18553
G1 X120.326 Y174.762 E16.196
G1 X119.43 Y174.835 E16.2259
G1 X118.237 Y174.89 E16.26562
G1 X117.027 Y174.895 E16.30586
G1 X115.824 Y174.85 E16.3459
G1 X115.519 Y174.831 E16.35607
G1 X114.322 Y174.725 E16.39604
G1 X113.428 Y174.613 E16.426
G1 X112.274 Y174.427 E16.46488
G1 X111.953 Y174.366 E16.47575
G1 X110.939 Y174.151 E16.51022
G1 X110.593 Y174.069 E16.52205
G1 X109.505 Y173.783 E16.55947
G1 X109.162 Y173.684 E16.57134
G1 X108.086 Y173.345 E16.60886
G1 X107.743 Y173.228 E16.62092
G1 X106.675 Y172.833 E16.65879
G1 X106.334 Y172.697 E16.671
G1 X105.281 Y172.247 E16.70909
G1 X104.965 Y172.103 E16.72064
G1 X103.926 Y171.6 E16.75903
G1 X103.627 Y171.446 E16.77022
G1 X102.602 Y170.891 E16.80899
G1 X102.296 Y170.716 E16.82071
G1 X101.289 Y170.107 E16.85985
G1 X101.019 Y169.936 E16.87048
G1 X100.03 Y169.278 E16.90999
G1 X99.755 Y169.086 E16.92115
G1 X98.786 Y168.376 E16.9611
G1 X98.537 Y168.185 E16.97154
G1 X97.591 Y167.428 E17.01184
G1 X97.35 Y167.227 E17.02227
G1 X96.426 Y166.421 E17.06306
G1 X96.185 Y166.201 E17.07391
G1 X95.189 Y165.252 E17.11967
G1 X94.941 Y165.004 E17.13133
G1 X93.871 Y163.883 E17.18287
G1 X93.633 Y163.621 E17.19465
G1 X92.604 Y162.434 E17.2469
G1 X92.379 Y162.162 E17.25864
G1 X91.395 Y160.911 E17.31157
G1 X91.19 Y160.638 E17.32293
G1 X90.254 Y159.328 E17.37648
G1 X90.067 Y159.054 E17.38751
G1 X89.178 Y157.684 E17.44183
G1 X89.008 Y157.408 E17.45261
G1 X88.171 Y155.985 E17.50752
G1 X88.016 Y155.708 E17.51808
G1 X87.232 Y154.234 E17.57361
G1 X87.084 Y153.942 E17.5845
G1 X86.277 Y152.248 E17.64691
G1 X86.132 Y151.922 E17.65877
G1 X85.317 Y149.975 E17.72898
G1 X85.185 Y149.637 E17.74104
G1 X84.459 Y147.632 E17.81197
G1 X84.345 Y147.293 E17.82386
G1 X83.71 Y145.233 E17.89556
G1 X83.614 Y144.893 E17.90731
G1 X83.074 Y142.789 E17.97956
G1 X82.997 Y142.454 E17.99099
G1 X82.552 Y140.312 E18.06376
G1 X82.49 Y139.976 E18.07512
G1 X82.142 Y137.8 E18.14841
G1 X82.096 Y137.464 E18.15969
G1 X81.847 Y135.266 E18.23327
G1 X81.817 Y134.934 E18.24435
G1 X81.667 Y132.722 E18.31809
G1 X81.652 Y132.388 E18.32921
G1 X81.6 Y130.001 E18.40863
G1 X81.601 Y104.906 E19.24329
G1 X81.621 Y103.466 E19.29119
G1 X81.676 Y102.07 E19.33765
G1 X81.79 Y100.364 E19.39452
G1 X82.026 Y98.076 E19.47103
G1 X82.278 Y96.276 E19.53148
G1 X82.617 Y94.341 E19.59682
G1 X83.05 Y92.312 E19.66582
G1 X83.545 Y90.359 E19.73283
G1 X84.107 Y88.444 E19.79921
G1 X84.194 Y88.171 E19.80874
G1 X84.839 Y86.283 E19.8751
G1 X85.445 Y84.7 E19.93148
G1 X86.216 Y82.888 E19.99697
G1 X86.332 Y82.631 E20.00635
G1 X87.074 Y81.075 E20.06369
G1 X87.578 Y80.098 E20.10025
G1 X88.214 Y78.937 E20.14428
G1 X88.852 Y77.847 E20.18629
G1 X89.529 Y76.761 E20.22885
G1 X90.368 Y75.504 E20.27912
G1 X91.139 Y74.429 E20.32312
G1 X91.774 Y73.595 E20.35798
G0 F6000 X92.212 Y73.685
G1 F1200 X92.844 Y72.901 E20.39147
G1 X93.822 Y71.766 E20.44131
G1 X94.659 Y70.856 E20.48243
G1 X95.525 Y69.977 E20.52347
G1 X96.251 Y69.282 E20.5569
G1 X97.162 Y68.461 E20.59769
G1 X98.096 Y67.674 E20.63831
G1 X99.063 Y66.915 E20.6792
G1 X100.04 Y66.202 E20.71942
G1 X101.048 Y65.52 E20.7599
G1 X102.075 Y64.878 E20.80019
G1 X103.12 Y64.278 E20.84026
G1 X104.178 Y63.72 E20.88005
G1 X105.539 Y63.075 E20.93014
G1 X106.617 Y62.62 E20.96906
G1 X107.736 Y62.198 E21.00884
G1 X108.606 Y61.904 E21.03938
G1 X109.745 Y61.563 E21.07892
G1 X110.904 Y61.267 E21.11871
G1 X111.18 Y61.204 E21.12813
G1 X112.344 Y60.967 E21.16763
G1 X113.519 Y60.778 E21.20722
G1 X114.413 Y60.667 E21.23718
G1 X115.602 Y60.564 E21.27687
G1 X116.781 Y60.51 E21.31613
G1 X117.084 Y60.504 E21.32621
G1 X118.293 Y60.512 E21.36642
G1 X119.446 Y60.567 E21.40481
G1 X120.629 Y60.672 E21.44432
G1 X121.797 Y60.824 E21.48349
G1 X122.659 Y60.967 E21.51255
G1 X123.979 Y61.24 E21.55739
G1 X124.306 Y61.318 E21.56857
G1 X125.391 Y61.603 E21.60588
G1 X125.722 Y61.698 E21.61733
G1 X126.798 Y62.038 E21.65486
G1 X127.117 Y62.148 E21.66609
G1 X128.185 Y62.543 E21.70396
G1 X128.508 Y62.671 E21.71552
G1 X129.561 Y63.121 E21.7536
G1 X129.855 Y63.255 E21.76435
G1 X130.896 Y63.758 E21.8028
G1 X131.184 Y63.905 E21.81356
G1 X132.209 Y64.46 E21.85233
G1 X132.497 Y64.625 E21.86337
G1 X133.503 Y65.233 E21.90246
G1 X134.75 Y66.056 E21.95216
G1 X135.007 Y66.235 E21.96257
G1 X136.213 Y67.126 E22.01244
G1 X137.159 Y67.883 E22.05274
