;FLAVOR:Marlin
;TIME:5262
;Filament used: 3.85523m
;Layer height: 0.2
;MINX:74
;MINY:56.5
;MINZ:0.2
;MAXX:161
;MAXY:178.5
;MAXZ:3
;Generated with Cura_SteamEngine 5.2.2
M140 S50
M105
M190 S50
M104 S200
M105
M109 S200
M82 ;absolute extrusion mode
; Ender 3 Custom Start G-code
G92 E0 ; Reset Extruder
G28 ; Home all axes
G1 Z2.0 F3000 ; Move Z Axis up little to prevent scratching of Heat Bed
G1 X0.1 Y20 Z0.3 F5000.0 ; Move to start position
G1 X0.1 Y200.0 Z0.3 F1500.0 E15 ; Draw the first line
G1 X0.4 Y200.0 Z0.3 F5000.0 ; Move to side a little
G1 X0.4 Y20 Z0.3 F1500.0 E30 ; Draw the second line
G92 E0 ; Reset Extruder
G1 Z2.0 F3000 ; Move Z Axis up little to prevent scratching of Heat Bed
G1 X5 Y20 Z0.3 F5000.0 ; Move over to prevent blob squish
G92 E0
G92 E0
G1 F2700 E-5
;LAYER_COUNT:15
;LAYER:0
M107
G0 F6000 X79.495 Y65.229 Z0.2
;TYPE:SKIRT
G1 F2700 E0
G1 F1200 X79.86 Y64.798 E0.01878
G1 X80.297 Y64.308 E0.04062
G1 X80.656 Y63.924 E0.05811
G1 X81.085 Y63.487 E0.07847
G1 X81.461 Y63.122 E0.0959
G1 X81.961 Y62.659 E0.11857
G1 X82.368 Y62.3 E0.13662
G1 X82.807 Y61.932 E0.15567
G1 X83.226 Y61.598 E0.17349
G1 X83.777 Y61.18 E0.1965
G1 X84.218 Y60.862 E0.21458
G1 X84.714 Y60.523 E0.23456
G1 X85.177 Y60.224 E0.25289
G1 X85.765 Y59.864 E0.27582
G1 X86.199 Y59.611 E0.29253
G1 X86.678 Y59.347 E0.31072
G1 X87.154 Y59.1 E0.32856
G1 X87.759 Y58.804 E0.35096
G1 X88.274 Y58.568 E0.3698
G1 X88.883 Y58.308 E0.39183
G1 X89.379 Y58.111 E0.40958
G1 X89.951 Y57.899 E0.42987
G1 X90.482 Y57.717 E0.44854
G1 X91.11 Y57.52 E0.47043
G1 X91.625 Y57.372 E0.48825
G1 X92.269 Y57.204 E0.51039
G1 X92.789 Y57.082 E0.52815
G1 X93.39 Y56.956 E0.54858
G1 X93.915 Y56.859 E0.56633
G1 X94.542 Y56.759 E0.58745
G1 X95.086 Y56.686 E0.60571
G1 X95.721 Y56.617 E0.62695
G1 X96.239 Y56.573 E0.64424
G1 X96.878 Y56.534 E0.66553
G1 X97.4 Y56.515 E0.68291
G1 X98.589 Y56.5 E0.72246
G1 X136.392 Y56.5 E1.97979
G1 X137.436 Y56.513 E2.01452
G1 X138.3 Y56.544 E2.04327
G1 X138.813 Y56.578 E2.06037
G1 X139.447 Y56.634 E2.08154
G1 X139.999 Y56.697 E2.10002
G1 X140.601 Y56.781 E2.12024
G1 X141.12 Y56.866 E2.13773
G1 X141.756 Y56.986 E2.15925
G1 X142.296 Y57.102 E2.17763
G1 X142.947 Y57.259 E2.1999
G1 X143.461 Y57.396 E2.21759
G1 X144.048 Y57.568 E2.23794
G1 X144.559 Y57.731 E2.25578
G1 X145.179 Y57.946 E2.2776
G1 X145.697 Y58.141 E2.29601
G1 X146.271 Y58.373 E2.3166
G1 X146.744 Y58.576 E2.33372
G1 X147.29 Y58.827 E2.35371
G1 X147.779 Y59.067 E2.37183
G1 X148.393 Y59.387 E2.39485
G1 X148.895 Y59.666 E2.41396
G1 X149.431 Y59.982 E2.43465
G1 X149.848 Y60.24 E2.45096
G1 X150.387 Y60.591 E2.47235
G1 X150.86 Y60.917 E2.49146
G1 X151.379 Y61.295 E2.51282
G1 X151.809 Y61.625 E2.53084
G1 X152.29 Y62.013 E2.5514
G1 X152.695 Y62.356 E2.56905
G1 X153.193 Y62.799 E2.59122
G1 X153.589 Y63.17 E2.60927
G1 X154.035 Y63.608 E2.63006
G1 X154.399 Y63.982 E2.64742
G1 X154.825 Y64.442 E2.66827
G1 X155.196 Y64.864 E2.68696
G1 X155.607 Y65.356 E2.70828
G1 X155.922 Y65.752 E2.72511
G1 X156.261 Y66.198 E2.74374
G1 X156.558 Y66.607 E2.76056
G1 X156.954 Y67.181 E2.78375
G1 X157.286 Y67.693 E2.80404
G1 X157.641 Y68.274 E2.82669
G1 X157.912 Y68.742 E2.84468
G1 X158.212 Y69.292 E2.86552
G1 X158.445 Y69.744 E2.88243
G1 X158.703 Y70.274 E2.90203
G1 X158.925 Y70.76 E2.91981
G1 X159.187 Y71.372 E2.94195
G1 X159.394 Y71.89 E2.9605
G1 X159.606 Y72.464 E2.98085
G1 X159.777 Y72.964 E2.99843
G1 X159.973 Y73.585 E3.02009
G1 X160.129 Y74.128 E3.03888
G1 X160.298 Y74.778 E3.06122
G1 X160.418 Y75.289 E3.07867
G1 X160.544 Y75.89 E3.0991
G1 X160.641 Y76.417 E3.11692
G1 X160.741 Y77.045 E3.13807
G1 X160.813 Y77.585 E3.15619
G1 X160.882 Y78.219 E3.1774
G1 X160.927 Y78.738 E3.19473
G1 X160.966 Y79.376 E3.21599
G1 X160.985 Y79.899 E3.23339
G1 X161 Y81.089 E3.27298
G1 X160.999 Y154.034 E5.69914
G1 X160.98 Y155.212 E5.73832
G1 X160.957 Y155.775 E5.75706
G1 X160.924 Y156.292 E5.7743
G1 X160.866 Y156.95 E5.79627
G1 X160.803 Y157.499 E5.81464
G1 X160.72 Y158.096 E5.83469
G1 X160.636 Y158.613 E5.85211
G1 X160.517 Y159.246 E5.87354
G1 X160.402 Y159.784 E5.89183
G1 X160.247 Y160.429 E5.9139
G1 X160.107 Y160.951 E5.93187
G1 X159.933 Y161.545 E5.95246
G1 X159.772 Y162.051 E5.97012
G1 X159.565 Y162.649 E5.99117
G1 X159.378 Y163.148 E6.00889
G1 X159.142 Y163.736 E6.02997
G1 X158.918 Y164.257 E6.04883
G1 X158.646 Y164.845 E6.07038
G1 X158.42 Y165.304 E6.08739
G1 X158.15 Y165.823 E6.10685
G1 X157.902 Y166.275 E6.124
G1 X157.559 Y166.865 E6.1467
G1 X157.251 Y167.363 E6.16617
G1 X156.896 Y167.905 E6.18772
G1 X156.6 Y168.334 E6.20506
G1 X156.218 Y168.861 E6.22671
G1 X155.876 Y169.308 E6.24543
G1 X155.477 Y169.803 E6.26657
G1 X155.112 Y170.233 E6.28533
G1 X154.68 Y170.716 E6.30688
G1 X154.33 Y171.09 E6.32392
G1 X153.896 Y171.532 E6.34452
G1 X153.523 Y171.894 E6.36181
G1 X153.06 Y172.323 E6.38281
G1 X152.636 Y172.696 E6.40159
G1 X152.144 Y173.107 E6.42291
G1 X151.725 Y173.44 E6.44071
G1 X151.209 Y173.83 E6.46222
G1 X150.785 Y174.135 E6.4796
G1 X150.279 Y174.481 E6.49998
G1 X149.808 Y174.786 E6.51865
G1 X149.229 Y175.14 E6.54122
G1 X148.765 Y175.408 E6.55904
G1 X148.225 Y175.703 E6.57951
G1 X147.768 Y175.939 E6.59661
G1 X147.224 Y176.204 E6.61674
G1 X146.726 Y176.432 E6.63496
G1 X146.117 Y176.692 E6.65698
G1 X145.621 Y176.889 E6.67473
G1 X145.049 Y177.101 E6.69502
G1 X144.537 Y177.277 E6.71303
G1 X143.916 Y177.473 E6.73469
G1 X143.369 Y177.63 E6.75362
G1 X142.718 Y177.799 E6.77599
G1 X142.211 Y177.918 E6.79331
G1 X141.61 Y178.044 E6.81373
G1 X141.088 Y178.14 E6.83138
G1 X140.462 Y178.24 E6.85247
G1 X139.913 Y178.314 E6.87089
G1 X139.277 Y178.383 E6.89217
G1 X138.761 Y178.427 E6.9094
G1 X138.122 Y178.466 E6.93069
G1 X137.6 Y178.485 E6.94806
G1 X136.411 Y178.5 E6.98761
G1 X98.461 Y178.499 E8.24983
G1 X97.259 Y178.479 E8.28982
G1 X96.701 Y178.456 E8.30839
G1 X96.185 Y178.422 E8.32559
G1 X95.552 Y178.366 E8.34673
G1 X94.987 Y178.302 E8.36564
G1 X94.362 Y178.214 E8.38663
G1 X93.863 Y178.131 E8.40346
G1 X93.241 Y178.014 E8.42451
G1 X92.696 Y177.898 E8.44304
G1 X92.078 Y177.749 E8.46418
G1 X91.554 Y177.609 E8.48222
G1 X90.911 Y177.42 E8.50452
G1 X90.402 Y177.256 E8.5223
G1 X89.815 Y177.052 E8.54297
G1 X89.3 Y176.859 E8.56126
G1 X88.739 Y176.632 E8.58139
G1 X88.234 Y176.413 E8.5997
G1 X87.592 Y176.115 E8.62324
G1 X87.114 Y175.879 E8.64097
G1 X86.582 Y175.6 E8.66095
G1 X86.112 Y175.338 E8.67885
G1 X85.575 Y175.022 E8.69957
G1 X85.139 Y174.752 E8.71663
G1 X84.597 Y174.398 E8.73816
G1 X84.142 Y174.084 E8.75655
G1 X83.625 Y173.708 E8.77781
G1 X83.192 Y173.376 E8.79596
G1 X82.697 Y172.977 E8.8171
G1 X82.266 Y172.611 E8.83591
G1 X81.782 Y172.178 E8.85751
G1 X81.402 Y171.822 E8.87483
G1 X80.973 Y171.4 E8.89484
G1 X80.616 Y171.031 E8.91192
G1 X80.166 Y170.545 E8.93395
G1 X79.804 Y170.134 E8.95217
G1 X79.397 Y169.648 E8.97325
G1 X79.055 Y169.219 E8.9915
G1 X78.668 Y168.707 E9.01284
G1 X78.361 Y168.281 E9.03031
G1 X78.022 Y167.785 E9.05029
G1 X77.72 Y167.317 E9.06882
G1 X77.361 Y166.73 E9.0917
G1 X77.107 Y166.292 E9.10854
G1 X76.843 Y165.812 E9.12676
G1 X76.6 Y165.345 E9.14427
G1 X76.304 Y164.74 E9.16667
G1 X76.071 Y164.231 E9.18529
G1 X75.811 Y163.623 E9.20729
G1 X75.612 Y163.125 E9.22512
G1 X75.399 Y162.551 E9.24549
G1 X75.218 Y162.02 E9.26415
G1 X75.022 Y161.396 E9.2859
G1 X74.87 Y160.867 E9.30421
G1 X74.7 Y160.213 E9.32668
G1 X74.583 Y159.719 E9.34357
G1 X74.458 Y159.127 E9.36369
G1 X74.355 Y158.564 E9.38273
G1 X74.256 Y157.935 E9.4039
G1 X74.187 Y157.415 E9.42135
G1 X74.118 Y156.781 E9.44256
G1 X74.073 Y156.261 E9.45992
G1 X74.034 Y155.622 E9.48122
G1 X74.015 Y155.1 E9.49859
G1 X74 Y153.911 E9.53814
G1 X74.001 Y80.949 E11.96486
G1 X74.019 Y79.796 E12.00322
G1 X74.04 Y79.259 E12.02109
G1 X74.076 Y78.711 E12.03936
G1 X74.135 Y78.05 E12.06143
G1 X74.195 Y77.519 E12.0792
G1 X74.281 Y76.898 E12.10006
G1 X74.363 Y76.39 E12.11717
G1 X74.479 Y75.768 E12.13821
G1 X74.6 Y75.203 E12.15743
G1 X74.748 Y74.59 E12.17841
G1 X74.882 Y74.089 E12.19566
G1 X75.07 Y73.445 E12.21797
G1 X75.243 Y72.903 E12.23689
G1 X75.451 Y72.307 E12.25789
G1 X75.641 Y71.803 E12.2758
G1 X75.886 Y71.198 E12.29751
G1 X76.096 Y70.715 E12.31503
G1 X76.35 Y70.165 E12.33518
G1 X76.575 Y69.705 E12.35221
G1 X76.866 Y69.145 E12.3732
G1 X77.144 Y68.643 E12.39229
G1 X77.479 Y68.073 E12.41428
G1 X77.753 Y67.631 E12.43157
G1 X78.096 Y67.106 E12.45243
G1 X78.401 Y66.663 E12.47032
G1 X78.784 Y66.135 E12.49202
G1 X79.114 Y65.703 E12.5101
G1 X79.495 Y65.229 E12.53032
G0 F6000 X79.807 Y65.479
G1 F1200 X80.158 Y65.065 E12.54838
G1 X80.595 Y64.575 E12.57021
G1 X80.942 Y64.204 E12.58711
G1 X81.371 Y63.767 E12.60748
G1 X81.733 Y63.415 E12.62427
G1 X82.233 Y62.952 E12.64694
G1 X82.625 Y62.607 E12.6643
G1 X83.064 Y62.239 E12.68336
G1 X83.468 Y61.917 E12.70054
G1 X84.019 Y61.499 E12.72354
G1 X84.444 Y61.193 E12.74096
G1 X84.94 Y60.854 E12.76094
G1 X85.386 Y60.565 E12.77862
G1 X85.974 Y60.205 E12.80155
G1 X86.392 Y59.962 E12.81763
G1 X86.871 Y59.698 E12.83582
G1 X87.33 Y59.46 E12.85302
G1 X87.935 Y59.164 E12.87542
G1 X88.431 Y58.936 E12.89358
G1 X89.04 Y58.676 E12.9156
G1 X89.518 Y58.486 E12.93271
G1 X90.09 Y58.274 E12.953
G1 X90.601 Y58.099 E12.97096
G1 X91.229 Y57.902 E12.99286
G1 X91.726 Y57.759 E13.01006
G1 X92.37 Y57.591 E13.03219
G1 X92.871 Y57.474 E13.0493
G1 X93.472 Y57.348 E13.06973
G1 X93.978 Y57.254 E13.08685
G1 X94.605 Y57.154 E13.10796
G1 X95.129 Y57.084 E13.12555
G1 X95.764 Y57.015 E13.14679
G1 X96.263 Y56.973 E13.16345
G1 X96.902 Y56.934 E13.18474
G1 X97.405 Y56.915 E13.20148
G1 X98.589 Y56.9 E13.24086
G1 X136.392 Y56.9 E14.4982
G1 X137.431 Y56.913 E14.53276
G1 X138.283 Y56.944 E14.56111
G1 X138.778 Y56.976 E14.57761
G1 X139.412 Y57.032 E14.59878
G1 X139.944 Y57.093 E14.61659
G1 X140.546 Y57.177 E14.63681
G1 X141.046 Y57.259 E14.65366
G1 X141.682 Y57.379 E14.67519
G1 X142.202 Y57.49 E14.69287
G1 X142.853 Y57.647 E14.71514
G1 X143.349 Y57.78 E14.73222
G1 X143.936 Y57.952 E14.75257
G1 X144.428 Y58.109 E14.76975
G1 X145.048 Y58.324 E14.79157
G1 X145.547 Y58.511 E14.8093
G1 X146.121 Y58.743 E14.82989
G1 X146.576 Y58.94 E14.84638
G1 X147.122 Y59.191 E14.86637
G1 X147.594 Y59.422 E14.88384
G1 X148.208 Y59.742 E14.90687
G1 X148.692 Y60.011 E14.92529
G1 X149.228 Y60.327 E14.94598
G1 X149.629 Y60.575 E14.96167
G1 X150.168 Y60.926 E14.98306
G1 X150.625 Y61.241 E15.00152
G1 X151.144 Y61.619 E15.02288
G1 X151.558 Y61.937 E15.04024
G1 X152.039 Y62.325 E15.06079
G1 X152.429 Y62.655 E15.07779
G1 X152.927 Y63.098 E15.09995
G1 X153.309 Y63.455 E15.11734
G1 X153.755 Y63.893 E15.13814
G1 X154.105 Y64.254 E15.15486
G1 X154.531 Y64.714 E15.17571
G1 X154.889 Y65.12 E15.19372
G1 X155.3 Y65.612 E15.21504
G1 X155.604 Y65.994 E15.23128
G1 X155.943 Y66.44 E15.24991
G1 X156.229 Y66.835 E15.26613
G1 X156.625 Y67.409 E15.28932
G1 X156.945 Y67.901 E15.30884
G1 X157.3 Y68.482 E15.33149
G1 X157.561 Y68.933 E15.34882
G1 X157.861 Y69.483 E15.36966
G1 X158.086 Y69.92 E15.386
G1 X158.344 Y70.45 E15.40561
G1 X158.558 Y70.917 E15.4227
G1 X158.82 Y71.529 E15.44484
G1 X159.018 Y72.028 E15.46269
G1 X159.23 Y72.602 E15.48305
G1 X159.395 Y73.085 E15.50002
G1 X159.591 Y73.706 E15.52168
G1 X159.742 Y74.229 E15.53979
G1 X159.911 Y74.879 E15.56212
G1 X160.026 Y75.371 E15.57893
G1 X160.152 Y75.972 E15.59935
G1 X160.246 Y76.48 E15.61654
G1 X160.346 Y77.108 E15.63769
G1 X160.416 Y77.628 E15.65514
G1 X160.485 Y78.262 E15.67635
G1 X160.527 Y78.762 E15.69304
G1 X160.566 Y79.4 E15.7143
G1 X160.585 Y79.905 E15.73111
G1 X160.6 Y81.089 E15.77049
G1 X160.599 Y154.029 E18.19648
G1 X160.588 Y154.897 E18.22536
G1 X160.557 Y155.759 E18.25404
G1 X160.525 Y156.257 E18.27064
G1 X160.467 Y156.915 E18.29261
G1 X160.407 Y157.444 E18.31032
G1 X160.324 Y158.041 E18.33037
G1 X160.243 Y158.539 E18.34715
G1 X160.124 Y159.172 E18.36857
G1 X160.013 Y159.691 E18.38622
G1 X159.858 Y160.336 E18.40829
G1 X159.724 Y160.839 E18.4256
G1 X159.55 Y161.433 E18.44619
G1 X159.394 Y161.92 E18.46319
G1 X159.187 Y162.518 E18.48424
G1 X159.007 Y162.999 E18.50132
G1 X158.771 Y163.587 E18.5224
G1 X158.555 Y164.089 E18.54057
G1 X158.283 Y164.677 E18.56212
G1 X158.066 Y165.119 E18.5785
G1 X157.796 Y165.638 E18.59796
G1 X157.556 Y166.074 E18.61451
G1 X157.213 Y166.664 E18.63721
G1 X156.916 Y167.144 E18.65598
G1 X156.561 Y167.686 E18.67753
G1 X156.276 Y168.099 E18.69422
G1 X155.894 Y168.626 E18.71587
G1 X155.565 Y169.057 E18.7339
G1 X155.166 Y169.552 E18.75505
G1 X154.814 Y169.967 E18.77315
G1 X154.382 Y170.45 E18.7947
G1 X154.044 Y170.81 E18.81113
G1 X153.61 Y171.252 E18.83173
G1 X153.251 Y171.6 E18.84836
G1 X152.788 Y172.029 E18.86935
G1 X152.38 Y172.389 E18.88745
G1 X151.888 Y172.8 E18.90877
G1 X151.483 Y173.121 E18.92596
G1 X150.967 Y173.511 E18.94747
G1 X150.559 Y173.805 E18.9642
G1 X150.053 Y174.151 E18.98459
G1 X149.599 Y174.445 E19.00258
G1 X149.02 Y174.799 E19.02515
G1 X148.573 Y175.057 E19.04232
G1 X148.033 Y175.352 E19.06278
G1 X147.593 Y175.579 E19.07925
G1 X147.049 Y175.844 E19.09938
G1 X146.569 Y176.064 E19.11694
G1 X145.96 Y176.324 E19.13896
G1 X145.482 Y176.514 E19.15607
G1 X144.91 Y176.726 E19.17636
G1 X144.416 Y176.895 E19.19372
G1 X143.795 Y177.091 E19.21538
G1 X143.268 Y177.243 E19.23363
G1 X142.617 Y177.412 E19.256
G1 X142.129 Y177.526 E19.27266
G1 X141.528 Y177.652 E19.29309
G1 X141.025 Y177.745 E19.3101
G1 X140.399 Y177.845 E19.33119
G1 X139.87 Y177.916 E19.34894
G1 X139.234 Y177.985 E19.37022
G1 X138.737 Y178.027 E19.38681
G1 X138.098 Y178.066 E19.4081
G1 X137.595 Y178.085 E19.42484
G1 X136.411 Y178.1 E19.46422
G1 X98.466 Y178.099 E20.72628
G1 X97.57 Y178.087 E20.75608
G1 X96.717 Y178.056 E20.78447
G1 X96.22 Y178.024 E20.80104
G1 X95.587 Y177.968 E20.82217
G1 X95.043 Y177.905 E20.84039
G1 X94.418 Y177.817 E20.86138
G1 X93.936 Y177.738 E20.87763
G1 X93.314 Y177.621 E20.89868
G1 X92.79 Y177.509 E20.9165
G1 X92.172 Y177.36 E20.93764
G1 X91.667 Y177.225 E20.95503
G1 X91.024 Y177.036 E20.97732
G1 X90.533 Y176.879 E20.99446
G1 X89.946 Y176.675 E21.01513
G1 X89.45 Y176.488 E21.03276
G1 X88.889 Y176.261 E21.05289
G1 X88.402 Y176.05 E21.07054
G1 X87.76 Y175.752 E21.09409
G1 X87.3 Y175.524 E21.11116
G1 X86.768 Y175.245 E21.13114
G1 X86.315 Y174.994 E21.14837
G1 X85.778 Y174.678 E21.16909
G1 X85.358 Y174.417 E21.18554
G1 X84.816 Y174.063 E21.20707
G1 X84.377 Y173.761 E21.22479
G1 X83.86 Y173.385 E21.24605
G1 X83.443 Y173.065 E21.26354
G1 X82.948 Y172.666 E21.28468
G1 X82.532 Y172.313 E21.30283
G1 X82.048 Y171.88 E21.32443
G1 X81.683 Y171.537 E21.34109
G1 X81.254 Y171.115 E21.3611
G1 X80.909 Y170.76 E21.37757
G1 X80.459 Y170.274 E21.3996
G1 X80.11 Y169.878 E21.41715
G1 X79.703 Y169.392 E21.43824
G1 X79.374 Y168.978 E21.45583
G1 X78.987 Y168.466 E21.47717
G1 X78.692 Y168.055 E21.494
G1 X78.353 Y167.559 E21.51398
G1 X78.061 Y167.108 E21.53185
G1 X77.702 Y166.521 E21.55474
G1 X77.457 Y166.099 E21.57097
G1 X77.193 Y165.619 E21.58919
G1 X76.96 Y165.169 E21.60604
G1 X76.664 Y164.564 E21.62844
G1 X76.439 Y164.074 E21.64638
G1 X76.179 Y163.466 E21.66837
G1 X75.987 Y162.986 E21.68556
G1 X75.774 Y162.412 E21.70593
G1 X75.599 Y161.9 E21.72392
G1 X75.403 Y161.276 E21.74568
G1 X75.257 Y160.767 E21.76329
G1 X75.087 Y160.113 E21.78576
G1 X74.975 Y159.636 E21.80206
G1 X74.85 Y159.044 E21.82219
G1 X74.75 Y158.502 E21.84052
G1 X74.651 Y157.873 E21.86169
G1 X74.584 Y157.372 E21.87851
G1 X74.515 Y156.738 E21.89972
G1 X74.473 Y156.237 E21.91644
G1 X74.434 Y155.598 E21.93773
G1 X74.415 Y155.095 E21.95447
G1 X74.4 Y153.911 E21.99386
G1 X74.401 Y80.954 E24.42042
G1 X74.419 Y79.812 E24.4584
G1 X74.44 Y79.275 E24.47628
G1 X74.474 Y78.747 E24.49388
G1 X74.533 Y78.086 E24.51595
G1 X74.591 Y77.574 E24.53309
G1 X74.677 Y76.953 E24.55394
G1 X74.757 Y76.464 E24.57042
G1 X74.873 Y75.842 E24.59146
G1 X74.989 Y75.297 E24.61
G1 X75.137 Y74.684 E24.63097
G1 X75.266 Y74.202 E24.64757
G1 X75.454 Y73.558 E24.66988
G1 X75.621 Y73.035 E24.68814
G1 X75.829 Y72.439 E24.70914
G1 X76.012 Y71.953 E24.72641
G1 X76.257 Y71.348 E24.74812
G1 X76.459 Y70.883 E24.76498
G1 X76.713 Y70.333 E24.78513
G1 X76.93 Y69.889 E24.80157
G1 X77.221 Y69.329 E24.82256
G1 X77.488 Y68.846 E24.84091
G1 X77.823 Y68.276 E24.8629
G1 X78.088 Y67.849 E24.87962
G1 X78.431 Y67.324 E24.90048
G1 X78.725 Y66.898 E24.91769
