;FLAVOR:Marlin
;TIME:321
;Filament used: 0.0712259m
;Layer height: 0.1
;MINX:103.58
;MINY:100.08
;MINZ:0.1
;MAXX:125.42
;MAXY:136.92
;MAXZ:0.8
;Generated with Cura_SteamEngine 5.2.2
M140 S50
M105
M190 S50
M104 S200
M105
M109 S200
M82 ;absolute extrusion mode
; Ender 3 Custom Start G-code
G92 E0 ; Reset Extruder
G28 ; Home all axes
G1 Z2.0 F3000 ; Move Z Axis up little to prevent scratching of Heat Bed
G1 X0.1 Y20 Z0.3 F5000.0 ; Move to start position
G1 X0.1 Y200.0 Z0.3 F1500.0 E15 ; Draw the first line
G1 X0.4 Y200.0 Z0.3 F5000.0 ; Move to side a little
G1 X0.4 Y20 Z0.3 F1500.0 E30 ; Draw the second line
G92 E0 ; Reset Extruder
G1 Z2.0 F3000 ; Move Z Axis up little to prevent scratching of Heat Bed
G1 X5 Y20 Z0.3 F5000.0 ; Move over to prevent blob squish
G92 E0
G92 E0
G1 F2700 E-5
;LAYER_COUNT:8
;LAYER:0
M107
G0 F6000 X105.865 Y102.865 Z0.1
;TYPE:SKIRT
G1 F2700 E0
G1 F1200 X106.365 Y102.365 E0.01176
G1 X106.951 Y101.835 E0.0249
G1 X107.587 Y101.368 E0.03802
G1 X108.267 Y100.967 E0.05115
G1 X108.985 Y100.637 E0.06429
G1 X109.732 Y100.382 E0.07742
G1 X110.501 Y100.203 E0.09055
G1 X111.285 Y100.103 E0.10369
G1 X111.88 Y100.08 E0.11359
G1 X117.12 Y100.08 E0.20073
G1 X117.909 Y100.12 E0.21387
G1 X118.689 Y100.239 E0.22699
G1 X119.454 Y100.437 E0.24014
G1 X120.194 Y100.711 E0.25326
G1 X120.903 Y101.059 E0.26639
G1 X121.574 Y101.477 E0.27954
G1 X122.198 Y101.96 E0.29266
G1 X122.635 Y102.365 E0.30257
G1 X123.135 Y102.865 E0.31433
G1 X123.665 Y103.451 E0.32747
G1 X124.132 Y104.087 E0.34059
G1 X124.533 Y104.767 E0.35372
G1 X124.863 Y105.485 E0.36686
G1 X125.118 Y106.232 E0.37999
G1 X125.297 Y107.001 E0.39312
G1 X125.397 Y107.785 E0.40626
G1 X125.42 Y108.38 E0.41616
G1 X125.42 Y128.62 E0.75276
G1 X125.38 Y129.409 E0.76589
G1 X125.261 Y130.189 E0.77902
G1 X125.063 Y130.954 E0.79216
G1 X124.789 Y131.694 E0.80528
G1 X124.441 Y132.403 E0.81841
G1 X124.023 Y133.074 E0.83156
G1 X123.54 Y133.698 E0.84468
G1 X123.135 Y134.135 E0.85459
G1 X122.635 Y134.635 E0.86635
G1 X122.049 Y135.165 E0.87949
G1 X121.413 Y135.632 E0.89261
G1 X120.733 Y136.033 E0.90574
G1 X120.015 Y136.363 E0.91888
G1 X119.268 Y136.618 E0.93201
G1 X118.499 Y136.797 E0.94514
G1 X117.715 Y136.897 E0.95828
G1 X117.12 Y136.92 E0.96819
G1 X111.88 Y136.92 E1.05533
G1 X111.091 Y136.88 E1.06846
G1 X110.311 Y136.761 E1.08159
G1 X109.546 Y136.563 E1.09473
G1 X108.806 Y136.289 E1.10785
G1 X108.097 Y135.941 E1.12098
G1 X107.426 Y135.523 E1.13413
G1 X106.802 Y135.04 E1.14725
G1 X106.365 Y134.635 E1.15716
G1 X105.865 Y134.135 E1.16892
G1 X105.335 Y133.549 E1.18206
G1 X104.868 Y132.913 E1.19518
G1 X104.467 Y132.233 E1.20831
G1 X104.137 Y131.515 E1.22145
G1 X103.882 Y130.768 E1.23458
G1 X103.703 Y129.999 E1.24771
G1 X103.603 Y129.215 E1.26085
G1 X103.58 Y128.62 E1.27076
G1 X103.58 Y108.38 E1.60735
G1 X103.62 Y107.591 E1.62049
G1 X103.739 Y106.811 E1.63361
G1 X103.937 Y106.046 E1.64675
G1 X104.211 Y105.306 E1.65987
G1 X104.559 Y104.597 E1.67301
G1 X104.977 Y103.926 E1.68615
G1 X105.46 Y103.302 E1.69928
G1 X105.865 Y102.865 E1.70918
G0 F6000 X106.147 Y103.147
G1 F1200 X106.647 Y102.647 E1.72094
G1 X107.219 Y102.133 E1.73373
G1 X107.841 Y101.68 E1.74653
G1 X108.506 Y101.294 E1.75932
G1 X109.208 Y100.979 E1.77211
G1 X109.939 Y100.739 E1.78491
G1 X110.69 Y100.576 E1.79769
G1 X111.455 Y100.492 E1.81048
G1 X111.88 Y100.48 E1.81756
G1 X117.12 Y100.48 E1.9047
G1 X117.888 Y100.52 E1.91749
G1 X118.648 Y100.639 E1.93028
G1 X119.391 Y100.837 E1.94307
G1 X120.11 Y101.111 E1.95586
G1 X120.796 Y101.458 E1.96865
G1 X121.443 Y101.874 E1.98144
G1 X122.043 Y102.355 E1.99423
G1 X122.353 Y102.647 E2.00131
G1 X122.853 Y103.147 E2.01307
G1 X123.367 Y103.719 E2.02586
G1 X123.82 Y104.341 E2.03865
G1 X124.206 Y105.006 E2.05144
G1 X124.521 Y105.708 E2.06424
G1 X124.761 Y106.439 E2.07703
G1 X124.924 Y107.19 E2.08981
G1 X125.008 Y107.955 E2.10261
G1 X125.02 Y108.38 E2.10968
G1 X125.02 Y128.62 E2.44627
G1 X124.98 Y129.388 E2.45906
G1 X124.861 Y130.148 E2.47186
G1 X124.663 Y130.891 E2.48464
G1 X124.389 Y131.61 E2.49744
G1 X124.042 Y132.296 E2.51022
G1 X123.626 Y132.943 E2.52301
G1 X123.145 Y133.543 E2.5358
G1 X122.853 Y133.853 E2.54289
G1 X122.353 Y134.353 E2.55464
G1 X121.781 Y134.867 E2.56743
G1 X121.159 Y135.32 E2.58023
G1 X120.494 Y135.706 E2.59302
G1 X119.792 Y136.021 E2.60581
G1 X119.061 Y136.261 E2.61861
G1 X118.31 Y136.424 E2.63139
G1 X117.545 Y136.508 E2.64419
G1 X117.12 Y136.52 E2.65126
G1 X111.88 Y136.52 E2.7384
G1 X111.112 Y136.48 E2.75119
G1 X110.352 Y136.361 E2.76398
G1 X109.609 Y136.163 E2.77677
G1 X108.89 Y135.889 E2.78956
G1 X108.204 Y135.542 E2.80235
G1 X107.557 Y135.126 E2.81514
G1 X106.957 Y134.645 E2.82793
G1 X106.647 Y134.353 E2.83501
G1 X106.147 Y133.853 E2.84677
G1 X105.633 Y133.281 E2.85956
G1 X105.18 Y132.659 E2.87236
G1 X104.794 Y131.994 E2.88514
G1 X104.479 Y131.292 E2.89794
G1 X104.239 Y130.561 E2.91073
G1 X104.076 Y129.81 E2.92351
G1 X103.992 Y129.045 E2.93631
G1 X103.98 Y128.62 E2.94338
G1 X103.98 Y108.38 E3.27997
G1 X104.02 Y107.612 E3.29276
G1 X104.139 Y106.852 E3.30556
G1 X104.337 Y106.109 E3.31834
G1 X104.611 Y105.39 E3.33114
G1 X104.958 Y104.704 E3.34392
G1 X105.374 Y104.057 E3.35672
G1 X105.855 Y103.457 E3.3695
G1 X106.147 Y103.147 E3.37659
G0 F6000 X106.43 Y103.43
G1 F1200 X106.93 Y102.93 E3.38835
G1 X107.487 Y102.43 E3.40079
G1 X108.093 Y101.993 E3.41322
G1 X108.743 Y101.622 E3.42566
G1 X109.429 Y101.323 E3.43811
G1 X110.143 Y101.099 E3.45055
G1 X110.876 Y100.952 E3.46299
G1 X111.88 Y100.88 E3.47973
G1 X117.12 Y100.88 E3.56687
G1 X117.867 Y100.92 E3.57931
G1 X118.605 Y101.039 E3.59174
G1 X119.327 Y101.237 E3.60419
G1 X120.023 Y101.51 E3.61662
G1 X120.686 Y101.857 E3.62907
G1 X121.309 Y102.272 E3.64152
G1 X122.07 Y102.93 E3.65825
G1 X122.57 Y103.43 E3.67001
G1 X123.07 Y103.987 E3.68245
G1 X123.507 Y104.593 E3.69488
G1 X123.878 Y105.243 E3.70732
G1 X124.177 Y105.929 E3.71977
G1 X124.401 Y106.643 E3.73221
G1 X124.548 Y107.376 E3.74465
G1 X124.62 Y108.38 E3.76139
G1 X124.62 Y128.62 E4.09798
G1 X124.58 Y129.367 E4.11042
G1 X124.461 Y130.105 E4.12285
G1 X124.263 Y130.827 E4.1353
G1 X123.99 Y131.523 E4.14773
G1 X123.643 Y132.186 E4.16018
G1 X123.228 Y132.809 E4.17263
G1 X122.57 Y133.57 E4.18936
G1 X122.07 Y134.07 E4.20112
G1 X121.513 Y134.57 E4.21356
G1 X120.907 Y135.007 E4.22599
G1 X120.257 Y135.378 E4.23844
G1 X119.571 Y135.677 E4.25088
G1 X118.857 Y135.901 E4.26332
G1 X118.124 Y136.048 E4.27576
G1 X117.12 Y136.12 E4.2925
G1 X111.88 Y136.12 E4.37964
G1 X111.133 Y136.08 E4.39208
G1 X110.395 Y135.961 E4.40451
G1 X109.673 Y135.763 E4.41696
G1 X108.977 Y135.49 E4.42939
G1 X108.314 Y135.143 E4.44184
G1 X107.691 Y134.728 E4.45429
G1 X106.93 Y134.07 E4.47102
G1 X106.43 Y133.57 E4.48278
G1 X105.93 Y133.013 E4.49522
G1 X105.493 Y132.407 E4.50765
G1 X105.122 Y131.757 E4.52009
G1 X104.823 Y131.071 E4.53254
G1 X104.599 Y130.357 E4.54498
G1 X104.452 Y129.624 E4.55742
G1 X104.38 Y128.62 E4.57416
G1 X104.38 Y108.38 E4.91075
G1 X104.42 Y107.633 E4.92319
G1 X104.539 Y106.895 E4.93562
G1 X104.737 Y106.173 E4.94807
G1 X105.01 Y105.477 E4.9605
G1 X105.357 Y104.814 E4.97295
G1 X105.772 Y104.191 E4.9854
G1 X106.43 Y103.43 E5.00213
G0 F6000 X106.713 Y103.713
G1 F1200 X107.213 Y103.213 E5.01389
G1 X107.754 Y102.729 E5.02596
G1 X108.345 Y102.306 E5.03805
G1 X108.979 Y101.952 E5.05012
G1 X109.648 Y101.669 E5.0622
G1 X110.344 Y101.461 E5.07428
G1 X111.059 Y101.331 E5.08637
G1 X111.88 Y101.28 E5.10005
G1 X117.12 Y101.28 E5.18719
G1 X117.845 Y101.32 E5.19926
G1 X118.562 Y101.439 E5.21135
G1 X119.261 Y101.637 E5.22343
G1 X119.934 Y101.91 E5.23551
G1 X120.573 Y102.255 E5.24759
G1 X121.17 Y102.669 E5.25967
G1 X121.787 Y103.213 E5.27335
G1 X122.287 Y103.713 E5.28511
G1 X122.771 Y104.254 E5.29718
G1 X123.194 Y104.845 E5.30926
G1 X123.548 Y105.479 E5.32134
G1 X123.831 Y106.148 E5.33342
G1 X124.039 Y106.844 E5.3455
G1 X124.169 Y107.559 E5.35759
G1 X124.22 Y108.38 E5.37127
G1 X124.22 Y128.62 E5.70786
G1 X124.18 Y129.345 E5.71993
G1 X124.061 Y130.062 E5.73202
G1 X123.863 Y130.761 E5.7441
G1 X123.59 Y131.434 E5.75618
G1 X123.245 Y132.073 E5.76826
G1 X122.831 Y132.67 E5.78034
G1 X122.287 Y133.287 E5.79402
G1 X121.787 Y133.787 E5.80578
G1 X121.246 Y134.271 E5.81785
G1 X120.655 Y134.694 E5.82993
G1 X120.021 Y135.048 E5.84201
G1 X119.352 Y135.331 E5.85409
G1 X118.656 Y135.539 E5.86617
G1 X117.941 Y135.669 E5.87826
G1 X117.12 Y135.72 E5.89194
G1 X111.88 Y135.72 E5.97908
G1 X111.155 Y135.68 E5.99115
G1 X110.438 Y135.561 E6.00324
G1 X109.739 Y135.363 E6.01532
G1 X109.066 Y135.09 E6.0274
G1 X108.427 Y134.745 E6.03948
G1 X107.83 Y134.331 E6.05156
G1 X107.213 Y133.787 E6.06524
G1 X106.713 Y133.287 E6.077
G1 X106.229 Y132.746 E6.08907
G1 X105.806 Y132.155 E6.10115
G1 X105.452 Y131.521 E6.11323
G1 X105.169 Y130.852 E6.12531
G1 X104.961 Y130.156 E6.13739
G1 X104.831 Y129.441 E6.14948
G1 X104.78 Y128.62 E6.16316
G1 X104.78 Y108.38 E6.49975
G1 X104.82 Y107.655 E6.51182
G1 X104.939 Y106.938 E6.52391
G1 X105.137 Y106.239 E6.53599
G1 X105.41 Y105.566 E6.54807
G1 X105.755 Y104.927 E6.56015
G1 X106.169 Y104.33 E6.57223
G1 X106.713 Y103.713 E6.58591
G0 F6000 X106.996 Y103.996
G1 F1200 X107.496 Y103.496 E6.59767
G1 X108.021 Y103.027 E6.60937
G1 X108.596 Y102.621 E6.62108
G1 X109.214 Y102.283 E6.63279
G1 X109.865 Y102.016 E6.64449
G1 X110.543 Y101.826 E6.6562
G1 X111.238 Y101.713 E6.66791
G1 X111.88 Y101.68 E6.6786
G1 X117.12 Y101.68 E6.76575
G1 X117.823 Y101.72 E6.77746
G1 X118.517 Y101.839 E6.78917
G1 X119.192 Y102.037 E6.80086
G1 X119.841 Y102.309 E6.81257
G1 X120.455 Y102.654 E6.82428
G1 X121.026 Y103.065 E6.83598
G1 X121.504 Y103.496 E6.84668
G1 X122.004 Y103.996 E6.85844
G1 X122.473 Y104.521 E6.87015
G1 X122.879 Y105.096 E6.88185
G1 X123.217 Y105.714 E6.89357
G1 X123.484 Y106.365 E6.90527
G1 X123.674 Y107.043 E6.91698
G1 X123.787 Y107.738 E6.92869
G1 X123.82 Y108.38 E6.93938
G1 X123.82 Y128.62 E7.27597
G1 X123.78 Y129.323 E7.28768
G1 X123.661 Y130.017 E7.29939
G1 X123.463 Y130.692 E7.31109
G1 X123.191 Y131.341 E7.32279
G1 X122.846 Y131.955 E7.3345
G1 X122.435 Y132.526 E7.3462
G1 X122.004 Y133.004 E7.35691
G1 X121.504 Y133.504 E7.36867
G1 X120.979 Y133.973 E7.38037
G1 X120.404 Y134.379 E7.39208
G1 X119.786 Y134.717 E7.40379
G1 X119.135 Y134.984 E7.4155
G1 X118.457 Y135.174 E7.42721
G1 X117.762 Y135.287 E7.43891
G1 X117.12 Y135.32 E7.44961
G1 X111.88 Y135.32 E7.53675
G1 X111.177 Y135.28 E7.54846
G1 X110.483 Y135.161 E7.56017
G1 X109.808 Y134.963 E7.57186
G1 X109.159 Y134.691 E7.58357
G1 X108.545 Y134.346 E7.59528
G1 X107.974 Y133.935 E7.60698
G1 X107.496 Y133.504 E7.61768
G1 X106.996 Y133.004 E7.62944
G1 X106.527 Y132.479 E7.64115
G1 X106.121 Y131.904 E7.65286
G1 X105.783 Y131.286 E7.66457
G1 X105.516 Y130.635 E7.67627
G1 X105.326 Y129.957 E7.68798
G1 X105.213 Y129.262 E7.69969
G1 X105.18 Y128.62 E7.71038
G1 X105.18 Y108.38 E8.04697
G1 X105.22 Y107.677 E8.05868
G1 X105.339 Y106.983 E8.07039
G1 X105.537 Y106.308 E8.08209
G1 X105.809 Y105.659 E8.09379
G1 X106.154 Y105.045 E8.10551
G1 X106.565 Y104.474 E8.11721
G1 X106.996 Y103.996 E8.12791
G0 F6000 X107.279 Y104.279
G1 F1200 X107.779 Y103.779 E8.13967
G1 X108.288 Y103.326 E8.151
G1 X108.846 Y102.937 E8.16231
G1 X109.446 Y102.615 E8.17364
G1 X110.08 Y102.366 E8.18496
G1 X110.739 Y102.193 E8.19629
G1 X111.413 Y102.099 E8.20761
G1 X111.88 Y102.08 E8.21538
G1 X117.12 Y102.08 E8.30253
G1 X117.8 Y102.12 E8.31385
G1 X118.47 Y102.239 E8.32517
G1 X119.122 Y102.436 E8.3365
G1 X119.746 Y102.708 E8.34782
G1 X120.334 Y103.052 E8.35915
G1 X120.878 Y103.462 E8.37047
G1 X121.221 Y103.779 E8.37824
G1 X121.721 Y104.279 E8.39
G1 X122.174 Y104.788 E8.40133
G1 X122.563 Y105.346 E8.41264
G1 X122.885 Y105.946 E8.42397
G1 X123.134 Y106.58 E8.4353
G1 X123.307 Y107.239 E8.44663
G1 X123.401 Y107.913 E8.45794
G1 X123.42 Y108.38 E8.46572
G1 X123.42 Y128.62 E8.80231
G1 X123.38 Y129.3 E8.81364
G1 X123.261 Y129.97 E8.82495
G1 X123.064 Y130.622 E8.83628
G1 X122.792 Y131.246 E8.8476
G1 X122.448 Y131.834 E8.85893
G1 X122.038 Y132.378 E8.87026
G1 X121.721 Y132.721 E8.87802
G1 X121.221 Y133.221 E8.88978
G1 X120.712 Y133.674 E8.90112
G1 X120.154 Y134.063 E8.91243
G1 X119.554 Y134.385 E8.92375
G1 X118.92 Y134.634 E8.93508
G1 X118.261 Y134.807 E8.94641
G1 X117.587 Y134.901 E8.95773
G1 X117.12 Y134.92 E8.9655
G1 X111.88 Y134.92 E9.05264
G1 X111.2 Y134.88 E9.06397
G1 X110.53 Y134.761 E9.07529
G1 X109.878 Y134.564 E9.08661
G1 X109.254 Y134.292 E9.09793
G1 X108.666 Y133.948 E9.10926
G1 X108.122 Y133.538 E9.12059
G1 X107.779 Y133.221 E9.12836
G1 X107.279 Y132.721 E9.14012
G1 X106.826 Y132.212 E9.15145
G1 X106.437 Y131.654 E9.16276
G1 X106.115 Y131.054 E9.17408
G1 X105.866 Y130.42 E9.18541
G1 X105.693 Y129.761 E9.19674
G1 X105.599 Y129.087 E9.20806
G1 X105.58 Y128.62 E9.21583
G1 X105.58 Y108.38 E9.55242
G1 X105.62 Y107.7 E9.56375
G1 X105.739 Y107.03 E9.57507
G1 X105.936 Y106.378 E9.5864
G1 X106.208 Y105.754 E9.59772
G1 X106.552 Y105.166 E9.60904
G1 X106.962 Y104.622 E9.62037
G1 X107.279 Y104.279 E9.62814
G0 F6000 X107.562 Y104.562
G1 F1200 X108.062 Y104.062 E9.6399
G1 X108.554 Y103.626 E9.65083
G1 X109.095 Y103.254 E9.66175
G1 X109.677 Y102.95 E9.67267
G1 X110.292 Y102.719 E9.6836
G1 X110.931 Y102.564 E9.69453
G1 X111.88 Y102.48 E9.71037
G1 X117.12 Y102.48 E9.79752
G1 X117.776 Y102.52 E9.80844
G1 X118.422 Y102.639 E9.81937
G1 X119.049 Y102.836 E9.8303
G1 X119.647 Y103.108 E9.84122
G1 X120.208 Y103.45 E9.85215
G1 X120.938 Y104.062 E9.86799
G1 X121.438 Y104.562 E9.87975
G1 X121.874 Y105.054 E9.89068
G1 X122.246 Y105.595 E9.9016
G1 X122.55 Y106.177 E9.91252
G1 X122.781 Y106.792 E9.92345
G1 X122.936 Y107.431 E9.93438
G1 X123.02 Y108.38 E9.95022
G1 X123.02 Y128.62 E10.28682
G1 X122.98 Y129.276 E10.29775
G1 X122.861 Y129.922 E10.30867
G1 X122.664 Y130.549 E10.3196
G1 X122.392 Y131.147 E10.33053
G1 X122.05 Y131.708 E10.34145
G1 X121.438 Y132.438 E10.35729
G1 X120.938 Y132.938 E10.36905
G1 X120.446 Y133.374 E10.37999
G1 X119.905 Y133.746 E10.3909
G1 X119.323 Y134.05 E10.40182
G1 X118.708 Y134.281 E10.41275
G1 X118.069 Y134.436 E10.42368
G1 X117.12 Y134.52 E10.43953
G1 X111.88 Y134.52 E10.52667
G1 X111.224 Y134.48 E10.5376
G1 X110.578 Y134.361 E10.54852
G1 X109.951 Y134.164 E10.55945
G1 X109.353 Y133.892 E10.57038
G1 X108.792 Y133.55 E10.5813
G1 X108.062 Y132.938 E10.59714
G1 X107.562 Y132.438 E10.6089
G1 X107.126 Y131.946 E10.61984
G1 X106.754 Y131.405 E10.63076
G1 X106.45 Y130.823 E10.64167
G1 X106.219 Y130.208 E10.6526
G1 X106.064 Y129.569 E10.66353
G1 X105.98 Y128.62 E10.67938
G1 X105.98 Y108.38 E11.01597
G1 X106.02 Y107.724 E11.0269
G1 X106.139 Y107.078 E11.03782
G1 X106.336 Y106.451 E11.04875
G1 X106.608 Y105.853 E11.05968
G1 X106.95 Y105.292 E11.07061
G1 X107.562 Y104.562 E11.08645
G0 F6000 X107.844 Y104.844
G1 F1200 X108.344 Y104.344 E11.09821
G1 X108.819 Y103.927 E11.10872
G1 X109.342 Y103.572 E11.11923
G1 X109.906 Y103.286 E11.12975
G1 X110.501 Y103.074 E11.14025
G1 X111.119 Y102.938 E11.15077
G1 X111.88 Y102.88 E11.16347
G1 X117.12 Y102.88 E11.25061
G1 X117.751 Y102.92 E11.26112
G1 X118.372 Y103.039 E11.27164
G1 X118.972 Y103.236 E11.28214
G1 X119.544 Y103.507 E11.29267
G1 X120.076 Y103.847 E11.30316
G1 X120.656 Y104.344 E11.31587
G1 X121.156 Y104.844 E11.32763
G1 X121.573 Y105.319 E11.33814
G1 X121.928 Y105.842 E11.34865
G1 X122.214 Y106.406 E11.35917
G1 X122.426 Y107.001 E11.36967
G1 X122.562 Y107.619 E11.38019
G1 X122.62 Y108.38 E11.39289
G1 X122.62 Y128.62 E11.72948
G1 X122.58 Y129.251 E11.73999
G1 X122.461 Y129.872 E11.75051
G1 X122.264 Y130.472 E11.76101
G1 X121.993 Y131.044 E11.77154
G1 X121.653 Y131.576 E11.78204
G1 X121.156 Y132.156 E11.79474
G1 X120.656 Y132.656 E11.8065
G1 X120.181 Y133.073 E11.81701
G1 X119.658 Y133.428 E11.82752
G1 X119.094 Y133.714 E11.83804
G1 X118.499 Y133.926 E11.84854
G1 X117.881 Y134.062 E11.85906
G1 X117.12 Y134.12 E11.87176
G1 X111.88 Y134.12 E11.9589
G1 X111.249 Y134.08 E11.96941
G1 X110.628 Y133.961 E11.97993
G1 X110.028 Y133.764 E11.99043
G1 X109.456 Y133.493 E12.00096
G1 X108.924 Y133.153 E12.01146
G1 X108.344 Y132.656 E12.02416
G1 X107.844 Y132.156 E12.03592
G1 X107.427 Y131.681 E12.04643
G1 X107.072 Y131.158 E12.05694
G1 X106.786 Y130.594 E12.06746
