;FLAVOR:Marlin
;TIME:314
;Filament used: 0.0624911m
;Layer height: 0.1
;MINX:102.45
;MINY:100.95
;MINZ:0.1
;MAXX:126.55
;MAXY:136.05
;MAXZ:0.5
;Generated with Cura_SteamEngine 5.2.2
M140 S50
M105
M190 S50
M104 S200
M105
M109 S200
M82 ;absolute extrusion mode
; Ender 3 Custom Start G-code
G92 E0 ; Reset Extruder
G28 ; Home all axes
G1 Z2.0 F3000 ; Move Z Axis up little to prevent scratching of Heat Bed
G1 X0.1 Y20 Z0.3 F5000.0 ; Move to start position
G1 X0.1 Y200.0 Z0.3 F1500.0 E15 ; Draw the first line
G1 X0.4 Y200.0 Z0.3 F5000.0 ; Move to side a little
G1 X0.4 Y20 Z0.3 F1500.0 E30 ; Draw the second line
G92 E0 ; Reset Extruder
G1 Z2.0 F3000 ; Move Z Axis up little to prevent scratching of Heat Bed
G1 X5 Y20 Z0.3 F5000.0 ; Move over to prevent blob squish
G92 E0
G92 E0
G1 F2700 E-5
;LAYER_COUNT:5
;LAYER:0
M107
G0 F6000 X104.873 Y103.099 Z0.1
;TYPE:SKIRT
G1 F2700 E0
G1 F1200 X105.472 Y102.584 E0.01314
G1 X106.12 Y102.133 E0.02627
G1 X106.811 Y101.749 E0.03941
G1 X107.536 Y101.437 E0.05254
G1 X108.289 Y101.2 E0.06567
G1 X109.063 Y101.041 E0.07881
G1 X109.848 Y100.96 E0.09193
G1 X110.25 Y100.95 E0.09862
G1 X118.75 Y100.95 E0.23997
G1 X119.539 Y100.99 E0.25311
G1 X120.319 Y101.109 E0.26623
G1 X121.084 Y101.307 E0.27937
G1 X121.824 Y101.581 E0.2925
G1 X122.533 Y101.929 E0.30563
G1 X123.204 Y102.347 E0.31878
G1 X123.828 Y102.83 E0.3319
G1 X124.401 Y103.373 E0.34503
G1 X124.916 Y103.972 E0.35817
G1 X125.367 Y104.62 E0.3713
G1 X125.751 Y105.311 E0.38444
G1 X126.063 Y106.036 E0.39757
G1 X126.3 Y106.789 E0.4107
G1 X126.459 Y107.563 E0.42384
G1 X126.54 Y108.348 E0.43696
G1 X126.55 Y108.75 E0.44365
G1 X126.55 Y128.25 E0.76793
G1 X126.51 Y129.039 E0.78107
G1 X126.391 Y129.819 E0.79419
G1 X126.193 Y130.584 E0.80734
G1 X125.919 Y131.324 E0.82046
G1 X125.571 Y132.033 E0.83359
G1 X125.153 Y132.704 E0.84674
G1 X124.67 Y133.328 E0.85986
G1 X124.127 Y133.901 E0.87299
G1 X123.528 Y134.416 E0.88613
G1 X122.88 Y134.867 E0.89926
G1 X122.189 Y135.251 E0.9124
G1 X121.464 Y135.563 E0.92553
G1 X120.711 Y135.8 E0.93866
G1 X119.937 Y135.959 E0.9518
G1 X119.152 Y136.04 E0.96492
G1 X118.75 Y136.05 E0.97161
G1 X110.25 Y136.05 E1.11296
G1 X109.461 Y136.01 E1.1261
G1 X108.681 Y135.891 E1.13922
G1 X107.916 Y135.693 E1.15236
G1 X107.176 Y135.419 E1.16549
G1 X106.467 Y135.071 E1.17862
G1 X105.796 Y134.653 E1.19177
G1 X105.172 Y134.17 E1.20489
G1 X104.599 Y133.627 E1.21802
G1 X104.084 Y133.028 E1.23116
G1 X103.633 Y132.38 E1.24429
G1 X103.249 Y131.689 E1.25743
G1 X102.937 Y130.964 E1.27056
G1 X102.7 Y130.211 E1.28369
G1 X102.541 Y129.437 E1.29683
G1 X102.46 Y128.652 E1.30995
G1 X102.45 Y128.25 E1.31664
G1 X102.45 Y108.75 E1.64092
G1 X102.49 Y107.961 E1.65406
G1 X102.609 Y107.181 E1.66718
G1 X102.807 Y106.416 E1.68033
G1 X103.081 Y105.676 E1.69345
G1 X103.429 Y104.967 E1.70658
G1 X103.847 Y104.296 E1.71973
G1 X104.33 Y103.672 E1.73285
G1 X104.873 Y103.099 E1.74598
G0 F6000 X105.266 Y103.28
G1 F1200 X105.861 Y102.792 E1.75878
G1 X106.503 Y102.369 E1.77156
G1 X107.186 Y102.014 E1.78436
G1 X107.901 Y101.733 E1.79714
G1 X108.643 Y101.527 E1.80995
G1 X109.401 Y101.399 E1.82273
G1 X110.25 Y101.35 E1.83687
G1 X118.75 Y101.35 E1.97823
G1 X119.518 Y101.39 E1.99102
G1 X120.278 Y101.509 E2.00381
G1 X121.021 Y101.707 E2.0166
G1 X121.74 Y101.981 E2.02939
G1 X122.426 Y102.328 E2.04218
G1 X123.073 Y102.744 E2.05497
G1 X123.673 Y103.225 E2.06776
G1 X124.22 Y103.766 E2.08055
G1 X124.708 Y104.361 E2.09335
G1 X125.131 Y105.003 E2.10614
G1 X125.486 Y105.686 E2.11894
G1 X125.767 Y106.401 E2.13171
G1 X125.973 Y107.143 E2.14452
G1 X126.101 Y107.901 E2.1573
G1 X126.15 Y108.75 E2.17144
G1 X126.15 Y128.25 E2.49573
G1 X126.11 Y129.018 E2.50852
G1 X125.991 Y129.778 E2.52131
G1 X125.793 Y130.521 E2.5341
G1 X125.519 Y131.24 E2.5469
G1 X125.172 Y131.926 E2.55968
G1 X124.756 Y132.573 E2.57247
G1 X124.275 Y133.173 E2.58526
G1 X123.734 Y133.72 E2.59806
G1 X123.139 Y134.208 E2.61085
G1 X122.497 Y134.631 E2.62364
G1 X121.814 Y134.986 E2.63644
G1 X121.099 Y135.267 E2.64922
G1 X120.357 Y135.473 E2.66202
G1 X119.599 Y135.601 E2.67481
G1 X118.75 Y135.65 E2.68895
G1 X110.25 Y135.65 E2.8303
G1 X109.482 Y135.61 E2.84309
G1 X108.722 Y135.491 E2.85589
G1 X107.979 Y135.293 E2.86867
G1 X107.26 Y135.019 E2.88147
G1 X106.574 Y134.672 E2.89425
G1 X105.927 Y134.256 E2.90705
G1 X105.327 Y133.775 E2.91983
G1 X104.78 Y133.234 E2.93263
G1 X104.292 Y132.639 E2.94543
G1 X103.869 Y131.997 E2.95821
G1 X103.514 Y131.314 E2.97101
G1 X103.233 Y130.599 E2.98379
G1 X103.027 Y129.857 E2.99659
G1 X102.899 Y129.099 E3.00938
G1 X102.85 Y128.25 E3.02352
G1 X102.85 Y108.75 E3.34781
G1 X102.89 Y107.982 E3.3606
G1 X103.009 Y107.222 E3.37339
G1 X103.207 Y106.479 E3.38618
G1 X103.481 Y105.76 E3.39897
G1 X103.828 Y105.074 E3.41176
G1 X104.244 Y104.427 E3.42455
G1 X104.725 Y103.827 E3.43734
G1 X105.266 Y103.28 E3.45013
G0 F6000 X105.658 Y103.466
G1 F1200 X106.248 Y103.007 E3.46256
G1 X106.884 Y102.612 E3.47501
G1 X107.558 Y102.288 E3.48745
G1 X108.263 Y102.038 E3.49989
G1 X108.991 Y101.864 E3.51234
G1 X109.733 Y101.769 E3.52478
G1 X110.25 Y101.75 E3.53338
G1 X118.75 Y101.75 E3.67474
G1 X119.497 Y101.79 E3.68718
G1 X120.235 Y101.909 E3.69961
G1 X120.957 Y102.107 E3.71206
G1 X121.653 Y102.38 E3.72449
G1 X122.316 Y102.727 E3.73694
G1 X122.939 Y103.142 E3.74938
G1 X123.513 Y103.621 E3.76182
G1 X124.034 Y104.158 E3.77426
G1 X124.493 Y104.748 E3.78669
G1 X124.888 Y105.384 E3.79914
G1 X125.212 Y106.058 E3.81158
G1 X125.462 Y106.763 E3.82402
G1 X125.636 Y107.491 E3.83647
G1 X125.731 Y108.233 E3.84891
G1 X125.75 Y108.75 E3.85751
G1 X125.75 Y128.25 E4.1818
G1 X125.71 Y128.997 E4.19424
G1 X125.591 Y129.735 E4.20667
G1 X125.393 Y130.457 E4.21912
G1 X125.12 Y131.153 E4.23155
G1 X124.773 Y131.816 E4.244
G1 X124.358 Y132.439 E4.25644
G1 X123.879 Y133.013 E4.26888
G1 X123.342 Y133.534 E4.28132
G1 X122.752 Y133.993 E4.29375
G1 X122.116 Y134.388 E4.3062
G1 X121.442 Y134.712 E4.31864
G1 X120.737 Y134.962 E4.33108
G1 X120.009 Y135.136 E4.34353
G1 X119.267 Y135.231 E4.35597
G1 X118.75 Y135.25 E4.36457
G1 X110.25 Y135.25 E4.50592
G1 X109.503 Y135.21 E4.51836
G1 X108.765 Y135.091 E4.5308
G1 X108.043 Y134.893 E4.54325
G1 X107.347 Y134.62 E4.55568
G1 X106.684 Y134.273 E4.56812
G1 X106.061 Y133.858 E4.58057
G1 X105.487 Y133.379 E4.59301
G1 X104.966 Y132.842 E4.60545
G1 X104.507 Y132.252 E4.61788
G1 X104.112 Y131.616 E4.63033
G1 X103.788 Y130.942 E4.64277
G1 X103.538 Y130.237 E4.65521
G1 X103.364 Y129.509 E4.66765
G1 X103.269 Y128.767 E4.68009
G1 X103.25 Y128.25 E4.6887
G1 X103.25 Y108.75 E5.01298
G1 X103.29 Y108.003 E5.02542
G1 X103.409 Y107.265 E5.03786
G1 X103.607 Y106.543 E5.05031
G1 X103.88 Y105.847 E5.06274
G1 X104.227 Y105.184 E5.07518
G1 X104.642 Y104.561 E5.08763
G1 X105.121 Y103.987 E5.10007
G1 X105.658 Y103.466 E5.11251
G0 F6000 X106.049 Y103.659
G1 F1200 X106.634 Y103.229 E5.12458
G1 X107.263 Y102.865 E5.13667
G1 X107.928 Y102.572 E5.14875
G1 X108.621 Y102.354 E5.16083
G1 X109.333 Y102.214 E5.1729
G1 X110.25 Y102.15 E5.18819
G1 X118.75 Y102.15 E5.32954
G1 X119.475 Y102.19 E5.34162
G1 X120.192 Y102.309 E5.35371
G1 X120.891 Y102.507 E5.36579
G1 X121.564 Y102.78 E5.37787
G1 X122.203 Y103.125 E5.38994
G1 X122.8 Y103.539 E5.40202
G1 X123.348 Y104.015 E5.41409
G1 X123.841 Y104.549 E5.42618
G1 X124.271 Y105.134 E5.43826
G1 X124.635 Y105.763 E5.45034
G1 X124.928 Y106.428 E5.46243
G1 X125.146 Y107.121 E5.47451
G1 X125.286 Y107.833 E5.48657
G1 X125.35 Y108.75 E5.50186
G1 X125.35 Y128.25 E5.82615
G1 X125.31 Y128.975 E5.83822
G1 X125.191 Y129.692 E5.85031
G1 X124.993 Y130.391 E5.86239
G1 X124.72 Y131.064 E5.87447
G1 X124.375 Y131.703 E5.88655
G1 X123.961 Y132.3 E5.89863
G1 X123.485 Y132.848 E5.9107
G1 X122.951 Y133.341 E5.92279
G1 X122.366 Y133.771 E5.93486
G1 X121.737 Y134.135 E5.94694
G1 X121.072 Y134.428 E5.95903
G1 X120.379 Y134.646 E5.97111
G1 X119.667 Y134.786 E5.98318
G1 X118.75 Y134.85 E5.99847
G1 X110.25 Y134.85 E6.13982
G1 X109.525 Y134.81 E6.1519
G1 X108.808 Y134.691 E6.16398
G1 X108.109 Y134.493 E6.17606
G1 X107.436 Y134.22 E6.18814
G1 X106.797 Y133.875 E6.20022
G1 X106.2 Y133.461 E6.2123
G1 X105.652 Y132.985 E6.22437
G1 X105.159 Y132.451 E6.23646
G1 X104.729 Y131.866 E6.24853
G1 X104.365 Y131.237 E6.26062
G1 X104.072 Y130.572 E6.2727
G1 X103.854 Y129.879 E6.28478
G1 X103.714 Y129.167 E6.29685
G1 X103.65 Y128.25 E6.31214
G1 X103.65 Y108.75 E6.63642
G1 X103.69 Y108.025 E6.6485
G1 X103.809 Y107.308 E6.66059
G1 X104.007 Y106.609 E6.67267
G1 X104.28 Y105.936 E6.68475
G1 X104.625 Y105.297 E6.69682
G1 X105.039 Y104.7 E6.7089
G1 X105.515 Y104.152 E6.72098
G1 X106.049 Y103.659 E6.73306
G0 F6000 X106.439 Y103.859
G1 F1200 X107.018 Y103.459 E6.74476
G1 X107.639 Y103.127 E6.75648
G1 X108.293 Y102.867 E6.76818
G1 X108.973 Y102.683 E6.77989
G1 X109.669 Y102.577 E6.7916
G1 X110.25 Y102.55 E6.80128
G1 X118.75 Y102.55 E6.94263
G1 X119.453 Y102.59 E6.95434
G1 X120.147 Y102.709 E6.96605
G1 X120.822 Y102.907 E6.97775
G1 X121.471 Y103.179 E6.98945
G1 X122.085 Y103.524 E7.00116
G1 X122.656 Y103.935 E7.01286
G1 X123.177 Y104.409 E7.02458
G1 X123.641 Y104.939 E7.03629
G1 X124.041 Y105.518 E7.04799
G1 X124.373 Y106.139 E7.0597
G1 X124.633 Y106.793 E7.07141
G1 X124.817 Y107.473 E7.08312
G1 X124.923 Y108.169 E7.09483
G1 X124.95 Y108.75 E7.1045
G1 X124.95 Y128.25 E7.42879
G1 X124.91 Y128.953 E7.4405
G1 X124.791 Y129.647 E7.45221
G1 X124.593 Y130.322 E7.46391
G1 X124.321 Y130.971 E7.47561
G1 X123.976 Y131.585 E7.48732
G1 X123.565 Y132.156 E7.49902
G1 X123.091 Y132.677 E7.51074
G1 X122.561 Y133.141 E7.52245
G1 X121.982 Y133.541 E7.53415
G1 X121.361 Y133.873 E7.54586
G1 X120.707 Y134.133 E7.55757
G1 X120.027 Y134.317 E7.56928
G1 X119.331 Y134.423 E7.58099
G1 X118.75 Y134.45 E7.59066
G1 X110.25 Y134.45 E7.73202
G1 X109.547 Y134.41 E7.74373
G1 X108.853 Y134.291 E7.75544
G1 X108.178 Y134.093 E7.76714
G1 X107.529 Y133.821 E7.77884
G1 X106.915 Y133.476 E7.79055
G1 X106.344 Y133.065 E7.80225
G1 X105.823 Y132.591 E7.81397
G1 X105.359 Y132.061 E7.82568
G1 X104.959 Y131.482 E7.83738
G1 X104.627 Y130.861 E7.84909
G1 X104.367 Y130.207 E7.8608
G1 X104.183 Y129.527 E7.87251
G1 X104.077 Y128.831 E7.88422
G1 X104.05 Y128.25 E7.89389
G1 X104.05 Y108.75 E8.21818
G1 X104.09 Y108.047 E8.22989
G1 X104.209 Y107.353 E8.2416
G1 X104.407 Y106.678 E8.2533
G1 X104.679 Y106.029 E8.265
G1 X105.024 Y105.415 E8.27671
G1 X105.435 Y104.844 E8.28841
G1 X105.909 Y104.323 E8.30013
G1 X106.439 Y103.859 E8.31184
G0 F6000 X106.828 Y104.067
G1 F1200 X107.4 Y103.698 E8.32316
G1 X108.012 Y103.399 E8.33449
G1 X108.654 Y103.174 E8.3458
G1 X109.319 Y103.025 E8.35713
G1 X110.25 Y102.95 E8.37267
G1 X118.75 Y102.95 E8.51402
G1 X119.43 Y102.99 E8.52535
G1 X120.1 Y103.109 E8.53667
G1 X120.752 Y103.306 E8.54799
G1 X121.376 Y103.578 E8.55931
G1 X121.964 Y103.922 E8.57064
G1 X122.508 Y104.332 E8.58197
G1 X122.999 Y104.803 E8.59329
G1 X123.433 Y105.328 E8.60461
G1 X123.802 Y105.9 E8.61593
G1 X124.101 Y106.512 E8.62726
G1 X124.326 Y107.154 E8.63857
G1 X124.475 Y107.819 E8.64991
G1 X124.55 Y108.75 E8.66544
G1 X124.55 Y128.25 E8.98973
G1 X124.51 Y128.93 E9.00105
G1 X124.391 Y129.6 E9.01237
G1 X124.194 Y130.252 E9.0237
G1 X123.922 Y130.876 E9.03502
G1 X123.578 Y131.464 E9.04635
G1 X123.168 Y132.008 E9.05768
G1 X122.697 Y132.499 E9.06899
G1 X122.172 Y132.933 E9.08032
G1 X121.6 Y133.302 E9.09164
G1 X120.988 Y133.601 E9.10297
G1 X120.346 Y133.826 E9.11428
G1 X119.681 Y133.975 E9.12561
G1 X118.75 Y134.05 E9.14114
G1 X110.25 Y134.05 E9.2825
G1 X109.57 Y134.01 E9.29383
G1 X108.9 Y133.891 E9.30514
G1 X108.248 Y133.694 E9.31647
G1 X107.624 Y133.422 E9.32779
G1 X107.036 Y133.078 E9.33912
G1 X106.492 Y132.668 E9.35045
G1 X106.001 Y132.197 E9.36176
G1 X105.567 Y131.672 E9.37309
G1 X105.198 Y131.1 E9.38441
G1 X104.899 Y130.488 E9.39574
G1 X104.674 Y129.846 E9.40705
G1 X104.525 Y129.181 E9.41839
G1 X104.45 Y128.25 E9.43392
G1 X104.45 Y108.75 E9.7582
G1 X104.49 Y108.07 E9.76953
G1 X104.609 Y107.4 E9.78085
G1 X104.806 Y106.748 E9.79218
G1 X105.078 Y106.124 E9.8035
G1 X105.422 Y105.536 E9.81483
G1 X105.832 Y104.992 E9.82615
G1 X106.303 Y104.501 E9.83747
G1 X106.828 Y104.067 E9.8488
G0 F6000 X107.215 Y104.284
G1 F1200 X107.779 Y103.948 E9.85971
G1 X108.381 Y103.684 E9.87065
G1 X109.01 Y103.494 E9.88157
G1 X109.657 Y103.383 E9.89249
G1 X110.25 Y103.35 E9.90237
G1 X118.75 Y103.35 E10.04372
G1 X119.406 Y103.39 E10.05465
G1 X120.052 Y103.509 E10.06558
G1 X120.679 Y103.706 E10.07651
G1 X121.277 Y103.978 E10.08743
G1 X121.838 Y104.32 E10.09836
G1 X122.353 Y104.728 E10.10928
G1 X122.815 Y105.195 E10.12021
G1 X123.216 Y105.715 E10.13113
G1 X123.552 Y106.279 E10.14205
G1 X123.816 Y106.881 E10.15298
G1 X124.006 Y107.51 E10.1639
G1 X124.117 Y108.157 E10.17482
G1 X124.15 Y108.75 E10.1847
G1 X124.15 Y128.25 E10.50898
G1 X124.11 Y128.906 E10.51991
G1 X123.991 Y129.552 E10.53084
G1 X123.794 Y130.179 E10.54177
G1 X123.522 Y130.777 E10.55269
G1 X123.18 Y131.338 E10.56362
G1 X122.772 Y131.853 E10.57455
G1 X122.305 Y132.315 E10.58547
G1 X121.785 Y132.716 E10.59639
G1 X121.221 Y133.052 E10.60731
G1 X120.619 Y133.316 E10.61824
G1 X119.99 Y133.506 E10.62917
G1 X119.343 Y133.617 E10.64008
G1 X118.75 Y133.65 E10.64996
G1 X110.25 Y133.65 E10.79132
G1 X109.594 Y133.61 E10.80225
G1 X108.948 Y133.491 E10.81317
G1 X108.321 Y133.294 E10.8241
G1 X107.723 Y133.022 E10.83502
G1 X107.162 Y132.68 E10.84595
G1 X106.647 Y132.272 E10.85688
G1 X106.185 Y131.805 E10.8678
G1 X105.784 Y131.285 E10.87872
G1 X105.448 Y130.721 E10.88964
G1 X105.184 Y130.119 E10.90057
G1 X104.994 Y129.49 E10.9115
G1 X104.883 Y128.843 E10.92241
G1 X104.85 Y128.25 E10.93229
G1 X104.85 Y108.75 E11.25658
G1 X104.89 Y108.094 E11.26751
G1 X105.009 Y107.448 E11.27843
G1 X105.206 Y106.821 E11.28936
G1 X105.478 Y106.223 E11.30029
G1 X105.82 Y105.662 E11.31121
G1 X106.228 Y105.147 E11.32214
G1 X106.695 Y104.685 E11.33306
G1 X107.215 Y104.284 E11.34398
G0 F6000 X107.6 Y104.51
G1 F1200 X108.156 Y104.21 E11.35449
G1 X108.745 Y103.982 E11.36499
G1 X109.359 Y103.83 E11.37551
G1 X110.25 Y103.75 E11.39039
G1 X118.75 Y103.75 E11.53175
G1 X119.381 Y103.79 E11.54226
G1 X120.002 Y103.909 E11.55278
G1 X120.602 Y104.106 E11.56328
G1 X121.174 Y104.377 E11.5738
G1 X121.706 Y104.717 E11.5843
G1 X122.191 Y105.123 E11.59482
G1 X122.621 Y105.586 E11.60533
G1 X122.99 Y106.1 E11.61585
G1 X123.29 Y106.656 E11.62636
G1 X123.518 Y107.245 E11.63686
G1 X123.67 Y107.859 E11.64738
G1 X123.75 Y108.75 E11.66226
G1 X123.75 Y128.25 E11.98654
G1 X123.71 Y128.881 E11.99706
G1 X123.591 Y129.502 E12.00757
G1 X123.394 Y130.102 E12.01808
G1 X123.123 Y130.674 E12.0286
G1 X122.783 Y131.206 E12.0391
G1 X122.377 Y131.691 E12.04962
G1 X121.914 Y132.121 E12.06013
G1 X121.4 Y132.49 E12.07065
G1 X120.844 Y132.79 E12.08116
G1 X120.255 Y133.018 E12.09166
G1 X119.641 Y133.17 E12.10218
G1 X118.75 Y133.25 E12.11706
G1 X110.25 Y133.25 E12.25841
G1 X109.619 Y133.21 E12.26893
G1 X108.998 Y133.091 E12.27944
G1 X108.398 Y132.894 E12.28994
G1 X107.826 Y132.623 E12.30047
G1 X107.294 Y132.283 E12.31097
G1 X106.809 Y131.877 E12.32149
G1 X106.379 Y131.414 E12.332
G1 X106.01 Y130.9 E12.34252
G1 X105.71 Y130.344 E12.35303
G1 X105.482 Y129.755 E12.36353
G1 X105.33 Y129.141 E12.37405
G1 X105.25 Y128.25 E12.38893
G1 X105.25 Y108.75 E12.71321
G1 X105.29 Y108.119 E12.72373
G1 X105.409 Y107.498 E12.73424
G1 X105.606 Y106.898 E12.74474
G1 X105.877 Y106.326 E12.75527
G1 X106.217 Y105.794 E12.76577
G1 X106.623 Y105.309 E12.77629
G1 X107.086 Y104.879 E12.7868
G1 X107.6 Y104.51 E12.79732
G0 F6000 X107.982 Y104.748
G1 F1200 X108.528 Y104.484 E12.8074
G1 X109.104 Y104.295 E12.81749
G1 X109.7 Y104.183 E12.82757
G1 X110.25 Y104.15 E12.83673
G1 X118.75 Y104.15 E12.97809
G1 X119.355 Y104.19 E12.98817
G1 X119.949 Y104.309 E12.99825
G1 X120.523 Y104.505 E13.00833
G1 X121.066 Y104.776 E13.01843
G1 X121.569 Y105.115 E13.02851
G1 X122.022 Y105.517 E13.03859
G1 X122.419 Y105.975 E13.04866
G1 X122.752 Y106.482 E13.05875
G1 X123.016 Y107.028 E13.06884
G1 X123.205 Y107.604 E13.07892
G1 X123.317 Y108.2 E13.089
G1 X123.35 Y108.75 E13.09817
G1 X123.35 Y128.25 E13.42245
G1 X123.31 Y128.855 E13.43254
G1 X123.191 Y129.449 E13.44261
G1 X122.995 Y130.023 E13.4527
