;FLAVOR:Marlin
;TIME:5463
;Filament used: 3.87308m
;Layer height: 0.2
;MINX:78
;MINY:59.998
;MINZ:0.2
;MAXX:157
;MAXY:175.002
;MAXZ:2.8
;Generated with Cura_SteamEngine 5.2.2
M140 S50
M105
M190 S50
M104 S200
M105
M109 S200
M82 ;absolute extrusion mode
; Ender 3 Custom Start G-code
G92 E0 ; Reset Extruder
G28 ; Home all axes
G1 Z2.0 F3000 ; Move Z Axis up little to prevent scratching of Heat Bed
G1 X0.1 Y20 Z0.3 F5000.0 ; Move to start position
G1 X0.1 Y200.0 Z0.3 F1500.0 E15 ; Draw the first line
G1 X0.4 Y200.0 Z0.3 F5000.0 ; Move to side a little
G1 X0.4 Y20 Z0.3 F1500.0 E30 ; Draw the second line
G92 E0 ; Reset Extruder
G1 Z2.0 F3000 ; Move Z Axis up little to prevent scratching of Heat Bed
G1 X5 Y20 Z0.3 F5000.0 ; Move over to prevent blob squish
G92 E0
G92 E0
G1 F2700 E-5
;LAYER_COUNT:14
;LAYER:0
M107
G0 F6000 X83.51 Y68.713 Z0.2
;TYPE:SKIRT
G1 F2700 E0
G1 F1200 X83.89 Y68.264 E0.01956
G1 X84.308 Y67.796 E0.04043
G1 X84.661 Y67.419 E0.05761
G1 X85.085 Y66.987 E0.07775
G1 X85.467 Y66.616 E0.09546
G1 X85.959 Y66.161 E0.11775
G1 X86.352 Y65.815 E0.13516
G1 X86.821 Y65.421 E0.15553
G1 X87.279 Y65.057 E0.17499
G1 X87.826 Y64.645 E0.19777
G1 X88.239 Y64.348 E0.21469
G1 X88.725 Y64.016 E0.23426
G1 X89.192 Y63.714 E0.25276
G1 X89.771 Y63.36 E0.27533
G1 X90.242 Y63.088 E0.29342
G1 X90.792 Y62.788 E0.31426
G1 X91.251 Y62.551 E0.33144
G1 X91.786 Y62.291 E0.35123
G1 X92.269 Y62.071 E0.36888
G1 X92.877 Y61.811 E0.39087
G1 X93.379 Y61.611 E0.40885
G1 X93.951 Y61.399 E0.42913
G1 X94.482 Y61.217 E0.4478
G1 X95.11 Y61.02 E0.4697
G1 X95.625 Y60.872 E0.48752
G1 X96.269 Y60.704 E0.50965
G1 X96.771 Y60.586 E0.52681
G1 X97.296 Y60.475 E0.54465
G1 X97.82 Y60.377 E0.56238
G1 X98.558 Y60.258 E0.58725
G1 X99.128 Y60.182 E0.60637
G1 X99.739 Y60.116 E0.62681
G1 X100.255 Y60.072 E0.64404
G1 X100.882 Y60.034 E0.66493
G1 X101.399 Y60.015 E0.68214
G1 X102.737 Y59.998 E0.72664
G1 X132.443 Y60 E1.71467
G1 X133.437 Y60.013 E1.74773
G1 X134.283 Y60.043 E1.77589
G1 X134.829 Y60.078 E1.79408
G1 X135.441 Y60.133 E1.81452
G1 X135.948 Y60.191 E1.83149
G1 X136.576 Y60.277 E1.85258
G1 X137.112 Y60.364 E1.87064
G1 X137.757 Y60.485 E1.89246
G1 X138.333 Y60.609 E1.91206
G1 X138.965 Y60.763 E1.9337
G1 X139.458 Y60.895 E1.95067
G1 X140.068 Y61.074 E1.97182
G1 X140.575 Y61.236 E1.98952
G1 X141.146 Y61.434 E2.00962
G1 X141.67 Y61.631 E2.02824
G1 X142.285 Y61.88 E2.05031
G1 X142.775 Y62.092 E2.06806
G1 X143.363 Y62.364 E2.08961
G1 X143.829 Y62.593 E2.10688
G1 X144.395 Y62.888 E2.12811
G1 X144.879 Y63.157 E2.14653
G1 X145.402 Y63.464 E2.1667
G1 X145.841 Y63.735 E2.18386
G1 X146.381 Y64.087 E2.2053
G1 X146.834 Y64.399 E2.22359
G1 X147.326 Y64.756 E2.24381
G1 X147.761 Y65.088 E2.26201
G1 X148.303 Y65.524 E2.28515
G1 X148.726 Y65.882 E2.30358
G1 X149.194 Y66.299 E2.32443
G1 X149.583 Y66.663 E2.34215
G1 X150.027 Y67.099 E2.36284
G1 X150.394 Y67.477 E2.38037
G1 X150.84 Y67.959 E2.40221
G1 X151.199 Y68.367 E2.42028
G1 X151.591 Y68.835 E2.44059
G1 X151.946 Y69.282 E2.45957
G1 X152.351 Y69.82 E2.48197
G1 X152.638 Y70.22 E2.49834
G1 X152.975 Y70.712 E2.51818
G1 X153.286 Y71.193 E2.53723
G1 X153.641 Y71.774 E2.55988
G1 X153.912 Y72.242 E2.57786
G1 X154.212 Y72.792 E2.5987
G1 X154.445 Y73.244 E2.61561
G1 X154.705 Y73.778 E2.63537
G1 X154.932 Y74.274 E2.65351
G1 X155.192 Y74.883 E2.67553
G1 X155.389 Y75.379 E2.69329
G1 X155.601 Y75.951 E2.71357
G1 X155.775 Y76.458 E2.7314
G1 X155.971 Y77.078 E2.75303
G1 X156.131 Y77.634 E2.77227
G1 X156.3 Y78.286 E2.79468
G1 X156.418 Y78.789 E2.81186
G1 X156.544 Y79.39 E2.83228
G1 X156.641 Y79.917 E2.85011
G1 X156.741 Y80.545 E2.87126
G1 X156.813 Y81.085 E2.88938
G1 X156.882 Y81.719 E2.91059
G1 X156.927 Y82.238 E2.92791
G1 X156.966 Y82.876 E2.94917
G1 X156.985 Y83.399 E2.96658
G1 X157 Y84.589 E3.00616
G1 X156.999 Y150.541 E5.19974
G1 X156.979 Y151.741 E5.23965
G1 X156.956 Y152.301 E5.25829
G1 X156.921 Y152.828 E5.27586
G1 X156.867 Y153.433 E5.29606
G1 X156.81 Y153.945 E5.3132
G1 X156.724 Y154.574 E5.33431
G1 X156.639 Y155.099 E5.352
G1 X156.522 Y155.727 E5.37325
G1 X156.401 Y156.292 E5.39247
G1 X156.249 Y156.922 E5.41402
G1 X156.11 Y157.444 E5.43199
G1 X155.921 Y158.087 E5.45428
G1 X155.747 Y158.625 E5.47309
G1 X155.538 Y159.221 E5.49409
G1 X155.355 Y159.707 E5.51137
G1 X155.128 Y160.268 E5.53149
G1 X154.927 Y160.733 E5.54834
G1 X154.662 Y161.31 E5.56946
G1 X154.414 Y161.815 E5.58817
G1 X154.104 Y162.408 E5.61043
G1 X153.842 Y162.882 E5.62844
G1 X153.522 Y163.427 E5.64946
G1 X153.247 Y163.87 E5.66681
G1 X152.903 Y164.397 E5.68774
G1 X152.593 Y164.847 E5.70591
G1 X152.259 Y165.307 E5.72482
G1 X151.945 Y165.719 E5.74205
G1 X151.499 Y166.276 E5.76578
G1 X151.124 Y166.72 E5.78511
G1 X150.706 Y167.189 E5.80601
G1 X150.354 Y167.565 E5.82314
G1 X149.934 Y167.994 E5.84311
G1 X149.558 Y168.36 E5.86056
G1 X149.055 Y168.827 E5.88339
G1 X148.617 Y169.213 E5.9028
G1 X148.147 Y169.605 E5.92316
G1 X147.725 Y169.94 E5.94108
G1 X147.188 Y170.345 E5.96345
G1 X146.776 Y170.641 E5.98033
G1 X146.282 Y170.979 E6.00023
G1 X145.808 Y171.286 E6.01902
G1 X145.229 Y171.64 E6.04159
G1 X144.758 Y171.912 E6.05968
G1 X144.208 Y172.212 E6.08052
G1 X143.749 Y172.449 E6.0977
G1 X143.214 Y172.709 E6.11748
G1 X142.731 Y172.929 E6.13513
G1 X142.123 Y173.189 E6.15713
G1 X141.621 Y173.389 E6.1751
G1 X141.049 Y173.601 E6.19539
G1 X140.546 Y173.774 E6.21308
G1 X139.93 Y173.969 E6.23457
G1 X139.369 Y174.13 E6.25398
G1 X138.713 Y174.3 E6.27652
G1 X138.229 Y174.414 E6.29306
G1 X137.704 Y174.525 E6.31091
G1 X137.18 Y174.623 E6.32864
G1 X136.442 Y174.742 E6.3535
G1 X135.872 Y174.818 E6.37263
G1 X135.261 Y174.884 E6.39307
G1 X134.745 Y174.928 E6.41029
G1 X134.118 Y174.966 E6.43119
G1 X133.601 Y174.985 E6.44839
G1 X132.262 Y175.002 E6.49293
G1 X102.475 Y174.999 E7.48365
G1 X101.323 Y174.982 E7.52197
G1 X100.76 Y174.96 E7.54071
G1 X100.225 Y174.926 E7.55854
G1 X99.578 Y174.869 E7.58014
G1 X99.036 Y174.807 E7.59829
G1 X98.378 Y174.716 E7.62038
G1 X97.824 Y174.625 E7.63906
G1 X97.216 Y174.509 E7.65964
G1 X96.701 Y174.398 E7.67716
G1 X96.095 Y174.252 E7.6979
G1 X95.604 Y174.122 E7.71479
G1 X94.96 Y173.935 E7.73709
G1 X94.391 Y173.753 E7.75696
G1 X93.78 Y173.539 E7.7785
G1 X93.305 Y173.36 E7.79538
G1 X92.749 Y173.136 E7.81532
G1 X92.256 Y172.923 E7.83318
G1 X91.668 Y172.652 E7.85471
G1 X91.199 Y172.422 E7.87209
G1 X90.643 Y172.133 E7.89293
G1 X90.137 Y171.853 E7.91216
G1 X89.561 Y171.514 E7.93439
G1 X89.128 Y171.246 E7.95133
G1 X88.604 Y170.904 E7.97214
G1 X88.153 Y170.593 E7.99036
G1 X87.693 Y170.259 E8.00927
G1 X87.279 Y169.943 E8.02659
G1 X86.721 Y169.496 E8.05037
G1 X86.28 Y169.124 E8.06956
G1 X85.812 Y168.707 E8.09041
G1 X85.424 Y168.344 E8.10808
G1 X84.987 Y167.915 E8.12845
G1 X84.618 Y167.535 E8.14607
G1 X84.161 Y167.041 E8.16845
G1 X83.802 Y166.633 E8.18653
G1 X83.411 Y166.166 E8.20678
G1 X83.064 Y165.729 E8.22534
G1 X82.646 Y165.175 E8.24843
G1 X82.345 Y164.756 E8.26558
G1 X82.017 Y164.276 E8.28492
G1 X81.714 Y163.808 E8.30346
G1 X81.36 Y163.229 E8.32604
G1 X81.107 Y162.792 E8.34283
G1 X80.843 Y162.312 E8.36105
G1 X80.6 Y161.845 E8.37856
G1 X80.304 Y161.24 E8.40096
G1 X80.071 Y160.731 E8.41958
G1 X79.811 Y160.123 E8.44157
G1 X79.604 Y159.602 E8.46022
G1 X79.381 Y158.997 E8.48167
G1 X79.206 Y158.484 E8.49969
G1 X79.021 Y157.894 E8.52026
G1 X78.868 Y157.358 E8.5388
G1 X78.697 Y156.697 E8.56151
G1 X78.583 Y156.212 E8.57808
G1 X78.459 Y155.624 E8.59807
G1 X78.358 Y155.081 E8.61644
G1 X78.258 Y154.452 E8.63762
G1 X78.187 Y153.915 E8.65564
G1 X78.118 Y153.281 E8.67685
G1 X78.073 Y152.761 E8.69421
G1 X78.034 Y152.122 E8.7155
G1 X78.015 Y151.6 E8.73287
G1 X78 Y150.411 E8.77242
G1 X78.001 Y84.459 E10.96599
G1 X78.021 Y83.259 E11.00591
G1 X78.044 Y82.699 E11.02455
G1 X78.078 Y82.18 E11.04185
G1 X78.131 Y81.581 E11.06185
G1 X78.192 Y81.044 E11.07983
G1 X78.284 Y80.379 E11.10216
G1 X78.376 Y79.817 E11.1211
G1 X78.498 Y79.18 E11.14267
G1 X78.612 Y78.655 E11.16054
G1 X78.76 Y78.045 E11.18142
G1 X78.895 Y77.542 E11.19874
G1 X79.074 Y76.932 E11.21988
G1 X79.236 Y76.425 E11.23758
G1 X79.434 Y75.854 E11.25769
G1 X79.631 Y75.33 E11.27631
G1 X79.88 Y74.715 E11.29837
G1 X80.092 Y74.225 E11.31613
G1 X80.364 Y73.637 E11.33768
G1 X80.59 Y73.177 E11.35473
G1 X80.884 Y72.612 E11.37591
G1 X81.164 Y72.107 E11.39511
G1 X81.488 Y71.557 E11.41635
G1 X81.754 Y71.128 E11.43313
G1 X82.096 Y70.604 E11.45395
G1 X82.407 Y70.153 E11.47217
G1 X82.741 Y69.693 E11.49107
G1 X83.058 Y69.277 E11.50847
G1 X83.51 Y68.713 E11.53251
G0 F6000 X83.823 Y68.963
G1 F1200 X84.188 Y68.531 E11.55132
G1 X84.606 Y68.063 E11.57219
G1 X84.947 Y67.699 E11.58878
G1 X85.371 Y67.267 E11.60891
G1 X85.739 Y66.91 E11.62597
G1 X86.231 Y66.455 E11.64825
G1 X86.61 Y66.121 E11.66506
G1 X87.079 Y65.727 E11.68543
G1 X87.52 Y65.376 E11.70418
G1 X88.067 Y64.964 E11.72695
G1 X88.465 Y64.678 E11.74325
G1 X88.951 Y64.346 E11.76283
G1 X89.401 Y64.055 E11.78065
G1 X89.98 Y63.701 E11.80323
G1 X90.433 Y63.439 E11.82063
G1 X90.983 Y63.139 E11.84147
G1 X91.426 Y62.911 E11.85804
G1 X91.961 Y62.651 E11.87782
G1 X92.426 Y62.439 E11.89482
G1 X93.034 Y62.179 E11.91681
G1 X93.518 Y61.986 E11.93414
G1 X94.09 Y61.774 E11.95443
G1 X94.601 Y61.599 E11.9724
G1 X95.229 Y61.402 E11.99429
G1 X95.726 Y61.259 E12.01149
G1 X96.37 Y61.091 E12.03363
G1 X96.853 Y60.977 E12.05013
G1 X97.378 Y60.866 E12.06798
G1 X97.884 Y60.772 E12.0851
G1 X98.622 Y60.653 E12.10996
G1 X99.171 Y60.579 E12.12839
G1 X99.782 Y60.513 E12.14883
G1 X100.279 Y60.471 E12.16542
G1 X100.906 Y60.433 E12.18631
G1 X101.404 Y60.415 E12.20288
G1 X102.737 Y60.398 E12.24722
G1 X132.438 Y60.4 E13.23508
G1 X133.716 Y60.42 E13.27759
G1 X134.267 Y60.442 E13.29593
G1 X134.793 Y60.477 E13.31347
G1 X135.405 Y60.532 E13.3339
G1 X135.894 Y60.587 E13.35027
G1 X136.522 Y60.673 E13.37135
G1 X137.038 Y60.757 E13.38874
G1 X137.683 Y60.878 E13.41057
G1 X138.238 Y60.997 E13.42945
G1 X138.87 Y61.151 E13.45108
G1 X139.346 Y61.279 E13.46748
G1 X139.956 Y61.458 E13.48862
G1 X140.444 Y61.614 E13.50566
G1 X141.015 Y61.812 E13.52576
G1 X141.52 Y62.002 E13.54371
G1 X142.135 Y62.251 E13.56578
G1 X142.607 Y62.455 E13.58288
G1 X143.195 Y62.727 E13.60443
G1 X143.644 Y62.948 E13.62107
G1 X144.21 Y63.243 E13.6423
G1 X144.677 Y63.502 E13.66006
G1 X145.2 Y63.809 E13.68023
G1 X145.622 Y64.07 E13.69674
G1 X146.162 Y64.422 E13.71818
G1 X146.599 Y64.723 E13.73582
G1 X147.091 Y65.08 E13.75604
G1 X147.51 Y65.4 E13.77358
G1 X148.052 Y65.836 E13.79671
G1 X148.46 Y66.181 E13.81448
G1 X148.928 Y66.598 E13.83533
G1 X149.303 Y66.949 E13.85242
G1 X149.747 Y67.385 E13.87311
G1 X150.1 Y67.749 E13.88998
G1 X150.546 Y68.231 E13.91182
G1 X150.892 Y68.624 E13.92924
G1 X151.284 Y69.092 E13.94954
G1 X151.627 Y69.523 E13.96786
G1 X152.032 Y70.061 E13.99026
G1 X152.308 Y70.446 E14.00601
G1 X152.645 Y70.938 E14.02585
G1 X152.945 Y71.401 E14.0442
G1 X153.3 Y71.982 E14.06684
G1 X153.561 Y72.433 E14.08417
G1 X153.861 Y72.983 E14.10501
G1 X154.085 Y73.419 E14.12132
G1 X154.345 Y73.953 E14.14107
G1 X154.564 Y74.431 E14.15856
G1 X154.824 Y75.04 E14.18058
G1 X155.014 Y75.518 E14.19769
G1 X155.226 Y76.09 E14.21798
G1 X155.394 Y76.579 E14.23518
G1 X155.59 Y77.199 E14.2568
G1 X155.744 Y77.734 E14.27532
G1 X155.913 Y78.386 E14.29772
G1 X156.026 Y78.871 E14.31429
G1 X156.152 Y79.472 E14.33471
G1 X156.246 Y79.98 E14.35189
G1 X156.346 Y80.608 E14.37304
G1 X156.416 Y81.128 E14.39049
G1 X156.485 Y81.762 E14.41171
G1 X156.527 Y82.262 E14.42839
G1 X156.566 Y82.9 E14.44965
G1 X156.585 Y83.405 E14.46646
G1 X156.6 Y84.589 E14.50585
G1 X156.599 Y150.536 E16.69925
G1 X156.587 Y151.432 E16.72906
G1 X156.556 Y152.285 E16.75744
G1 X156.523 Y152.792 E16.77434
G1 X156.469 Y153.397 E16.79455
G1 X156.413 Y153.891 E16.81108
G1 X156.327 Y154.52 E16.8322
G1 X156.246 Y155.025 E16.84921
G1 X156.129 Y155.653 E16.87045
G1 X156.012 Y156.198 E16.88899
G1 X155.86 Y156.828 E16.91055
G1 X155.726 Y157.331 E16.92786
G1 X155.537 Y157.974 E16.95015
G1 X155.37 Y158.493 E16.96829
G1 X155.161 Y159.089 E16.98929
G1 X154.984 Y159.557 E17.00594
G1 X154.757 Y160.118 E17.02606
G1 X154.564 Y160.566 E17.04229
G1 X154.299 Y161.143 E17.06341
G1 X154.06 Y161.63 E17.08145
G1 X153.75 Y162.223 E17.10371
G1 X153.497 Y162.679 E17.12105
G1 X153.177 Y163.224 E17.14207
G1 X152.912 Y163.651 E17.15879
G1 X152.568 Y164.178 E17.17972
G1 X152.269 Y164.612 E17.19725
G1 X151.935 Y165.072 E17.21615
G1 X151.632 Y165.469 E17.23276
G1 X151.186 Y166.026 E17.2565
G1 X150.825 Y166.454 E17.27512
G1 X150.407 Y166.923 E17.29602
G1 X150.068 Y167.285 E17.31251
G1 X149.648 Y167.714 E17.33248
G1 X149.286 Y168.067 E17.3493
G1 X148.783 Y168.534 E17.37213
G1 X148.36 Y168.906 E17.39086
G1 X147.89 Y169.298 E17.41122
G1 X147.484 Y169.621 E17.42847
G1 X146.947 Y170.026 E17.45084
G1 X146.55 Y170.311 E17.4671
G1 X146.056 Y170.649 E17.48701
G1 X145.599 Y170.945 E17.50512
G1 X145.02 Y171.299 E17.52769
G1 X144.567 Y171.561 E17.54509
G1 X144.017 Y171.861 E17.56593
G1 X143.574 Y172.089 E17.5825
G1 X143.039 Y172.349 E17.60229
G1 X142.574 Y172.561 E17.61928
G1 X141.966 Y172.821 E17.64128
G1 X141.482 Y173.014 E17.65861
G1 X140.91 Y173.226 E17.6789
G1 X140.425 Y173.393 E17.69596
G1 X139.809 Y173.588 E17.71745
G1 X139.269 Y173.743 E17.73613
G1 X138.613 Y173.913 E17.75867
G1 X138.147 Y174.023 E17.7746
G1 X137.622 Y174.134 E17.79245
G1 X137.116 Y174.228 E17.80956
G1 X136.378 Y174.347 E17.83443
G1 X135.829 Y174.421 E17.85285
G1 X135.218 Y174.487 E17.87329
G1 X134.721 Y174.529 E17.88988
G1 X134.094 Y174.567 E17.91077
G1 X133.596 Y174.585 E17.92735
G1 X132.262 Y174.602 E17.97172
G1 X102.479 Y174.599 E18.96231
G1 X101.339 Y174.582 E19.00023
G1 X100.776 Y174.56 E19.01897
G1 X100.26 Y174.527 E19.03616
G1 X99.613 Y174.47 E19.05777
G1 X99.091 Y174.411 E19.07524
G1 X98.433 Y174.32 E19.09733
G1 X97.898 Y174.232 E19.11537
G1 X97.29 Y174.116 E19.13595
G1 X96.794 Y174.009 E19.15283
G1 X96.188 Y173.863 E19.17356
G1 X95.715 Y173.738 E19.18983
G1 X95.071 Y173.551 E19.21214
G1 X94.523 Y173.375 E19.23128
G1 X93.912 Y173.161 E19.25281
G1 X93.455 Y172.989 E19.26905
G1 X92.899 Y172.765 E19.28899
G1 X92.423 Y172.56 E19.30623
G1 X91.835 Y172.289 E19.32776
G1 X91.383 Y172.067 E19.34451
G1 X90.827 Y171.778 E19.36535
G1 X90.34 Y171.508 E19.38387
G1 X89.764 Y171.169 E19.4061
G1 X89.346 Y170.911 E19.42244
G1 X88.822 Y170.569 E19.44325
G1 X88.388 Y170.269 E19.4608
G1 X87.928 Y169.935 E19.47971
G1 X87.529 Y169.631 E19.49639
G1 X86.971 Y169.184 E19.52017
G1 X86.546 Y168.825 E19.53868
G1 X86.078 Y168.408 E19.55952
G1 X85.704 Y168.058 E19.57656
G1 X85.267 Y167.629 E19.59693
G1 X84.912 Y167.263 E19.61389
G1 X84.455 Y166.769 E19.63627
G1 X84.109 Y166.376 E19.65369
G1 X83.718 Y165.909 E19.67394
G1 X83.383 Y165.488 E19.69184
G1 X82.965 Y164.934 E19.71492
G1 X82.675 Y164.53 E19.73146
G1 X82.347 Y164.05 E19.7508
G1 X82.055 Y163.599 E19.76867
G1 X81.701 Y163.02 E19.79124
G1 X81.457 Y162.599 E19.80742
G1 X81.193 Y162.119 E19.82564
G1 X80.96 Y161.669 E19.8425
G1 X80.664 Y161.064 E19.8649
G1 X80.439 Y160.574 E19.88283
G1 X80.179 Y159.966 E19.90483
G1 X79.979 Y159.464 E19.9228
G1 X79.756 Y158.859 E19.94425
G1 X79.588 Y158.364 E19.96163
G1 X79.403 Y157.774 E19.9822
G1 X79.255 Y157.258 E20.00005
G1 X79.084 Y156.597 E20.02276
G1 X78.974 Y156.129 E20.03875
G1 X78.85 Y155.541 E20.05874
G1 X78.753 Y155.018 E20.07643
G1 X78.653 Y154.389 E20.09761
G1 X78.584 Y153.872 E20.11496
G1 X78.515 Y153.238 E20.13617
G1 X78.473 Y152.737 E20.15289
G1 X78.434 Y152.098 E20.17419
G1 X78.415 Y151.595 E20.19093
G1 X78.4 Y150.411 E20.23031
G1 X78.401 Y84.464 E22.42372
G1 X78.413 Y83.568 E22.45352
G1 X78.444 Y82.715 E22.48191
G1 X78.476 Y82.216 E22.49854
G1 X78.529 Y81.617 E22.51854
G1 X78.588 Y81.098 E22.53592
G1 X78.68 Y80.433 E22.55824
G1 X78.769 Y79.892 E22.57648
G1 X78.891 Y79.255 E22.59805
G1 X79.001 Y78.75 E22.61524
G1 X79.149 Y78.14 E22.63612
G1 X79.279 Y77.654 E22.65285
G1 X79.458 Y77.044 E22.674
G1 X79.614 Y76.556 E22.69104
G1 X79.812 Y75.985 E22.71114
G1 X80.002 Y75.48 E22.72908
G1 X80.251 Y74.865 E22.75115
G1 X80.455 Y74.393 E22.76825
G1 X80.727 Y73.805 E22.7898
G1 X80.945 Y73.362 E22.80622
G1 X81.239 Y72.797 E22.82741
G1 X81.509 Y72.31 E22.84593
G1 X81.833 Y71.76 E22.86716
G1 X82.089 Y71.346 E22.88335
