;FLAVOR:Marlin
;TIME:9907
;Filament used: 4.67183m
;Layer height: 0.2
;MINX:81.45
;MINY:59.706
;MINZ:0.2
;MAXX:153.55
;MAXY:175.294
;MAXZ:3.2
;Generated with Cura_SteamEngine 5.2.2
M140 S50
M105
M190 S50
M104 S200
M105
M109 S200
M82 ;absolute extrusion mode
; Ender 3 Custom Start G-code
G92 E0 ; Reset Extruder
G28 ; Home all axes
G1 Z2.0 F3000 ; Move Z Axis up little to prevent scratching of Heat Bed
G1 X0.1 Y20 Z0.3 F5000.0 ; Move to start position
G1 X0.1 Y200.0 Z0.3 F1500.0 E15 ; Draw the first line
G1 X0.4 Y200.0 Z0.3 F5000.0 ; Move to side a little
G1 X0.4 Y20 Z0.3 F1500.0 E30 ; Draw the second line
G92 E0 ; Reset Extruder
G1 Z2.0 F3000 ; Move Z Axis up little to prevent scratching of Heat Bed
G1 X5 Y20 Z0.3 F5000.0 ; Move over to prevent blob squish
G92 E0
G92 E0
G1 F2700 E-5
;LAYER_COUNT:16
;LAYER:0
M107
G0 F6000 X92.047 Y72.687 Z0.2
;TYPE:SKIRT
G1 F2700 E0
G1 F1200 X92.284 Y72.396 E0.01248
G1 X93.302 Y71.209 E0.06449
G1 X93.55 Y70.933 E0.07683
G1 X94.608 Y69.812 E0.1281
G1 X94.878 Y69.541 E0.14083
G1 X95.867 Y68.591 E0.18644
G1 X96.114 Y68.363 E0.19762
G1 X97.029 Y67.557 E0.23817
G1 X97.274 Y67.35 E0.24884
G1 X98.213 Y66.589 E0.28904
G1 X98.489 Y66.375 E0.30066
G1 X99.45 Y65.665 E0.3404
G1 X100.699 Y64.814 E0.39067
G1 X101.008 Y64.615 E0.40289
G1 X102.008 Y64.006 E0.44183
G1 X102.303 Y63.835 E0.45317
G1 X103.32 Y63.275 E0.49179
G1 X103.643 Y63.107 E0.5039
G1 X104.677 Y62.599 E0.54221
G1 X105.022 Y62.44 E0.55485
G1 X106.068 Y61.988 E0.59275
G1 X106.412 Y61.849 E0.60509
G1 X107.471 Y61.45 E0.64273
G1 X107.833 Y61.323 E0.65549
G1 X108.906 Y60.978 E0.69298
G1 X109.276 Y60.87 E0.7058
G1 X110.355 Y60.581 E0.74295
G1 X110.711 Y60.494 E0.75514
G1 X111.692 Y60.28 E0.78853
G1 X112.02 Y60.216 E0.79965
G1 X112.907 Y60.062 E0.82959
G1 X113.231 Y60.013 E0.84049
G1 X114.432 Y59.862 E0.88075
G1 X115.324 Y59.782 E0.91054
G1 X116.537 Y59.717 E0.95094
G1 X116.861 Y59.708 E0.96172
G1 X118.067 Y59.706 E1.00183
G1 X118.933 Y59.735 E1.03065
G1 X119.272 Y59.754 E1.04194
G1 X120.192 Y59.825 E1.07263
G1 X121.43 Y59.966 E1.11408
G1 X121.752 Y60.011 E1.12489
G1 X122.938 Y60.208 E1.16488
G1 X124.113 Y60.452 E1.20479
G1 X125.289 Y60.747 E1.24512
G1 X126.161 Y60.998 E1.2753
G1 X127.324 Y61.378 E1.31599
G1 X128.47 Y61.802 E1.35663
G1 X128.774 Y61.923 E1.36752
G1 X129.651 Y62.295 E1.3992
G1 X130.716 Y62.787 E1.43822
G1 X130.988 Y62.92 E1.44829
G1 X132.084 Y63.49 E1.48938
G1 X133.153 Y64.1 E1.53031
G1 X134.19 Y64.742 E1.57088
G1 X135.228 Y65.436 E1.61241
G1 X136.012 Y65.999 E1.64451
G1 X137.234 Y66.944 E1.69589
G1 X138.17 Y67.726 E1.73646
G1 X138.909 Y68.383 E1.76935
G1 X139.818 Y69.24 E1.8109
G1 X140.714 Y70.143 E1.85321
G1 X141.574 Y71.069 E1.89524
G1 X142.415 Y72.035 E1.93784
G1 X143.375 Y73.215 E1.98844
G1 X144.162 Y74.256 E2.03184
G1 X144.877 Y75.261 E2.07286
G1 X145.469 Y76.14 E2.10811
G1 X146.285 Y77.435 E2.15902
G1 X146.936 Y78.543 E2.20176
G1 X147.461 Y79.49 E2.23778
G1 X148.07 Y80.663 E2.28174
G1 X148.81 Y82.204 E2.33859
G1 X148.936 Y82.482 E2.34874
G1 X149.711 Y84.298 E2.41442
G1 X150.313 Y85.866 E2.47028
G1 X150.961 Y87.757 E2.53676
G1 X151.053 Y88.044 E2.54679
G1 X151.619 Y89.968 E2.61349
G1 X152.045 Y91.633 E2.67065
G1 X152.477 Y93.603 E2.73773
G1 X152.534 Y93.89 E2.74747
G1 X152.838 Y95.6 E2.80523
G1 X153.124 Y97.606 E2.87263
G1 X153.159 Y97.892 E2.88221
G1 X153.362 Y99.919 E2.94997
G1 X153.489 Y101.898 E3.01592
G1 X153.531 Y103.057 E3.0545
G1 X153.55 Y104.5 E3.1025
G1 X153.548 Y130.677 E3.97315
G1 X153.498 Y132.878 E4.04637
G1 X153.482 Y133.234 E4.05822
G1 X153.332 Y135.426 E4.1313
G1 X153.3 Y135.779 E4.14309
G1 X153.051 Y137.958 E4.21603
G1 X153.001 Y138.317 E4.22809
G1 X152.653 Y140.47 E4.30063
G1 X152.587 Y140.824 E4.3126
G1 X152.142 Y142.948 E4.38478
G1 X152.059 Y143.305 E4.39697
G1 X151.519 Y145.389 E4.46858
G1 X151.416 Y145.751 E4.4811
G1 X150.781 Y147.791 E4.55216
G1 X150.661 Y148.146 E4.56462
G1 X149.937 Y150.131 E4.6349
G1 X149.799 Y150.482 E4.64744
G1 X149.068 Y152.22 E4.71015
G1 X148.932 Y152.525 E4.72126
G1 X148.216 Y154.042 E4.77705
G1 X148.07 Y154.336 E4.78797
G1 X147.299 Y155.806 E4.84318
G1 X147.133 Y156.106 E4.85458
G1 X146.308 Y157.524 E4.90915
G1 X146.135 Y157.806 E4.92015
G1 X145.26 Y159.173 E4.97413
G1 X145.061 Y159.469 E4.986
G1 X144.136 Y160.778 E5.03931
G1 X143.923 Y161.065 E5.05119
G1 X142.951 Y162.315 E5.10386
G1 X142.713 Y162.607 E5.11639
G1 X141.696 Y163.792 E5.16833
G1 X141.449 Y164.066 E5.1806
G1 X140.39 Y165.188 E5.23191
G1 X140.121 Y165.459 E5.24461
G1 X138.892 Y166.631 E5.3011
G1 X137.978 Y167.438 E5.34165
G1 X136.787 Y168.411 E5.3928
G1 X136.512 Y168.625 E5.40439
G1 X135.551 Y169.335 E5.44413
G1 X135.281 Y169.526 E5.45513
G1 X134.299 Y170.189 E5.49454
G1 X133.994 Y170.384 E5.50658
G1 X132.995 Y170.993 E5.54549
G1 X132.695 Y171.167 E5.55703
G1 X131.679 Y171.726 E5.5956
G1 X131.353 Y171.895 E5.60781
G1 X130.319 Y172.402 E5.64611
G1 X129.979 Y172.559 E5.65857
G1 X128.933 Y173.011 E5.69647
G1 X128.591 Y173.15 E5.70875
G1 X127.53 Y173.55 E5.74646
G1 X127.166 Y173.677 E5.75928
G1 X126.093 Y174.022 E5.79677
G1 X125.73 Y174.129 E5.80936
G1 X124.651 Y174.419 E5.84652
G1 X124.284 Y174.508 E5.85908
G1 X123.305 Y174.721 E5.8924
G1 X122.094 Y174.938 E5.93332
G1 X121.769 Y174.987 E5.94426
G1 X120.569 Y175.138 E5.98448
G1 X119.678 Y175.218 E6.01424
G1 X118.461 Y175.283 E6.05477
G1 X118.138 Y175.292 E6.06552
G1 X116.931 Y175.294 E6.10566
G1 X116.067 Y175.265 E6.13442
G1 X115.729 Y175.246 E6.14568
G1 X114.808 Y175.175 E6.1764
G1 X114.486 Y175.143 E6.18716
G1 X113.252 Y174.99 E6.22852
G1 X112.364 Y174.847 E6.25844
G1 X111.204 Y174.619 E6.29775
G1 X110.013 Y174.334 E6.33849
G1 X109.707 Y174.252 E6.34902
G1 X108.543 Y173.91 E6.38937
G1 X107.677 Y173.623 E6.41972
G1 X106.529 Y173.198 E6.46043
G1 X106.226 Y173.077 E6.47128
G1 X105.351 Y172.706 E6.5029
G1 X104.278 Y172.21 E6.54221
G1 X104.013 Y172.08 E6.55203
G1 X102.915 Y171.509 E6.59319
G1 X102.093 Y171.045 E6.62459
G1 X101.044 Y170.408 E6.66541
G1 X100.011 Y169.729 E6.70652
G1 X98.987 Y169 E6.74833
G1 X97.766 Y168.056 E6.79966
G1 X96.83 Y167.274 E6.84023
G1 X95.901 Y166.442 E6.88171
G1 X94.993 Y165.574 E6.92349
G1 X94.287 Y164.857 E6.95695
G1 X93.426 Y163.93 E6.99903
G1 X92.585 Y162.964 E7.04163
G1 X91.788 Y161.991 E7.08347
G1 X90.975 Y160.929 E7.12795
G1 X90.122 Y159.738 E7.17667
G1 X89.53 Y158.859 E7.21192
G1 X88.713 Y157.562 E7.26291
G1 X88.064 Y156.456 E7.30556
G1 X87.539 Y155.509 E7.34157
G1 X86.931 Y154.34 E7.3854
G1 X86.189 Y152.793 E7.44246
G1 X86.064 Y152.517 E7.45254
G1 X85.289 Y150.701 E7.51821
G1 X84.687 Y149.133 E7.57407
G1 X84.039 Y147.242 E7.64056
G1 X83.947 Y146.955 E7.65058
G1 X83.461 Y145.32 E7.70732
G1 X82.956 Y143.366 E7.77444
G1 X82.466 Y141.11 E7.85123
G1 X82.162 Y139.4 E7.90899
G1 X81.841 Y137.107 E7.986
G1 X81.638 Y135.08 E8.05376
G1 X81.511 Y133.103 E8.11965
G1 X81.469 Y131.945 E8.15819
G1 X81.45 Y130.5 E8.20625
G1 X81.452 Y104.323 E9.0769
G1 X81.502 Y102.122 E9.15013
G1 X81.518 Y101.767 E9.16195
G1 X81.668 Y99.574 E9.23506
G1 X81.701 Y99.22 E9.24688
G1 X81.95 Y97.043 E9.31976
G1 X81.999 Y96.686 E9.33175
G1 X82.347 Y94.531 E9.40435
G1 X82.413 Y94.175 E9.41639
G1 X82.858 Y92.051 E9.48857
G1 X82.941 Y91.694 E9.50076
G1 X83.481 Y89.61 E9.57237
G1 X83.585 Y89.246 E9.58496
G1 X84.22 Y87.208 E9.65596
G1 X84.34 Y86.854 E9.66839
G1 X85.065 Y84.867 E9.73874
G1 X85.202 Y84.517 E9.75124
G1 X85.932 Y82.781 E9.81387
G1 X86.067 Y82.478 E9.82491
G1 X86.783 Y80.96 E9.88073
G1 X86.93 Y80.666 E9.89166
G1 X87.7 Y79.197 E9.94683
G1 X87.866 Y78.896 E9.95826
G1 X88.692 Y77.476 E10.0129
G1 X88.865 Y77.192 E10.02396
G1 X89.739 Y75.827 E10.07787
G1 X89.939 Y75.531 E10.08975
G1 X90.865 Y74.221 E10.14311
G1 X91.076 Y73.936 E10.1549
G1 X92.047 Y72.687 E10.20752
G0 F6000 X92.363 Y72.932
G1 F1200 X92.588 Y72.657 E10.21934
G1 X93.606 Y71.47 E10.27135
G1 X93.841 Y71.208 E10.28306
G1 X94.899 Y70.087 E10.33432
G1 X95.155 Y69.829 E10.34641
G1 X96.144 Y68.879 E10.39202
G1 X96.379 Y68.663 E10.40264
G1 X97.294 Y67.857 E10.4432
G1 X98.465 Y66.9 E10.4935
G1 X98.727 Y66.697 E10.50452
G1 X99.688 Y65.987 E10.54426
G1 X99.943 Y65.807 E10.55464
G1 X100.923 Y65.145 E10.59398
G1 X101.216 Y64.957 E10.60555
G1 X102.216 Y64.348 E10.6445
G1 X102.496 Y64.186 E10.65526
G1 X103.513 Y63.626 E10.69387
G1 X103.819 Y63.466 E10.70536
G1 X104.853 Y62.958 E10.74367
G1 X105.181 Y62.807 E10.75568
G1 X106.227 Y62.355 E10.79358
G1 X106.553 Y62.223 E10.80528
G1 X107.612 Y61.824 E10.84292
G1 X107.956 Y61.704 E10.85504
G1 X109.029 Y61.359 E10.89253
G1 X109.379 Y61.256 E10.90466
G1 X110.458 Y60.967 E10.94181
G1 X110.796 Y60.885 E10.95338
G1 X111.777 Y60.671 E10.98678
G1 X112.088 Y60.61 E10.99732
G1 X113.282 Y60.409 E11.03759
G1 X114.17 Y60.293 E11.06737
G1 X115.36 Y60.181 E11.10713
G1 X115.665 Y60.16 E11.1173
G1 X116.863 Y60.108 E11.15718
G1 X117.756 Y60.102 E11.18688
G1 X118.92 Y60.135 E11.22561
G1 X119.241 Y60.153 E11.23631
G1 X120.161 Y60.224 E11.267
G1 X121.382 Y60.363 E11.30787
G1 X121.688 Y60.406 E11.31815
G1 X122.859 Y60.6 E11.35763
G1 X123.716 Y60.773 E11.3867
G1 X124.897 Y61.057 E11.4271
G1 X126.05 Y61.383 E11.46696
G1 X126.333 Y61.471 E11.47681
G1 X127.47 Y61.853 E11.51671
G1 X128.33 Y62.176 E11.54726
G1 X128.618 Y62.292 E11.55759
G1 X129.732 Y62.769 E11.59789
G1 X130.547 Y63.149 E11.6278
G1 X131.635 Y63.703 E11.66841
G1 X131.888 Y63.839 E11.67797
G1 X132.943 Y64.44 E11.71835
G1 X133.969 Y65.075 E11.75848
G1 X134.994 Y65.761 E11.7995
G1 X135.988 Y66.48 E11.84031
G1 X136.781 Y67.093 E11.87364
G1 X137.711 Y67.859 E11.91372
G1 X138.643 Y68.682 E11.95507
G1 X139.722 Y69.706 E12.00455
G1 X140.429 Y70.424 E12.03806
G1 X141.442 Y71.521 E12.08772
G1 X142.112 Y72.296 E12.1218
G1 X142.902 Y73.261 E12.16328
G1 X143.837 Y74.488 E12.21459
G1 X144.428 Y75.315 E12.24839
G1 X145.137 Y76.363 E12.29048
G1 X145.941 Y77.638 E12.34061
G1 X146.487 Y78.563 E12.37634
G1 X147.214 Y79.876 E12.42626
G1 X147.715 Y80.846 E12.46257
G1 X148.449 Y82.376 E12.51901
G1 X148.569 Y82.64 E12.52865
G1 X149.227 Y84.17 E12.58405
G1 X149.337 Y84.442 E12.59381
G1 X150.038 Y86.281 E12.65927
G1 X150.583 Y87.885 E12.71561
G1 X151.155 Y89.793 E12.78186
G1 X151.231 Y90.067 E12.79132
G1 X151.72 Y91.999 E12.8576
G1 X152.14 Y93.96 E12.92431
G1 X152.444 Y95.67 E12.98207
G1 X152.761 Y97.933 E13.05807
G1 X152.963 Y99.945 E13.12533
G1 X153.078 Y101.694 E13.18363
G1 X153.131 Y103.071 E13.22946
G1 X153.15 Y104.5 E13.27699
G1 X153.15 Y130.5 E14.14176
G1 X153.098 Y132.869 E14.22057
G1 X153.083 Y133.206 E14.23179
G1 X152.933 Y135.398 E14.30487
G1 X152.902 Y135.733 E14.31606
G1 X152.653 Y137.912 E14.389
G1 X152.606 Y138.253 E14.40045
G1 X152.258 Y140.406 E14.47299
G1 X152.196 Y140.742 E14.48435
G1 X151.751 Y142.866 E14.55653
G1 X151.671 Y143.205 E14.56812
G1 X151.131 Y145.289 E14.63972
G1 X151.034 Y145.632 E14.65158
G1 X150.399 Y147.672 E14.72264
G1 X150.285 Y148.009 E14.73447
G1 X149.561 Y149.994 E14.80475
G1 X149.43 Y150.327 E14.81665
G1 X148.699 Y152.065 E14.87936
G1 X148.57 Y152.355 E14.88991
G1 X147.854 Y153.872 E14.94571
G1 X147.715 Y154.15 E14.95605
G1 X146.944 Y155.62 E15.01125
G1 X146.787 Y155.904 E15.02205
G1 X145.962 Y157.322 E15.07661
G1 X145.799 Y157.59 E15.08705
G1 X144.924 Y158.957 E15.14103
G1 X144.734 Y159.239 E15.15234
G1 X143.809 Y160.548 E15.20565
G1 X143.608 Y160.82 E15.2169
G1 X142.636 Y162.07 E15.26956
G1 X142.409 Y162.346 E15.28145
G1 X141.392 Y163.531 E15.33339
G1 X141.158 Y163.791 E15.34502
G1 X140.099 Y164.913 E15.39634
G1 X139.844 Y165.171 E15.4084
G1 X138.855 Y166.121 E15.45401
G1 X138.627 Y166.331 E15.46432
G1 X137.474 Y167.341 E15.5153
G1 X136.536 Y168.101 E15.55546
G1 X136.274 Y168.303 E15.56646
G1 X135.313 Y169.013 E15.6062
G1 X135.057 Y169.194 E15.61663
G1 X134.075 Y169.857 E15.65604
G1 X133.786 Y170.043 E15.66747
G1 X132.787 Y170.652 E15.70638
G1 X131.486 Y171.375 E15.75589
G1 X131.177 Y171.536 E15.76748
G1 X130.143 Y172.043 E15.80578
G1 X129.82 Y172.192 E15.81761
G1 X128.774 Y172.644 E15.85551
G1 X128.449 Y172.775 E15.86716
G1 X127.388 Y173.175 E15.90488
G1 X127.043 Y173.296 E15.91704
G1 X125.97 Y173.641 E15.95452
G1 X125.626 Y173.742 E15.96645
G1 X124.547 Y174.032 E16.00361
G1 X124.199 Y174.117 E16.01553
G1 X123.22 Y174.33 E16.04885
G1 X122.026 Y174.544 E16.08919
G1 X120.828 Y174.707 E16.12941
G1 X119.642 Y174.819 E16.16903
G1 X119.336 Y174.84 E16.17923
G1 X118.136 Y174.892 E16.21918
G1 X117.243 Y174.898 E16.24888
G1 X116.081 Y174.865 E16.28755
G1 X115.76 Y174.847 E16.29824
G1 X114.534 Y174.746 E16.33915
G1 X113.315 Y174.595 E16.38001
G1 X112.14 Y174.4 E16.41962
G1 X110.985 Y174.16 E16.45886
G1 X109.818 Y173.868 E16.49887
G1 X108.669 Y173.53 E16.53871
G1 X107.529 Y173.147 E16.5787
G1 X106.669 Y172.824 E16.60926
G1 X106.382 Y172.709 E16.61954
G1 X105.262 Y172.229 E16.66007
G1 X104.447 Y171.848 E16.68999
G1 X103.364 Y171.296 E16.73042
G1 X103.111 Y171.16 E16.73998
G1 X102.061 Y170.562 E16.78017
G1 X101.253 Y170.067 E16.81168
G1 X100.005 Y169.239 E16.8615
G1 X99.012 Y168.52 E16.90227
G1 X98.219 Y167.907 E16.93561
G1 X97.289 Y167.141 E16.97568
G1 X96.357 Y166.318 E17.01704
G1 X95.278 Y165.293 E17.06654
G1 X94.409 Y164.405 E17.10786
G1 X93.558 Y163.478 E17.14972
G1 X92.888 Y162.703 E17.18379
G1 X91.943 Y161.541 E17.2336
G1 X91.167 Y160.515 E17.27639
G1 X90.454 Y159.515 E17.31724
G1 X89.862 Y158.636 E17.35249
G1 X89.17 Y157.543 E17.39551
G1 X88.414 Y156.262 E17.44499
G1 X87.889 Y155.315 E17.481
G1 X87.287 Y154.157 E17.52441
G1 X86.55 Y152.621 E17.58107
G1 X85.773 Y150.829 E17.64604
G1 X85.663 Y150.557 E17.6558
G1 X84.962 Y148.718 E17.72125
G1 X84.417 Y147.114 E17.7776
G1 X83.768 Y144.93 E17.85338
G1 X83.343 Y143.267 E17.91047
G1 X82.86 Y141.04 E17.98626
G1 X82.556 Y139.33 E18.04403
G1 X82.239 Y137.066 E18.12006
G1 X82.037 Y135.054 E18.18732
G1 X81.922 Y133.306 E18.24558
G1 X81.869 Y131.93 E18.29138
G1 X81.85 Y130.5 E18.33895
G1 X81.85 Y104.5 E19.20371
G1 X81.902 Y102.131 E19.28252
G1 X81.917 Y101.794 E19.29374
G1 X82.067 Y99.601 E19.36685
G1 X82.098 Y99.265 E19.37808
G1 X82.347 Y97.088 E19.45096
G1 X82.394 Y96.749 E19.46234
G1 X82.742 Y94.594 E19.53494
G1 X82.804 Y94.257 E19.54634
G1 X83.249 Y92.133 E19.61852
G1 X83.329 Y91.794 E19.6301
G1 X83.869 Y89.71 E19.70171
G1 X83.967 Y89.365 E19.71363
G1 X84.602 Y87.327 E19.78463
G1 X84.715 Y86.992 E19.79639
G1 X85.44 Y85.005 E19.86674
G1 X85.571 Y84.673 E19.87861
G1 X86.301 Y82.937 E19.94125
G1 X86.429 Y82.648 E19.95176
G1 X87.145 Y81.13 E20.00759
G1 X87.284 Y80.852 E20.01792
G1 X88.054 Y79.383 E20.07309
G1 X88.211 Y79.097 E20.08394
G1 X89.037 Y77.677 E20.13858
G1 X89.202 Y77.408 E20.14907
G1 X90.076 Y76.043 E20.20298
G1 X90.265 Y75.762 E20.21425
G1 X91.191 Y74.452 E20.2676
G1 X91.392 Y74.181 E20.27883
G1 X92.363 Y72.932 E20.33144
G0 F6000 X92.679 Y73.178
G1 F1200 X92.891 Y72.917 E20.34263
G1 X93.909 Y71.73 E20.39464
G1 X94.132 Y71.482 E20.40573
G1 X95.19 Y70.361 E20.457
G1 X95.432 Y70.118 E20.46841
G1 X96.643 Y68.963 E20.52407
G1 X97.558 Y68.157 E20.56462
G1 X98.717 Y67.211 E20.61438
G1 X98.964 Y67.019 E20.62479
G1 X99.925 Y66.309 E20.66453
G1 X101.147 Y65.476 E20.71372
G1 X101.424 Y65.298 E20.72467
G1 X102.424 Y64.689 E20.76361
G1 X103.706 Y63.976 E20.8124
G1 X103.995 Y63.825 E20.82325
G1 X105.029 Y63.317 E20.86156
G1 X105.339 Y63.174 E20.87292
G1 X106.385 Y62.722 E20.91082
G1 X106.694 Y62.598 E20.92189
G1 X107.753 Y62.199 E20.95953
G1 X108.078 Y62.085 E20.97099
G1 X109.151 Y61.74 E21.00847
G1 X109.483 Y61.642 E21.01999
G1 X110.562 Y61.353 E21.05714
G1 X110.881 Y61.276 E21.06805
G1 X112.157 Y61.004 E21.11145
G1 X113.044 Y60.85 E21.14139
G1 X114.222 Y60.69 E21.18093
G1 X115.396 Y60.579 E21.22015
G1 X115.684 Y60.559 E21.22975
G1 X116.866 Y60.508 E21.2691
G1 X117.759 Y60.502 E21.29881
G1 X118.906 Y60.535 E21.33697
G1 X119.211 Y60.552 E21.34713
G1 X120.418 Y60.651 E21.38741
G1 X121.624 Y60.8 E21.42783
G1 X122.78 Y60.992 E21.4668
G1 X123.637 Y61.165 E21.49588
G1 X124.801 Y61.445 E21.5357
G1 X125.939 Y61.767 E21.57504
G1 X127.072 Y62.137 E21.61468
G1 X128.189 Y62.551 E21.6543
G1 X128.461 Y62.66 E21.66405
G1 X129.563 Y63.132 E21.70392
G1 X130.622 Y63.631 E21.74286
G1 X131.691 Y64.187 E21.78293
G1 X132.734 Y64.781 E21.82286
G1 X133.542 Y65.277 E21.85439
