;FLAVOR:Marlin
;TIME:4527
;Filament used: 2.09109m
;Layer height: 0.2
;MINX:81.2
;MINY:58.702
;MINZ:0.2
;MAXX:153.8
;MAXY:176.299
;MAXZ:3.2
;Generated with Cura_SteamEngine 5.2.2
M140 S50
M105
M190 S50
M104 S200
M105
M109 S200
M82 ;absolute extrusion mode
; Ender 3 Custom Start G-code
G92 E0 ; Reset Extruder
G28 ; Home all axes
G1 Z2.0 F3000 ; Move Z Axis up little to prevent scratching of Heat Bed
G1 X0.1 Y20 Z0.3 F5000.0 ; Move to start position
G1 X0.1 Y200.0 Z0.3 F1500.0 E15 ; Draw the first line
G1 X0.4 Y200.0 Z0.3 F5000.0 ; Move to side a little
G1 X0.4 Y20 Z0.3 F1500.0 E30 ; Draw the second line
G92 E0 ; Reset Extruder
G1 Z2.0 F3000 ; Move Z Axis up little to prevent scratching of Heat Bed
G1 X5 Y20 Z0.3 F5000.0 ; Move over to prevent blob squish
G92 E0
G92 E0
G1 F2700 E-5
;LAYER_COUNT:16
;LAYER:0
M107
G0 F6000 X101.448 Y67.048 Z0.2
;TYPE:SKIRT
G1 F2700 E0
G1 F1200 X101.851 Y66.44 E0.02426
G1 X102.241 Y65.896 E0.04652
G1 X102.5 Y65.555 E0.06077
G1 X102.888 Y65.078 E0.08122
G1 X103.273 Y64.636 E0.10071
G1 X103.507 Y64.381 E0.11222
G1 X103.79 Y64.089 E0.12575
G1 X104.282 Y63.606 E0.14868
G1 X104.593 Y63.317 E0.1628
G1 X105.017 Y62.948 E0.1815
G1 X105.47 Y62.578 E0.20095
G1 X105.743 Y62.366 E0.21245
G1 X106.08 Y62.119 E0.22634
G1 X106.629 Y61.738 E0.24857
G1 X106.96 Y61.52 E0.26175
G1 X107.603 Y61.133 E0.28671
G1 X108.207 Y60.8 E0.30965
G1 X108.852 Y60.475 E0.33367
G1 X109.401 Y60.226 E0.35372
G1 X109.945 Y59.999 E0.37333
G1 X110.776 Y59.694 E0.40277
G1 X111.082 Y59.593 E0.41349
G1 X111.657 Y59.42 E0.43346
G1 X112.276 Y59.257 E0.45475
G1 X112.853 Y59.127 E0.47442
G1 X113.221 Y59.055 E0.4869
G1 X113.875 Y58.944 E0.50896
G1 X114.316 Y58.882 E0.52377
G1 X114.93 Y58.817 E0.54431
G1 X115.476 Y58.773 E0.56253
G1 X116.223 Y58.73 E0.58741
G1 X117.392 Y58.702 E0.6263
G1 X117.738 Y58.702 E0.63781
G1 X118.683 Y58.725 E0.66925
G1 X119.049 Y58.743 E0.68144
G1 X119.972 Y58.809 E0.71222
G1 X120.339 Y58.844 E0.72448
G1 X121.176 Y58.951 E0.75254
G1 X121.62 Y59.024 E0.76751
G1 X122.42 Y59.186 E0.79466
G1 X122.782 Y59.272 E0.80703
G1 X123.518 Y59.472 E0.8324
G1 X124.313 Y59.725 E0.86015
G1 X124.737 Y59.878 E0.87514
G1 X125.401 Y60.14 E0.89888
G1 X125.783 Y60.306 E0.91274
G1 X126.477 Y60.636 E0.9383
G1 X126.878 Y60.843 E0.95331
G1 X127.201 Y61.02 E0.96556
G1 X127.878 Y61.419 E0.99169
G1 X128.406 Y61.759 E1.01258
G1 X128.69 Y61.953 E1.02402
G1 X129.157 Y62.29 E1.04317
G1 X129.666 Y62.686 E1.06462
G1 X130.108 Y63.054 E1.08375
G1 X130.58 Y63.474 E1.10477
G1 X131.035 Y63.911 E1.12575
G1 X131.298 Y64.18 E1.13826
G1 X131.754 Y64.67 E1.16052
G1 X132.012 Y64.962 E1.17348
G1 X132.41 Y65.443 E1.19425
G1 X132.78 Y65.922 E1.21438
G1 X132.969 Y66.181 E1.22504
G1 X133.463 Y66.908 E1.25428
G1 X133.784 Y67.425 E1.27452
G1 X133.958 Y67.723 E1.286
G1 X134.236 Y68.229 E1.3052
G1 X134.515 Y68.779 E1.32571
G1 X134.778 Y69.349 E1.34659
G1 X134.918 Y69.678 E1.35848
G1 X135.165 Y70.299 E1.38071
G1 X135.314 Y70.709 E1.39522
G1 X135.494 Y71.257 E1.4144
G1 X135.669 Y71.852 E1.43503
G1 X135.757 Y72.186 E1.44652
G1 X135.893 Y72.767 E1.46637
G1 X136.01 Y73.357 E1.48637
G1 X136.106 Y73.933 E1.50579
G1 X136.19 Y74.578 E1.52743
G1 X136.244 Y75.154 E1.54667
G1 X136.281 Y75.733 E1.56597
G1 X136.299 Y76.402 E1.58823
G1 X136.3 Y87.078 E1.94331
G1 X136.312 Y87.399 E1.954
G1 X136.417 Y87.926 E1.97187
G1 X136.667 Y88.399 E1.98966
G1 X150.289 Y106.703 E2.74854
G1 X150.664 Y107.228 E2.77
G1 X150.891 Y107.565 E2.78352
G1 X151.155 Y107.981 E2.7999
G1 X151.351 Y108.307 E2.81256
G1 X151.772 Y109.066 E2.84142
G1 X151.995 Y109.507 E2.85786
G1 X152.162 Y109.859 E2.87082
G1 X152.362 Y110.309 E2.8872
G1 X152.682 Y111.109 E2.91586
G1 X152.815 Y111.478 E2.9289
G1 X152.97 Y111.945 E2.94527
G1 X153.086 Y112.328 E2.95858
G1 X153.217 Y112.803 E2.97497
G1 X153.413 Y113.63 E3.00323
G1 X153.493 Y114.029 E3.01677
G1 X153.631 Y114.874 E3.04525
G1 X153.692 Y115.361 E3.06157
G1 X153.731 Y115.761 E3.07494
G1 X153.786 Y116.632 E3.10396
G1 X153.8 Y117.314 E3.12665
G1 X153.799 Y129.132 E3.51972
G1 X153.768 Y130.967 E3.58076
G1 X153.658 Y133.195 E3.65496
G1 X153.503 Y135.073 E3.71763
G1 X153.258 Y137.201 E3.78888
G1 X152.933 Y139.335 E3.86067
G1 X152.542 Y141.421 E3.93126
G1 X152.076 Y143.496 E4.00199
G1 X151.493 Y145.696 E4.07769
G1 X150.872 Y147.728 E4.14836
G1 X150.185 Y149.699 E4.21779
G1 X149.541 Y151.362 E4.2771
G1 X149.42 Y151.657 E4.2877
G1 X148.717 Y153.273 E4.34632
G1 X147.886 Y155.016 E4.41054
G1 X147.041 Y156.631 E4.47117
G1 X146.228 Y158.056 E4.52573
G1 X145.635 Y159.029 E4.56363
G1 X144.818 Y160.288 E4.61355
G1 X144.045 Y161.399 E4.65857
G1 X143.247 Y162.477 E4.70318
G1 X142.62 Y163.277 E4.73698
G1 X141.77 Y164.3 E4.78122
G1 X140.787 Y165.404 E4.83039
G1 X139.856 Y166.382 E4.8753
G1 X138.937 Y167.28 E4.91803
G1 X138.226 Y167.937 E4.95023
G1 X137.247 Y168.785 E4.99331
G1 X136.263 Y169.581 E5.0354
G1 X135.236 Y170.353 E5.07814
G1 X134.182 Y171.084 E5.1208
G1 X133.119 Y171.765 E5.16279
G1 X132.849 Y171.929 E5.17329
G1 X131.757 Y172.556 E5.21518
G1 X130.96 Y172.979 E5.24519
G1 X129.839 Y173.526 E5.28667
G1 X129.552 Y173.658 E5.29718
G1 X128.686 Y174.034 E5.32858
G1 X127.524 Y174.49 E5.3701
G1 X127.205 Y174.605 E5.38138
G1 X126.038 Y174.993 E5.42228
G1 X125.161 Y175.251 E5.45269
G1 X124.832 Y175.34 E5.46402
G1 X123.642 Y175.628 E5.50474
G1 X122.753 Y175.81 E5.53493
G1 X122.406 Y175.873 E5.54666
G1 X121.513 Y176.014 E5.57672
G1 X120.297 Y176.161 E5.61746
G1 X119.949 Y176.193 E5.62909
G1 X119.052 Y176.256 E5.65899
G1 X117.826 Y176.297 E5.69979
G1 X117.478 Y176.299 E5.71137
G1 X116.258 Y176.272 E5.75196
G1 X115.403 Y176.222 E5.78044
G1 X115.055 Y176.194 E5.79205
G1 X114.118 Y176.097 E5.82339
G1 X113.78 Y176.054 E5.83472
G1 X112.887 Y175.922 E5.86474
G1 X111.675 Y175.697 E5.90574
G1 X111.327 Y175.623 E5.91758
G1 X110.142 Y175.334 E5.95814
G1 X109.264 Y175.087 E5.98848
G1 X108.122 Y174.721 E6.02837
G1 X107.806 Y174.61 E6.03951
G1 X106.848 Y174.251 E6.07353
G1 X106.497 Y174.11 E6.08611
G1 X105.407 Y173.64 E6.12559
G1 X105.053 Y173.476 E6.13857
G1 X104.02 Y172.968 E6.17686
G1 X103.693 Y172.798 E6.18912
G1 X102.673 Y172.235 E6.22787
G1 X102.339 Y172.04 E6.24073
G1 X101.296 Y171.395 E6.28152
G1 X101.008 Y171.207 E6.29296
G1 X100.023 Y170.536 E6.3326
G1 X99.731 Y170.328 E6.34452
G1 X98.764 Y169.602 E6.38474
G1 X98.498 Y169.393 E6.39599
G1 X97.555 Y168.619 E6.43657
G1 X97.303 Y168.403 E6.44761
G1 X96.381 Y167.578 E6.48876
G1 X96.126 Y167.34 E6.50036
G1 X95.097 Y166.333 E6.54824
G1 X94.836 Y166.064 E6.56071
G1 X93.74 Y164.883 E6.6143
G1 X93.485 Y164.595 E6.62709
G1 X92.464 Y163.38 E6.67988
G1 X92.238 Y163.097 E6.69192
G1 X91.228 Y161.775 E6.74726
G1 X91.012 Y161.479 E6.75945
G1 X90.052 Y160.092 E6.81555
G1 X89.866 Y159.81 E6.82678
G1 X88.981 Y158.405 E6.88201
G1 X88.808 Y158.116 E6.89322
G1 X87.973 Y156.654 E6.94921
G1 X87.81 Y156.354 E6.96057
G1 X86.937 Y154.657 E7.02404
G1 X86.773 Y154.32 E7.03651
G1 X85.847 Y152.285 E7.11087
G1 X85.698 Y151.934 E7.12355
G1 X84.891 Y149.903 E7.19624
G1 X84.764 Y149.558 E7.20847
G1 X84.045 Y147.466 E7.28204
G1 X83.934 Y147.118 E7.29419
G1 X83.282 Y144.886 E7.37153
G1 X83.189 Y144.54 E7.38345
G1 X82.656 Y142.345 E7.45858
G1 X82.583 Y142.01 E7.46998
G1 X82.143 Y139.774 E7.54578
G1 X82.084 Y139.438 E7.55712
G1 X81.74 Y137.17 E7.63342
G1 X81.697 Y136.833 E7.64472
G1 X81.441 Y134.451 E7.7244
G1 X81.412 Y134.114 E7.73565
G1 X81.265 Y131.809 E7.81247
G1 X81.251 Y131.478 E7.82349
G1 X81.2 Y129.001 E7.90589
G1 X81.2 Y117.292 E8.29534
G1 X81.216 Y116.593 E8.31859
G1 X81.235 Y116.217 E8.33111
G1 X81.308 Y115.362 E8.35965
G1 X81.369 Y114.875 E8.37598
G1 X81.511 Y114.008 E8.4052
G1 X81.599 Y113.57 E8.42006
G1 X81.71 Y113.092 E8.43638
G1 X81.926 Y112.289 E8.46404
G1 X82.04 Y111.915 E8.47704
G1 X82.196 Y111.447 E8.49345
G1 X82.331 Y111.075 E8.50661
G1 X82.51 Y110.617 E8.52297
G1 X82.656 Y110.269 E8.53552
G1 X82.857 Y109.82 E8.55188
G1 X83.242 Y109.041 E8.58078
G1 X83.427 Y108.697 E8.59377
G1 X83.866 Y107.946 E8.62271
G1 X84.13 Y107.532 E8.63904
G1 X84.355 Y107.199 E8.6524
G1 X84.628 Y106.816 E8.66805
G1 X98.213 Y88.567 E9.42473
G1 X98.446 Y88.228 E9.43841
G1 X98.642 Y87.726 E9.45633
G1 X98.695 Y87.303 E9.47051
G1 X98.7 Y76.547 E9.82826
G1 X98.712 Y75.924 E9.84898
G1 X98.729 Y75.56 E9.8611
G1 X98.789 Y74.783 E9.88702
G1 X98.839 Y74.335 E9.90201
G1 X98.959 Y73.528 E9.92915
G1 X99.113 Y72.742 E9.95579
G1 X99.193 Y72.391 E9.96776
G1 X99.4 Y71.611 E9.9946
G1 X99.634 Y70.862 E10.0207
G1 X99.911 Y70.096 E10.0478
G1 X100.224 Y69.343 E10.07492
G1 X100.545 Y68.659 E10.10005
G1 X100.819 Y68.125 E10.12001
G1 X101.138 Y67.557 E10.14168
G1 X101.448 Y67.048 E10.1615
G0 F6000 X101.784 Y67.265
G1 F1200 X102.176 Y66.673 E10.18512
G1 X102.566 Y66.129 E10.20738
G1 X102.811 Y65.806 E10.22086
G1 X103.04 Y65.521 E10.23302
G1 X103.403 Y65.092 E10.25171
G1 X103.802 Y64.652 E10.27147
G1 X104.07 Y64.374 E10.28431
G1 X104.562 Y63.891 E10.30724
G1 X104.857 Y63.617 E10.32064
G1 X105.272 Y63.257 E10.33891
G1 X105.715 Y62.894 E10.35796
G1 X105.988 Y62.682 E10.36945
G1 X106.308 Y62.448 E10.38264
G1 X106.857 Y62.067 E10.40487
G1 X107.464 Y61.678 E10.42884
G1 X107.796 Y61.484 E10.44163
G1 X108.4 Y61.151 E10.46457
G1 X108.737 Y60.976 E10.4772
G1 X109.248 Y60.732 E10.49604
G1 X109.779 Y60.499 E10.51532
G1 X110.365 Y60.266 E10.5363
G1 X110.902 Y60.074 E10.55527
G1 X111.44 Y59.9 E10.57407
G1 X112.042 Y59.729 E10.59489
G1 X112.602 Y59.591 E10.61407
G1 X113.288 Y59.449 E10.63737
G1 X113.942 Y59.338 E10.65943
G1 X114.361 Y59.279 E10.67351
G1 X114.963 Y59.216 E10.69364
G1 X115.698 Y59.159 E10.71816
G1 X116.502 Y59.119 E10.74493
G1 X117.4 Y59.101 E10.77481
G1 X117.728 Y59.102 E10.78572
G1 X118.673 Y59.125 E10.81716
G1 X119.021 Y59.142 E10.82874
G1 X119.944 Y59.208 E10.85952
G1 X120.787 Y59.3 E10.88773
G1 X121.556 Y59.419 E10.91361
G1 X122.336 Y59.577 E10.94008
G1 X122.68 Y59.659 E10.95184
G1 X123.401 Y59.854 E10.97668
G1 X124.177 Y60.101 E11.00377
G1 X124.601 Y60.254 E11.01876
G1 X125.252 Y60.511 E11.04204
G1 X125.614 Y60.668 E11.05516
G1 X126.293 Y60.991 E11.08017
G1 X126.694 Y61.198 E11.09518
G1 X127.394 Y61.593 E11.12191
G1 X127.976 Y61.955 E11.14471
G1 X128.464 Y62.284 E11.16429
G1 X128.921 Y62.613 E11.18301
G1 X129.586 Y63.137 E11.21117
G1 X129.851 Y63.36 E11.22269
G1 X130.311 Y63.771 E11.24321
G1 X130.756 Y64.197 E11.2637
G1 X131.005 Y64.453 E11.27558
G1 X131.461 Y64.943 E11.29784
G1 X131.706 Y65.219 E11.31012
G1 X132.095 Y65.689 E11.33041
G1 X132.457 Y66.158 E11.35011
G1 X132.646 Y66.417 E11.36078
G1 X132.975 Y66.893 E11.38002
G1 X133.309 Y67.413 E11.40058
G1 X133.732 Y68.137 E11.42847
G1 X133.885 Y68.42 E11.43917
G1 X134.156 Y68.957 E11.45917
G1 X134.413 Y69.514 E11.47958
G1 X134.546 Y69.826 E11.49086
G1 X134.793 Y70.447 E11.51308
G1 X134.935 Y70.836 E11.52686
G1 X135.045 Y71.165 E11.5384
G1 X135.282 Y71.954 E11.5658
G1 X135.432 Y72.541 E11.58595
G1 X135.553 Y73.094 E11.60478
G1 X135.618 Y73.433 E11.61626
G1 X135.751 Y74.283 E11.64487
G1 X135.816 Y74.852 E11.66392
G1 X135.864 Y75.432 E11.68328
G1 X135.892 Y76.03 E11.70319
G1 X135.899 Y76.409 E11.7158
G1 X135.9 Y87.088 E12.07098
G1 X135.914 Y87.439 E12.08266
G1 X135.952 Y87.691 E12.09114
G1 X136.047 Y88.067 E12.10404
G1 X136.256 Y88.509 E12.1203
G1 X136.489 Y88.839 E12.13374
G1 X150.066 Y107.076 E12.88994
G1 X150.338 Y107.459 E12.90556
G1 X150.553 Y107.779 E12.91838
G1 X150.817 Y108.195 E12.93477
G1 X151.003 Y108.505 E12.9468
G1 X151.415 Y109.247 E12.97502
G1 X151.638 Y109.688 E12.99146
G1 X151.796 Y110.022 E13.00375
G1 X152.131 Y110.796 E13.0318
G1 X152.309 Y111.254 E13.04814
G1 X152.435 Y111.604 E13.06052
G1 X152.59 Y112.071 E13.07688
G1 X152.701 Y112.435 E13.08954
G1 X152.832 Y112.91 E13.10593
G1 X153.023 Y113.718 E13.13354
G1 X153.099 Y114.097 E13.1464
G1 X153.234 Y114.923 E13.17424
G1 X153.295 Y115.41 E13.19056
G1 X153.332 Y115.79 E13.20326
G1 X153.386 Y116.642 E13.23165
G1 X153.4 Y117.314 E13.25401
G1 X153.399 Y129.125 E13.64684
G1 X153.368 Y130.96 E13.70789
G1 X153.275 Y132.919 E13.77312
G1 X153.104 Y135.04 E13.84389
G1 X152.861 Y137.154 E13.91466
G1 X152.538 Y139.274 E13.98599
G1 X152.095 Y141.607 E14.06497
G1 X151.623 Y143.666 E14.13523
G1 X151.111 Y145.58 E14.20113
G1 X150.584 Y147.321 E14.26163
G1 X150.494 Y147.597 E14.27128
G1 X149.812 Y149.554 E14.34021
G1 X149.168 Y151.217 E14.39953
G1 X149.053 Y151.497 E14.4096
G1 X148.35 Y153.113 E14.46821
G1 X147.525 Y154.843 E14.53196
G1 X146.687 Y156.445 E14.59209
G1 X145.886 Y157.848 E14.64582
G1 X145.184 Y158.995 E14.69055
G1 X144.613 Y159.876 E14.72547
G1 X143.723 Y161.162 E14.77749
G1 X142.932 Y162.23 E14.82169
G1 X142.161 Y163.208 E14.86311
G1 X141.308 Y164.224 E14.90723
G1 X140.645 Y164.968 E14.94038
G1 X139.766 Y165.902 E14.98304
G1 X138.665 Y166.986 E15.03443
G1 X137.757 Y167.819 E15.07541
G1 X136.986 Y168.482 E15.10923
G1 X136.012 Y169.27 E15.1509
G1 X134.769 Y170.196 E15.20245
G1 X133.729 Y170.905 E15.24432
G1 X132.905 Y171.428 E15.27678
G1 X131.809 Y172.069 E15.31901
G1 X130.772 Y172.625 E15.35814
G1 X129.665 Y173.166 E15.39913
G1 X129.393 Y173.291 E15.40908
G1 X128.249 Y173.781 E15.45047
G1 X127.38 Y174.117 E15.48146
G1 X126.204 Y174.521 E15.52282
G1 X125.048 Y174.867 E15.56295
G1 X124.736 Y174.952 E15.57371
G1 X123.562 Y175.236 E15.61388
G1 X122.673 Y175.418 E15.64407
G1 X122.343 Y175.477 E15.65521
G1 X121.144 Y175.66 E15.69556
G1 X120.251 Y175.763 E15.72545
G1 X119.921 Y175.794 E15.73648
G1 X119.024 Y175.857 E15.76639
G1 X117.815 Y175.897 E15.80662
G1 X117.485 Y175.899 E15.8176
G1 X116.589 Y175.884 E15.8474
G1 X115.426 Y175.822 E15.88614
G1 X115.096 Y175.796 E15.89715
G1 X114.159 Y175.699 E15.92848
G1 X113.839 Y175.658 E15.93921
G1 X112.64 Y175.475 E15.97955
G1 X111.75 Y175.305 E16.00969
G1 X111.42 Y175.234 E16.02091
G1 X110.536 Y175.023 E16.05114
G1 X109.372 Y174.701 E16.09131
G1 X108.246 Y174.34 E16.13064
G1 X107.946 Y174.235 E16.14121
G1 X106.988 Y173.876 E16.17524
G1 X106.655 Y173.742 E16.18718
G1 X105.565 Y173.272 E16.22666
G1 X105.229 Y173.117 E16.23896
G1 X104.196 Y172.609 E16.27725
G1 X103.886 Y172.448 E16.28887
G1 X102.866 Y171.885 E16.32762
G1 X102.55 Y171.7 E16.3398
G1 X101.507 Y171.055 E16.38059
G1 X101.233 Y170.877 E16.39145
G1 X100.248 Y170.206 E16.43109
G1 X99.971 Y170.008 E16.44242
G1 X99.004 Y169.282 E16.48264
G1 X98.752 Y169.084 E16.4933
G1 X97.809 Y168.31 E16.53387
G1 X97.57 Y168.105 E16.54434
G1 X96.648 Y167.28 E16.58549
G1 X96.406 Y167.054 E16.59651
G1 X95.377 Y166.047 E16.64439
G1 X95.129 Y165.792 E16.65623
G1 X94.033 Y164.611 E16.70981
G1 X93.792 Y164.338 E16.72193
G1 X92.771 Y163.123 E16.77471
G1 X92.556 Y162.854 E16.78616
G1 X91.546 Y161.532 E16.8415
G1 X91.341 Y161.251 E16.85307
G1 X90.381 Y159.864 E16.90917
G1 X90.205 Y159.597 E16.91981
G1 X89.32 Y158.192 E16.97504
G1 X89.155 Y157.918 E16.98567
G1 X88.32 Y156.456 E17.04167
G1 X88.166 Y156.171 E17.05245
G1 X87.293 Y154.474 E17.11592
G1 X87.138 Y154.154 E17.12775
G1 X86.212 Y152.119 E17.20211
G1 X86.07 Y151.787 E17.21412
G1 X85.263 Y149.756 E17.28681
G1 X85.142 Y149.428 E17.29843
G1 X84.423 Y147.336 E17.37201
G1 X84.318 Y147.006 E17.38353
G1 X83.666 Y144.774 E17.46087
G1 X83.578 Y144.445 E17.47219
G1 X83.045 Y142.25 E17.54732
G1 X82.975 Y141.933 E17.55812
G1 X82.535 Y139.697 E17.63391
G1 X82.48 Y139.378 E17.64468
G1 X82.136 Y137.11 E17.72098
G1 X82.094 Y136.791 E17.73168
G1 X81.838 Y134.409 E17.81136
G1 X81.811 Y134.089 E17.82204
G1 X81.664 Y131.784 E17.89886
G1 X81.651 Y131.47 E17.90932
G1 X81.6 Y129.001 E17.99145
G1 X81.6 Y117.292 E18.3809
G1 X81.616 Y116.604 E18.40378
G1 X81.634 Y116.247 E18.41567
G1 X81.705 Y115.411 E18.44358
G1 X81.766 Y114.924 E18.4599
G1 X81.905 Y114.076 E18.48848
G1 X81.989 Y113.66 E18.5026
G1 X82.179 Y112.871 E18.52959
G1 X82.311 Y112.397 E18.54596
G1 X82.42 Y112.042 E18.55831
G1 X82.576 Y111.574 E18.57472
G1 X82.704 Y111.22 E18.58724
G1 X83.021 Y110.432 E18.61549
G1 X83.375 Y109.662 E18.64367
G1 X83.598 Y109.222 E18.66008
G1 X83.774 Y108.896 E18.6724
G1 X84.018 Y108.469 E18.68876
G1 X84.204 Y108.161 E18.70073
G1 X84.468 Y107.747 E18.71706
G1 X84.681 Y107.431 E18.72973
G1 X85.044 Y106.924 E18.75047
G1 X98.556 Y88.776 E19.50301
G1 X98.722 Y88.532 E19.51282
