;FLAVOR:Marlin
;TIME:6303
;Filament used: 4.35038m
;Layer height: 0.2
;MINX:75.5
;MINY:58
;MINZ:0.2
;MAXX:159.5
;MAXY:177
;MAXZ:3
;Generated with Cura_SteamEngine 5.2.2
M140 S50
M105
M190 S50
M104 S200
M105
M109 S200
M82 ;absolute extrusion mode
; Ender 3 Custom Start G-code
G92 E0 ; Reset Extruder
G28 ; Home all axes
G1 Z2.0 F3000 ; Move Z Axis up little to prevent scratching of Heat Bed
G1 X0.1 Y20 Z0.3 F5000.0 ; Move to start position
G1 X0.1 Y200.0 Z0.3 F1500.0 E15 ; Draw the first line
G1 X0.4 Y200.0 Z0.3 F5000.0 ; Move to side a little
G1 X0.4 Y20 Z0.3 F1500.0 E30 ; Draw the second line
G92 E0 ; Reset Extruder
G1 Z2.0 F3000 ; Move Z Axis up little to prevent scratching of Heat Bed
G1 X5 Y20 Z0.3 F5000.0 ; Move over to prevent blob squish
G92 E0
G92 E0
G1 F2700 E-5
;LAYER_COUNT:15
;LAYER:0
M107
G0 F6000 X81.051 Y66.665 Z0.2
;TYPE:SKIRT
G1 F2700 E0
G1 F1200 X81.38 Y66.277 E0.01692
G1 X81.804 Y65.801 E0.03812
G1 X82.18 Y65.4 E0.0564
G1 X82.628 Y64.945 E0.07764
G1 X83.006 Y64.579 E0.09514
G1 X83.46 Y64.16 E0.11569
G1 X83.856 Y63.812 E0.13323
G1 X84.343 Y63.404 E0.15436
G1 X84.783 Y63.054 E0.17306
G1 X85.312 Y62.655 E0.19509
G1 X85.724 Y62.359 E0.21197
G1 X86.218 Y62.021 E0.23188
G1 X86.692 Y61.714 E0.25066
G1 X87.271 Y61.36 E0.27323
G1 X87.742 Y61.088 E0.29132
G1 X88.292 Y60.788 E0.31216
G1 X88.751 Y60.551 E0.32934
G1 X89.286 Y60.291 E0.34912
G1 X89.769 Y60.071 E0.36678
G1 X90.377 Y59.811 E0.38877
G1 X90.879 Y59.611 E0.40674
G1 X91.451 Y59.399 E0.42703
G1 X91.963 Y59.223 E0.44504
G1 X92.584 Y59.027 E0.4667
G1 X93.131 Y58.87 E0.48563
G1 X93.782 Y58.701 E0.508
G1 X94.289 Y58.582 E0.52532
G1 X94.89 Y58.456 E0.54574
G1 X95.415 Y58.359 E0.5635
G1 X96.042 Y58.259 E0.58462
G1 X96.586 Y58.186 E0.60287
G1 X97.221 Y58.117 E0.62412
G1 X97.739 Y58.073 E0.64141
G1 X98.378 Y58.034 E0.6627
G1 X98.9 Y58.015 E0.68007
G1 X100.089 Y58 E0.71962
G1 X134.846 Y58 E1.87564
G1 X135.937 Y58.013 E1.91193
G1 X136.829 Y58.046 E1.94162
G1 X137.345 Y58.08 E1.95882
G1 X137.956 Y58.135 E1.97923
G1 X138.488 Y58.196 E1.99704
G1 X139.134 Y58.286 E2.01873
G1 X139.659 Y58.372 E2.03642
G1 X140.278 Y58.489 E2.05738
G1 X140.835 Y58.61 E2.07633
G1 X141.468 Y58.764 E2.098
G1 X141.964 Y58.897 E2.11508
G1 X142.564 Y59.073 E2.13588
G1 X143.054 Y59.229 E2.15298
G1 X143.663 Y59.439 E2.17441
G1 X144.212 Y59.645 E2.19391
G1 X144.774 Y59.873 E2.21408
G1 X145.272 Y60.089 E2.23214
G1 X145.89 Y60.376 E2.2548
G1 X146.354 Y60.605 E2.27201
G1 X146.899 Y60.89 E2.29247
G1 X147.379 Y61.157 E2.31074
G1 X147.923 Y61.477 E2.33173
G1 X148.355 Y61.745 E2.34864
G1 X148.887 Y62.092 E2.36976
G1 X149.337 Y62.401 E2.38792
G1 X149.825 Y62.755 E2.40797
G1 X150.269 Y63.095 E2.42657
G1 X150.795 Y63.519 E2.44904
G1 X151.196 Y63.858 E2.4665
G1 X151.687 Y64.294 E2.48834
G1 X152.101 Y64.681 E2.50719
G1 X152.555 Y65.128 E2.52838
G1 X152.914 Y65.499 E2.54556
G1 X153.33 Y65.949 E2.56594
G1 X153.707 Y66.379 E2.58496
G1 X154.144 Y66.904 E2.60768
G1 X154.464 Y67.306 E2.62477
G1 X154.83 Y67.79 E2.64495
G1 X155.137 Y68.217 E2.66244
G1 X155.474 Y68.71 E2.6823
G1 X155.773 Y69.172 E2.70061
G1 X156.135 Y69.763 E2.72366
G1 X156.408 Y70.234 E2.74176
G1 X156.708 Y70.783 E2.76257
G1 X156.945 Y71.243 E2.77978
G1 X157.205 Y71.777 E2.79954
G1 X157.434 Y72.279 E2.81789
G1 X157.694 Y72.889 E2.83994
G1 X157.89 Y73.38 E2.85753
G1 X158.106 Y73.963 E2.87821
G1 X158.284 Y74.482 E2.89646
G1 X158.476 Y75.092 E2.91773
G1 X158.63 Y75.631 E2.93637
G1 X158.799 Y76.282 E2.95874
G1 X158.918 Y76.789 E2.97606
G1 X159.044 Y77.39 E2.99649
G1 X159.141 Y77.917 E3.01431
G1 X159.241 Y78.545 E3.03546
G1 X159.313 Y79.085 E3.05358
G1 X159.382 Y79.719 E3.07479
G1 X159.427 Y80.238 E3.09212
G1 X159.466 Y80.876 E3.11338
G1 X159.485 Y81.399 E3.13078
G1 X159.5 Y82.589 E3.17037
G1 X159.499 Y152.539 E5.49691
G1 X159.479 Y153.741 E5.5369
G1 X159.456 Y154.299 E5.55547
G1 X159.422 Y154.815 E5.57267
G1 X159.366 Y155.448 E5.59381
G1 X159.302 Y156.013 E5.61272
G1 X159.214 Y156.638 E5.63371
G1 X159.129 Y157.148 E5.65091
G1 X159.011 Y157.772 E5.67203
G1 X158.893 Y158.321 E5.69071
G1 X158.738 Y158.96 E5.71258
G1 X158.605 Y159.458 E5.72972
G1 X158.429 Y160.059 E5.75055
G1 X158.266 Y160.57 E5.76839
G1 X158.056 Y161.176 E5.78972
G1 X157.861 Y161.694 E5.80813
G1 X157.634 Y162.256 E5.82829
G1 X157.414 Y162.765 E5.84673
G1 X157.119 Y163.401 E5.87005
G1 X156.882 Y163.879 E5.8878
G1 X156.601 Y164.415 E5.90792
G1 X156.335 Y164.894 E5.92615
G1 X156.019 Y165.43 E5.94684
G1 X155.759 Y165.85 E5.96327
G1 X155.411 Y166.384 E5.98447
G1 X155.099 Y166.837 E6.00277
G1 X154.745 Y167.325 E6.02282
G1 X154.405 Y167.769 E6.04142
G1 X153.981 Y168.295 E6.06389
G1 X153.642 Y168.696 E6.08135
G1 X153.206 Y169.187 E6.10319
G1 X152.83 Y169.59 E6.12152
G1 X152.396 Y170.032 E6.14213
G1 X152.023 Y170.394 E6.15942
G1 X151.56 Y170.823 E6.18041
G1 X151.136 Y171.196 E6.19919
G1 X150.644 Y171.607 E6.22051
G1 X150.213 Y171.949 E6.23881
G1 X149.685 Y172.347 E6.26081
G1 X149.276 Y172.641 E6.27756
G1 X148.782 Y172.979 E6.29747
G1 X148.313 Y173.283 E6.31606
G1 X147.738 Y173.635 E6.33848
G1 X147.26 Y173.911 E6.35684
G1 X146.706 Y174.213 E6.37782
G1 X146.249 Y174.449 E6.39493
G1 X145.714 Y174.709 E6.41472
G1 X145.231 Y174.929 E6.43237
G1 X144.623 Y175.189 E6.45436
G1 X144.121 Y175.389 E6.47234
G1 X143.549 Y175.601 E6.49262
G1 X143.037 Y175.777 E6.51063
G1 X142.416 Y175.973 E6.53229
G1 X141.869 Y176.13 E6.55122
G1 X141.218 Y176.299 E6.57359
G1 X140.711 Y176.418 E6.59091
G1 X140.11 Y176.544 E6.61133
G1 X139.588 Y176.64 E6.62899
G1 X138.962 Y176.74 E6.65007
G1 X138.413 Y176.814 E6.6685
G1 X137.777 Y176.883 E6.68977
G1 X137.261 Y176.927 E6.707
G1 X136.622 Y176.966 E6.72829
G1 X136.1 Y176.985 E6.74566
G1 X134.911 Y177 E6.78521
G1 X99.957 Y176.999 E7.94779
G1 X98.826 Y176.982 E7.98541
G1 X98.261 Y176.96 E8.00422
G1 X97.711 Y176.924 E8.02255
G1 X97.061 Y176.866 E8.04425
G1 X96.523 Y176.805 E8.06226
G1 X95.862 Y176.713 E8.08446
G1 X95.333 Y176.626 E8.10229
G1 X94.72 Y176.51 E8.12304
G1 X94.186 Y176.395 E8.14121
G1 X93.589 Y176.251 E8.16163
G1 X93.082 Y176.116 E8.17908
G1 X92.449 Y175.931 E8.20102
G1 X91.932 Y175.766 E8.21907
G1 X91.384 Y175.576 E8.23836
G1 X90.899 Y175.395 E8.25558
G1 X90.247 Y175.134 E8.27894
G1 X89.719 Y174.906 E8.29807
G1 X89.161 Y174.648 E8.31851
G1 X88.705 Y174.425 E8.3354
G1 X88.145 Y174.134 E8.35639
G1 X87.648 Y173.859 E8.37528
G1 X87.091 Y173.532 E8.39676
G1 X86.649 Y173.258 E8.41406
G1 X86.108 Y172.905 E8.43554
G1 X85.658 Y172.595 E8.45372
G1 X85.173 Y172.243 E8.47365
G1 X84.753 Y171.923 E8.49121
G1 X84.218 Y171.494 E8.51402
G1 X83.78 Y171.124 E8.53309
G1 X83.311 Y170.706 E8.55398
G1 X82.924 Y170.344 E8.57161
G1 X82.487 Y169.915 E8.59198
G1 X82.118 Y169.534 E8.60962
G1 X81.662 Y169.041 E8.63195
G1 X81.304 Y168.634 E8.64998
G1 X80.897 Y168.148 E8.67107
G1 X80.555 Y167.719 E8.68931
G1 X80.168 Y167.207 E8.71066
G1 X79.861 Y166.781 E8.72813
G1 X79.522 Y166.285 E8.74811
G1 X79.22 Y165.817 E8.76663
G1 X78.861 Y165.23 E8.78952
G1 X78.607 Y164.792 E8.80636
G1 X78.343 Y164.312 E8.82458
G1 X78.1 Y163.845 E8.84209
G1 X77.804 Y163.24 E8.86449
G1 X77.571 Y162.731 E8.88311
G1 X77.311 Y162.123 E8.9051
G1 X77.112 Y161.625 E8.92294
G1 X76.899 Y161.051 E8.9433
G1 X76.72 Y160.529 E8.96166
G1 X76.525 Y159.91 E8.98324
G1 X76.37 Y159.368 E9.00199
G1 X76.199 Y158.709 E9.02464
G1 X76.08 Y158.205 E9.04186
G1 X75.956 Y157.614 E9.06195
G1 X75.858 Y157.079 E9.08004
G1 X75.758 Y156.449 E9.10125
G1 X75.687 Y155.915 E9.11917
G1 X75.618 Y155.281 E9.14038
G1 X75.573 Y154.761 E9.15774
G1 X75.534 Y154.122 E9.17903
G1 X75.515 Y153.6 E9.19641
G1 X75.5 Y152.411 E9.23596
G1 X75.501 Y82.455 E11.5627
G1 X75.513 Y81.576 E11.59194
G1 X75.543 Y80.736 E11.6199
G1 X75.577 Y80.2 E11.63776
G1 X75.636 Y79.536 E11.65993
G1 X75.699 Y78.987 E11.67831
G1 X75.785 Y78.372 E11.69897
G1 X75.87 Y77.854 E11.71642
G1 X75.985 Y77.245 E11.73704
G1 X76.1 Y76.71 E11.75524
G1 X76.258 Y76.054 E11.77768
G1 X76.401 Y75.519 E11.7961
G1 X76.577 Y74.922 E11.8168
G1 X76.736 Y74.428 E11.83406
G1 X76.94 Y73.84 E11.85476
G1 X77.137 Y73.315 E11.87341
G1 X77.389 Y72.693 E11.89573
G1 X77.597 Y72.212 E11.91316
G1 X77.856 Y71.651 E11.93372
G1 X78.099 Y71.159 E11.95197
G1 X78.397 Y70.59 E11.97333
G1 X78.662 Y70.112 E11.99151
G1 X78.987 Y69.56 E12.01281
G1 X79.26 Y69.12 E12.03004
G1 X79.606 Y68.591 E12.05106
G1 X79.922 Y68.133 E12.06957
G1 X80.309 Y67.602 E12.09142
G1 X80.656 Y67.152 E12.11032
G1 X81.051 Y66.665 E12.13118
G0 F6000 X81.362 Y66.917
G1 F1200 X81.679 Y66.543 E12.14748
G1 X82.103 Y66.067 E12.16869
G1 X82.465 Y65.681 E12.18629
G1 X82.913 Y65.226 E12.20752
G1 X83.277 Y64.873 E12.22439
G1 X83.731 Y64.454 E12.24494
G1 X84.113 Y64.119 E12.26184
G1 X84.6 Y63.711 E12.28297
G1 X85.024 Y63.373 E12.301
G1 X85.553 Y62.974 E12.32304
G1 X85.95 Y62.689 E12.33929
G1 X86.444 Y62.351 E12.3592
G1 X86.901 Y62.055 E12.37731
G1 X87.48 Y61.701 E12.39988
G1 X87.933 Y61.439 E12.41729
G1 X88.483 Y61.139 E12.43813
G1 X88.926 Y60.911 E12.4547
G1 X89.461 Y60.651 E12.47448
G1 X89.926 Y60.439 E12.49148
G1 X90.534 Y60.179 E12.51347
G1 X91.018 Y59.986 E12.5308
G1 X91.59 Y59.774 E12.55109
G1 X92.084 Y59.605 E12.56846
G1 X92.705 Y59.409 E12.59012
G1 X93.232 Y59.257 E12.60836
G1 X93.883 Y59.088 E12.63073
G1 X94.371 Y58.974 E12.6474
G1 X94.972 Y58.848 E12.66782
G1 X95.478 Y58.754 E12.68494
G1 X96.105 Y58.654 E12.70606
G1 X96.629 Y58.584 E12.72364
G1 X97.264 Y58.515 E12.74488
G1 X97.763 Y58.473 E12.76154
G1 X98.402 Y58.434 E12.78283
G1 X98.905 Y58.415 E12.79958
G1 X100.089 Y58.4 E12.83896
G1 X134.846 Y58.4 E13.99498
G1 X135.932 Y58.413 E14.0311
G1 X136.812 Y58.446 E14.06039
G1 X137.309 Y58.479 E14.07696
G1 X137.92 Y58.534 E14.09736
G1 X138.433 Y58.592 E14.11454
G1 X139.079 Y58.682 E14.13623
G1 X139.585 Y58.765 E14.15328
G1 X140.204 Y58.882 E14.17424
G1 X140.741 Y58.998 E14.19251
G1 X141.374 Y59.152 E14.21418
G1 X141.852 Y59.281 E14.23064
G1 X142.452 Y59.457 E14.25144
G1 X142.924 Y59.607 E14.26791
G1 X143.533 Y59.817 E14.28934
G1 X144.062 Y60.016 E14.30814
G1 X144.624 Y60.244 E14.32831
G1 X145.104 Y60.452 E14.34571
G1 X145.722 Y60.739 E14.36837
G1 X146.169 Y60.96 E14.38496
G1 X146.714 Y61.245 E14.40541
G1 X147.176 Y61.501 E14.42298
G1 X147.72 Y61.821 E14.44397
G1 X148.137 Y62.08 E14.4603
G1 X148.669 Y62.427 E14.48142
G1 X149.102 Y62.725 E14.49891
G1 X149.59 Y63.079 E14.51896
G1 X150.018 Y63.406 E14.53687
G1 X150.544 Y63.83 E14.55934
G1 X150.93 Y64.157 E14.57617
G1 X151.421 Y64.593 E14.59801
G1 X151.82 Y64.966 E14.61618
G1 X152.274 Y65.413 E14.63737
G1 X152.621 Y65.77 E14.65393
G1 X153.037 Y66.22 E14.67431
G1 X153.4 Y66.635 E14.69265
G1 X153.837 Y67.16 E14.71537
G1 X154.145 Y67.548 E14.73184
G1 X154.511 Y68.032 E14.75203
G1 X154.807 Y68.443 E14.76887
G1 X155.144 Y68.936 E14.78873
G1 X155.432 Y69.381 E14.80636
G1 X155.794 Y69.972 E14.82941
G1 X156.057 Y70.426 E14.84687
G1 X156.357 Y70.975 E14.86767
G1 X156.585 Y71.418 E14.88424
G1 X156.845 Y71.952 E14.904
G1 X157.066 Y72.436 E14.9217
G1 X157.326 Y73.046 E14.94375
G1 X157.515 Y73.519 E14.96069
G1 X157.731 Y74.102 E14.98137
G1 X157.902 Y74.603 E14.99898
G1 X158.094 Y75.213 E15.02025
G1 X158.243 Y75.732 E15.03821
G1 X158.412 Y76.383 E15.06058
G1 X158.526 Y76.871 E15.07725
G1 X158.652 Y77.472 E15.09767
G1 X158.746 Y77.98 E15.11485
G1 X158.846 Y78.608 E15.136
G1 X158.916 Y79.128 E15.15345
G1 X158.985 Y79.762 E15.17467
G1 X159.027 Y80.262 E15.19135
G1 X159.066 Y80.9 E15.21261
G1 X159.085 Y81.405 E15.22942
G1 X159.1 Y82.589 E15.2688
G1 X159.099 Y152.534 E17.59519
G1 X159.087 Y153.43 E17.62499
G1 X159.056 Y154.283 E17.65338
G1 X159.024 Y154.78 E17.66994
G1 X158.968 Y155.413 E17.69108
G1 X158.905 Y155.957 E17.70929
G1 X158.817 Y156.582 E17.73029
G1 X158.736 Y157.074 E17.74687
G1 X158.618 Y157.698 E17.76799
G1 X158.504 Y158.227 E17.78599
G1 X158.349 Y158.866 E17.80786
G1 X158.221 Y159.346 E17.82438
G1 X158.045 Y159.947 E17.84521
G1 X157.888 Y160.439 E17.86239
G1 X157.678 Y161.045 E17.88372
G1 X157.491 Y161.544 E17.90144
G1 X157.264 Y162.106 E17.9216
G1 X157.051 Y162.596 E17.93937
G1 X156.756 Y163.232 E17.96269
G1 X156.528 Y163.694 E17.97983
G1 X156.247 Y164.23 E17.99996
G1 X155.99 Y164.691 E18.01751
G1 X155.674 Y165.227 E18.03821
G1 X155.424 Y165.631 E18.05401
G1 X155.076 Y166.165 E18.07521
G1 X154.775 Y166.602 E18.09286
G1 X154.421 Y167.09 E18.11291
G1 X154.094 Y167.518 E18.13082
G1 X153.67 Y168.044 E18.15329
G1 X153.343 Y168.43 E18.17012
G1 X152.907 Y168.921 E18.19196
G1 X152.544 Y169.31 E18.20966
G1 X152.11 Y169.752 E18.23026
G1 X151.751 Y170.1 E18.24689
G1 X151.288 Y170.529 E18.26788
G1 X150.88 Y170.889 E18.28598
G1 X150.388 Y171.3 E18.3073
G1 X149.973 Y171.63 E18.32494
G1 X149.445 Y172.028 E18.34693
G1 X149.05 Y172.311 E18.36309
G1 X148.556 Y172.649 E18.383
G1 X148.104 Y172.942 E18.40091
G1 X147.529 Y173.294 E18.42334
G1 X147.068 Y173.56 E18.44104
G1 X146.514 Y173.862 E18.46203
G1 X146.074 Y174.089 E18.47849
G1 X145.539 Y174.349 E18.49828
G1 X145.074 Y174.561 E18.51528
G1 X144.466 Y174.821 E18.53727
G1 X143.982 Y175.014 E18.5546
G1 X143.41 Y175.226 E18.57489
G1 X142.916 Y175.395 E18.59225
G1 X142.295 Y175.591 E18.61391
G1 X141.768 Y175.743 E18.63216
G1 X141.117 Y175.912 E18.65453
G1 X140.629 Y176.026 E18.67119
G1 X140.028 Y176.152 E18.69162
G1 X139.525 Y176.245 E18.70863
G1 X138.899 Y176.345 E18.72972
G1 X138.37 Y176.416 E18.74747
G1 X137.734 Y176.485 E18.76875
G1 X137.237 Y176.527 E18.78534
G1 X136.598 Y176.566 E18.80663
G1 X136.095 Y176.585 E18.82337
G1 X134.911 Y176.6 E18.86275
G1 X99.962 Y176.599 E20.02516
G1 X98.842 Y176.582 E20.06242
G1 X98.277 Y176.56 E20.08122
G1 X97.747 Y176.526 E20.09889
G1 X97.097 Y176.468 E20.12059
G1 X96.578 Y176.409 E20.13797
G1 X95.917 Y176.317 E20.16016
G1 X95.407 Y176.233 E20.17735
G1 X94.794 Y176.117 E20.1981
G1 X94.279 Y176.006 E20.21563
G1 X93.682 Y175.862 E20.23605
G1 X93.194 Y175.732 E20.25285
G1 X92.561 Y175.547 E20.27478
G1 X92.063 Y175.388 E20.29217
G1 X91.515 Y175.198 E20.31146
G1 X91.048 Y175.024 E20.32804
G1 X90.396 Y174.763 E20.3514
G1 X89.886 Y174.543 E20.36987
G1 X89.328 Y174.285 E20.39032
G1 X88.889 Y174.07 E20.40658
G1 X88.329 Y173.779 E20.42757
G1 X87.85 Y173.514 E20.44577
G1 X87.293 Y173.187 E20.46726
G1 X86.868 Y172.923 E20.4839
G1 X86.327 Y172.57 E20.50538
G1 X85.893 Y172.272 E20.52289
G1 X85.408 Y171.92 E20.54282
G1 X85.003 Y171.611 E20.55977
G1 X84.468 Y171.182 E20.58257
G1 X84.046 Y170.825 E20.60096
G1 X83.577 Y170.407 E20.62185
G1 X83.204 Y170.058 E20.63884
G1 X82.767 Y169.629 E20.65921
G1 X82.411 Y169.263 E20.67619
G1 X81.955 Y168.77 E20.69853
G1 X81.61 Y168.378 E20.7159
G1 X81.203 Y167.892 E20.73698
G1 X80.874 Y167.478 E20.75457
G1 X80.487 Y166.966 E20.77592
G1 X80.192 Y166.555 E20.79274
G1 X79.853 Y166.059 E20.81273
G1 X79.561 Y165.608 E20.8306
G1 X79.202 Y165.021 E20.85348
G1 X78.957 Y164.599 E20.86971
G1 X78.693 Y164.119 E20.88793
G1 X78.46 Y163.669 E20.90479
G1 X78.164 Y163.064 E20.92719
G1 X77.939 Y162.574 E20.94512
G1 X77.679 Y161.966 E20.96711
G1 X77.487 Y161.486 E20.98431
G1 X77.274 Y160.912 E21.00467
G1 X77.102 Y160.409 E21.02235
G1 X76.907 Y159.79 E21.04394
G1 X76.757 Y159.267 E21.06204
G1 X76.586 Y158.608 E21.08468
G1 X76.472 Y158.123 E21.10125
G1 X76.348 Y157.532 E21.12134
G1 X76.253 Y157.017 E21.13875
G1 X76.153 Y156.387 E21.15997
G1 X76.084 Y155.872 E21.17725
G1 X76.015 Y155.238 E21.19846
G1 X75.973 Y154.737 E21.21518
G1 X75.934 Y154.098 E21.23648
G1 X75.915 Y153.595 E21.25322
G1 X75.9 Y152.411 E21.2926
G1 X75.901 Y82.46 E23.61918
G1 X75.92 Y81.304 E23.65764
G1 X75.942 Y80.752 E23.67601
G1 X75.976 Y80.236 E23.69321
G1 X76.035 Y79.572 E23.71538
G1 X76.095 Y79.042 E23.73312
G1 X76.181 Y78.427 E23.75378
G1 X76.263 Y77.928 E23.7706
G1 X76.378 Y77.319 E23.79121
G1 X76.489 Y76.804 E23.80873
G1 X76.647 Y76.148 E23.83117
G1 X76.785 Y75.633 E23.84891
G1 X76.961 Y75.036 E23.86961
G1 X77.114 Y74.559 E23.88627
G1 X77.318 Y73.971 E23.90697
G1 X77.508 Y73.465 E23.92495
G1 X77.76 Y72.843 E23.94727
G1 X77.96 Y72.38 E23.96404
G1 X78.219 Y71.819 E23.98459
G1 X78.453 Y71.344 E24.00221
G1 X78.751 Y70.775 E24.02357
G1 X79.007 Y70.315 E24.04108
G1 X79.332 Y69.763 E24.06238
G1 X79.595 Y69.339 E24.07898
G1 X79.941 Y68.81 E24.1
G1 X80.246 Y68.369 E24.11784
