;FLAVOR:Marlin
;TIME:7896
;Filament used: 4.93499m
;Layer height: 0.2
;MINX:78.2
;MINY:58.345
;MINZ:0.2
;MAXX:156.798
;MAXY:176.654
;MAXZ:3.8
;Generated with Cura_SteamEngine 5.2.2
M140 S70
M105
M190 S70
M104 S240
M105
M109 S240
M82 ;absolute extrusion mode
; Ender 3 Custom Start G-code
G92 E0 ; Reset Extruder
G28 ; Home all axes
G1 Z2.0 F3000 ; Move Z Axis up little to prevent scratching of Heat Bed
G1 X0.1 Y20 Z0.3 F5000.0 ; Move to start position
G1 X0.1 Y200.0 Z0.3 F1500.0 E15 ; Draw the first line
G1 X0.4 Y200.0 Z0.3 F5000.0 ; Move to side a little
G1 X0.4 Y20 Z0.3 F1500.0 E30 ; Draw the second line
G92 E0 ; Reset Extruder
G1 Z2.0 F3000 ; Move Z Axis up little to prevent scratching of Heat Bed
G1 X5 Y20 Z0.3 F5000.0 ; Move over to prevent blob squish
G92 E0
G92 E0
G1 F2700 E-5
;LAYER_COUNT:19
;LAYER:0
M107
G0 F6000 X88.635 Y72.087 Z0.2
;TYPE:SKIRT
G1 F2700 E0
G1 F900 X88.878 Y71.803 E0.01243
G1 X89.898 Y70.666 E0.06324
G1 X90.138 Y70.411 E0.07488
G1 X91.32 Y69.215 E0.13081
G1 X92.312 Y68.281 E0.17613
G1 X92.563 Y68.055 E0.18736
G1 X93.824 Y66.975 E0.24258
G1 X94.822 Y66.181 E0.285
G1 X95.087 Y65.98 E0.29606
G1 X96.22 Y65.155 E0.34268
G1 X96.497 Y64.961 E0.35393
G1 X97.553 Y64.26 E0.39608
G1 X97.838 Y64.08 E0.40729
G1 X99.03 Y63.361 E0.45359
G1 X99.323 Y63.193 E0.46483
G1 X100.483 Y62.56 E0.50878
G1 X100.788 Y62.402 E0.5202
G1 X101.972 Y61.822 E0.56406
G1 X102.296 Y61.673 E0.57592
G1 X103.498 Y61.151 E0.6195
G1 X103.803 Y61.026 E0.63047
G1 X105.024 Y60.556 E0.67398
G1 X105.359 Y60.435 E0.68583
G1 X106.598 Y60.022 E0.72927
G1 X106.933 Y59.919 E0.74092
G1 X108.186 Y59.563 E0.78425
G1 X108.527 Y59.474 E0.79597
G1 X109.79 Y59.176 E0.83913
G1 X110.13 Y59.104 E0.85069
G1 X111.403 Y58.863 E0.89378
G1 X111.758 Y58.804 E0.90575
G1 X113.041 Y58.622 E0.94885
G1 X113.39 Y58.581 E0.96054
G1 X114.99 Y58.433 E1.01398
G1 X116.319 Y58.364 E1.05824
G1 X117.641 Y58.345 E1.10222
G1 X118.699 Y58.364 E1.13741
G1 X120.058 Y58.436 E1.18268
G1 X120.378 Y58.46 E1.19335
G1 X121.671 Y58.587 E1.23656
G1 X122.012 Y58.628 E1.24799
G1 X123.23 Y58.802 E1.28891
G1 X123.57 Y58.859 E1.30037
G1 X124.85 Y59.1 E1.3437
G1 X125.195 Y59.173 E1.35542
G1 X126.465 Y59.472 E1.39882
G1 X126.811 Y59.562 E1.41071
G1 X128.066 Y59.919 E1.45411
G1 X128.399 Y60.021 E1.46569
G1 X129.641 Y60.435 E1.50924
G1 X129.974 Y60.555 E1.52101
G1 X131.201 Y61.027 E1.56473
G1 X131.517 Y61.156 E1.57609
G1 X132.724 Y61.682 E1.61988
G1 X133.035 Y61.826 E1.63128
G1 X134.223 Y62.407 E1.67526
G1 X134.534 Y62.568 E1.68691
G1 X135.699 Y63.204 E1.73106
G1 X135.991 Y63.372 E1.74226
G1 X137.131 Y64.06 E1.78655
G1 X137.411 Y64.237 E1.79756
G1 X138.524 Y64.975 E1.84198
G1 X138.813 Y65.176 E1.85369
G1 X139.898 Y65.968 E1.89837
G1 X140.15 Y66.16 E1.90891
G1 X141.204 Y66.997 E1.95367
G1 X141.46 Y67.209 E1.96473
G1 X142.484 Y68.096 E2.00979
G1 X142.726 Y68.315 E2.02064
G1 X143.715 Y69.247 E2.06584
G1 X143.95 Y69.478 E2.0768
G1 X144.904 Y70.456 E2.12224
G1 X145.132 Y70.7 E2.13335
G1 X146.138 Y71.824 E2.18352
G1 X146.37 Y72.095 E2.19538
G1 X147.416 Y73.377 E2.25042
G1 X147.655 Y73.686 E2.26341
G1 X148.66 Y75.052 E2.31981
G1 X148.878 Y75.363 E2.33245
G1 X149.821 Y76.785 E2.3892
G1 X150.023 Y77.108 E2.40187
G1 X150.881 Y78.55 E2.45768
G1 X151.055 Y78.857 E2.46941
G1 X151.835 Y80.314 E2.52438
G1 X152.143 Y80.926 E2.54717
G1 X152.847 Y82.428 E2.60234
G1 X152.991 Y82.756 E2.61425
G1 X153.627 Y84.293 E2.66958
G1 X153.753 Y84.616 E2.68111
G1 X154.323 Y86.188 E2.73673
G1 X154.47 Y86.619 E2.75187
G1 X155.025 Y88.426 E2.81474
G1 X155.118 Y88.756 E2.82615
G1 X155.537 Y90.381 E2.88196
G1 X155.622 Y90.746 E2.89443
G1 X156.018 Y92.657 E2.95934
G1 X156.083 Y93.016 E2.97147
G1 X156.347 Y94.678 E3.02744
G1 X156.393 Y95.015 E3.03876
G1 X156.585 Y96.693 E3.09493
G1 X156.617 Y97.034 E3.10632
G1 X156.735 Y98.716 E3.1624
G1 X156.752 Y99.071 E3.17422
G1 X156.798 Y100.953 E3.23684
G1 X156.798 Y159.215 E5.17464
G1 X156.713 Y160.364 E5.21296
G1 X156.671 Y160.646 E5.22244
G1 X156.515 Y161.42 E5.24871
G1 X156.22 Y162.339 E5.28081
G1 X156.087 Y162.679 E5.29295
G1 X155.762 Y163.398 E5.31919
G1 X155.244 Y164.265 E5.35279
G1 X155.084 Y164.497 E5.36216
G1 X154.603 Y165.124 E5.38844
G1 X154.137 Y165.626 E5.41122
G1 X153.937 Y165.823 E5.42056
G1 X153.347 Y166.348 E5.44683
G1 X152.678 Y166.829 E5.47423
G1 X152.432 Y166.987 E5.48396
G1 X151.747 Y167.379 E5.51021
G1 X150.872 Y167.758 E5.54192
G1 X150.535 Y167.88 E5.55384
G1 X149.78 Y168.111 E5.5801
G1 X149.005 Y168.264 E5.60638
G1 X148.468 Y168.324 E5.62435
G1 X148.045 Y168.356 E5.63846
G1 X147.256 Y168.375 E5.66471
G1 X146.469 Y168.315 E5.69096
G1 X145.905 Y168.222 E5.70997
G1 X145.452 Y168.13 E5.72535
G1 X144.687 Y167.934 E5.75161
G1 X143.945 Y167.661 E5.77791
G1 X143.236 Y167.315 E5.80415
G1 X142.784 Y167.046 E5.82164
G1 X142.442 Y166.826 E5.83517
G1 X141.8 Y166.366 E5.86144
G1 X141.202 Y165.837 E5.88799
G1 X141.001 Y165.64 E5.89735
G1 X140.361 Y164.945 E5.92878
G1 X140.326 Y165.239 E5.93862
G1 X140.104 Y166.354 E5.97644
G1 X139.997 Y166.741 E5.98979
G1 X139.748 Y167.49 E6.01604
G1 X139.425 Y168.211 E6.04232
G1 X139.149 Y168.706 E6.06117
G1 X138.898 Y169.12 E6.07727
G1 X138.455 Y169.774 E6.10355
G1 X137.983 Y170.341 E6.12808
G1 X137.714 Y170.635 E6.14134
G1 X137.152 Y171.19 E6.16761
G1 X136.787 Y171.496 E6.18345
G1 X136.57 Y171.667 E6.19264
G1 X136.19 Y171.949 E6.20838
G1 X135.546 Y172.396 E6.23445
G1 X135.232 Y172.602 E6.24694
G1 X134.568 Y173.017 E6.27299
G1 X134.234 Y173.215 E6.2859
G1 X133.569 Y173.586 E6.31123
G1 X133.234 Y173.762 E6.32381
G1 X132.504 Y174.124 E6.35092
G1 X132.151 Y174.288 E6.36386
G1 X131.434 Y174.6 E6.38987
G1 X131.084 Y174.743 E6.40244
G1 X130.355 Y175.019 E6.42837
G1 X129.991 Y175.146 E6.44119
G1 X129.248 Y175.386 E6.46716
G1 X128.88 Y175.495 E6.47993
G1 X128.127 Y175.698 E6.50587
G1 X127.774 Y175.785 E6.51796
G1 X127.011 Y175.953 E6.54394
G1 X126.623 Y176.028 E6.55709
G1 X125.853 Y176.157 E6.58306
G1 X125.482 Y176.21 E6.59552
G1 X124.706 Y176.302 E6.62151
G1 X124.341 Y176.336 E6.6337
G1 X121.131 Y176.564 E6.74074
G1 X120.76 Y176.582 E6.75309
G1 X117.682 Y176.654 E6.85549
G1 X117.318 Y176.654 E6.8676
G1 X114.24 Y176.582 E6.97
G1 X113.878 Y176.565 E6.98206
G1 X110.802 Y176.35 E7.08461
G1 X110.458 Y176.318 E7.09611
G1 X109.55 Y176.214 E7.1265
G1 X109.151 Y176.158 E7.1399
G1 X108.38 Y176.029 E7.1659
G1 X107.999 Y175.956 E7.17881
G1 X107.236 Y175.789 E7.20479
G1 X106.864 Y175.698 E7.21752
G1 X106.111 Y175.494 E7.24347
G1 X105.748 Y175.385 E7.25608
G1 X105.007 Y175.145 E7.28198
G1 X104.655 Y175.022 E7.29438
G1 X103.924 Y174.746 E7.32037
G1 X103.563 Y174.6 E7.33332
G1 X102.847 Y174.288 E7.3593
G1 X102.497 Y174.125 E7.37214
G1 X101.757 Y173.758 E7.39962
G1 X101.407 Y173.573 E7.41278
G1 X100.717 Y173.186 E7.4391
G1 X100.392 Y172.993 E7.45167
G1 X99.728 Y172.577 E7.47773
G1 X99.401 Y172.361 E7.49076
G1 X98.777 Y171.925 E7.51608
G1 X98.212 Y171.496 E7.53968
G1 X97.618 Y170.977 E7.56591
G1 X97.278 Y170.628 E7.58212
G1 X96.952 Y170.271 E7.5982
G1 X96.45 Y169.661 E7.62447
G1 X96.012 Y169.004 E7.65074
G1 X95.755 Y168.537 E7.66847
G1 X95.569 Y168.17 E7.68215
G1 X95.248 Y167.449 E7.7084
G1 X95.058 Y166.894 E7.72791
G1 X94.945 Y166.519 E7.74094
G1 X94.755 Y165.753 E7.76719
G1 X94.671 Y165.217 E7.78523
G1 X94.635 Y164.92 E7.79518
G1 X94.478 Y165.124 E7.80374
G1 X94.012 Y165.626 E7.82653
G1 X93.812 Y165.823 E7.83586
G1 X93.222 Y166.348 E7.86213
G1 X92.553 Y166.829 E7.88954
G1 X92.307 Y166.987 E7.89926
G1 X91.622 Y167.379 E7.92551
G1 X90.747 Y167.758 E7.95723
G1 X90.41 Y167.88 E7.96915
G1 X89.655 Y168.111 E7.99541
G1 X88.88 Y168.264 E8.02168
G1 X88.343 Y168.324 E8.03965
G1 X87.92 Y168.356 E8.05376
G1 X87.131 Y168.375 E8.08001
G1 X86.344 Y168.315 E8.10626
G1 X85.78 Y168.222 E8.12528
G1 X85.327 Y168.13 E8.14065
G1 X84.562 Y167.934 E8.16692
G1 X83.82 Y167.661 E8.19321
G1 X83.111 Y167.315 E8.21945
G1 X82.659 Y167.046 E8.23695
G1 X82.317 Y166.826 E8.25047
G1 X81.675 Y166.366 E8.27674
G1 X81.077 Y165.837 E8.30329
G1 X80.876 Y165.64 E8.31266
G1 X80.341 Y165.059 E8.33892
G1 X79.773 Y164.285 E8.37086
G1 X79.579 Y163.983 E8.38279
G1 X79.187 Y163.298 E8.40904
G1 X78.81 Y162.428 E8.44058
G1 X78.712 Y162.158 E8.45013
G1 X78.481 Y161.403 E8.47639
G1 X78.361 Y160.844 E8.49541
G1 X78.317 Y160.593 E8.50389
G1 X78.22 Y159.809 E8.53016
G1 X78.2 Y159.246 E8.5489
G1 X78.202 Y100.957 E10.4876
G1 X78.247 Y99.077 E10.55015
G1 X78.264 Y98.714 E10.56223
G1 X78.383 Y97.03 E10.61838
G1 X78.414 Y96.696 E10.62954
G1 X78.605 Y95.021 E10.68561
G1 X78.651 Y94.683 E10.69696
G1 X78.915 Y93.019 E10.75299
G1 X78.981 Y92.659 E10.76517
G1 X79.377 Y90.747 E10.83011
G1 X79.462 Y90.38 E10.84264
G1 X79.881 Y88.756 E10.89842
G1 X79.974 Y88.427 E10.90979
G1 X80.529 Y86.62 E10.97267
G1 X80.674 Y86.194 E10.98763
G1 X81.242 Y84.624 E11.04316
G1 X81.373 Y84.289 E11.05513
G1 X82.012 Y82.749 E11.11058
G1 X82.153 Y82.428 E11.12224
G1 X82.856 Y80.928 E11.17734
G1 X83.161 Y80.32 E11.19996
G1 X83.94 Y78.862 E11.25495
G1 X84.12 Y78.544 E11.2671
G1 X84.979 Y77.103 E11.3229
G1 X85.177 Y76.788 E11.33527
G1 X86.118 Y75.368 E11.39193
G1 X86.341 Y75.05 E11.40485
G1 X87.349 Y73.682 E11.46137
G1 X87.579 Y73.384 E11.47389
G1 X88.635 Y72.087 E11.52951
G0 F6000 X88.945 Y72.34
G1 F900 X89.176 Y72.071 E11.54131
G1 X90.196 Y70.934 E11.59211
G1 X90.423 Y70.691 E11.60317
G1 X91.594 Y69.506 E11.65858
G1 X92.586 Y68.572 E11.7039
G1 X92.825 Y68.357 E11.71459
G1 X93.846 Y67.476 E11.75944
G1 X95.071 Y66.494 E11.81166
G1 X95.322 Y66.303 E11.82215
G1 X96.455 Y65.478 E11.86877
G1 X96.718 Y65.295 E11.87943
G1 X97.774 Y64.594 E11.92158
G1 X98.045 Y64.422 E11.93226
G1 X99.237 Y63.703 E11.97856
G1 X99.514 Y63.544 E11.98918
G1 X100.674 Y62.911 E12.03313
G1 X102.148 Y62.182 E12.08783
G1 X102.455 Y62.039 E12.09909
G1 X103.657 Y61.517 E12.14268
G1 X105.168 Y60.929 E12.1966
G1 X105.486 Y60.815 E12.20784
G1 X106.725 Y60.402 E12.25128
G1 X107.043 Y60.304 E12.26235
G1 X108.296 Y59.948 E12.30567
G1 X108.619 Y59.864 E12.31677
G1 X109.882 Y59.566 E12.35993
G1 X110.205 Y59.497 E12.37092
G1 X111.478 Y59.256 E12.41401
G1 X111.815 Y59.2 E12.42537
G1 X113.098 Y59.018 E12.46847
G1 X113.428 Y58.979 E12.47952
G1 X114.717 Y58.855 E12.52259
G1 X115.012 Y58.833 E12.53243
G1 X116.327 Y58.764 E12.57623
G1 X117.366 Y58.745 E12.61079
G1 X118.692 Y58.764 E12.6549
G1 X120.035 Y58.835 E12.69963
G1 X120.339 Y58.858 E12.70977
G1 X121.632 Y58.985 E12.75298
G1 X121.956 Y59.024 E12.76384
G1 X123.174 Y59.198 E12.80476
G1 X123.496 Y59.252 E12.81562
G1 X124.776 Y59.493 E12.85894
G1 X125.103 Y59.562 E12.87006
G1 X126.373 Y59.861 E12.91345
G1 X126.702 Y59.946 E12.92475
G1 X127.957 Y60.303 E12.96815
G1 X128.272 Y60.401 E12.97912
G1 X129.514 Y60.815 E13.02267
G1 X129.831 Y60.928 E13.03386
G1 X131.058 Y61.4 E13.07759
G1 X131.357 Y61.523 E13.08834
G1 X132.564 Y62.049 E13.13213
G1 X132.859 Y62.185 E13.14293
G1 X134.047 Y62.766 E13.18692
G1 X134.342 Y62.919 E13.19797
G1 X135.507 Y63.555 E13.24212
G1 X135.785 Y63.714 E13.25277
G1 X136.925 Y64.402 E13.29706
G1 X138.303 Y65.309 E13.35193
G1 X138.577 Y65.499 E13.36302
G1 X139.901 Y66.473 E13.41769
G1 X140.955 Y67.31 E13.46245
G1 X141.198 Y67.512 E13.47296
G1 X142.222 Y68.399 E13.51802
G1 X142.452 Y68.607 E13.52833
G1 X143.441 Y69.539 E13.57353
G1 X143.663 Y69.757 E13.58388
G1 X144.617 Y70.735 E13.62932
G1 X144.834 Y70.967 E13.63989
G1 X145.84 Y72.091 E13.69006
G1 X146.06 Y72.348 E13.70131
G1 X147.106 Y73.63 E13.75634
G1 X147.333 Y73.923 E13.76867
G1 X148.338 Y75.289 E13.82508
G1 X148.544 Y75.584 E13.83704
G1 X149.487 Y77.006 E13.89379
G1 X149.679 Y77.312 E13.90581
G1 X150.537 Y78.754 E13.96162
G1 X150.702 Y79.045 E13.97274
G1 X151.482 Y80.502 E14.02771
G1 X151.781 Y81.095 E14.0498
G1 X152.485 Y82.597 E14.10497
G1 X152.622 Y82.909 E14.11631
G1 X153.258 Y84.446 E14.17163
G1 X153.377 Y84.752 E14.18255
G1 X153.947 Y86.324 E14.23817
G1 X154.091 Y86.746 E14.253
G1 X154.642 Y88.542 E14.31548
G1 X154.731 Y88.856 E14.32633
G1 X155.15 Y90.481 E14.38215
G1 X155.23 Y90.827 E14.39396
G1 X155.626 Y92.738 E14.45887
G1 X155.688 Y93.079 E14.4704
G1 X155.952 Y94.741 E14.52637
G1 X155.996 Y95.061 E14.53711
G1 X156.188 Y96.739 E14.59329
G1 X156.218 Y97.062 E14.60408
G1 X156.336 Y98.744 E14.66016
G1 X156.352 Y99.081 E14.67138
G1 X156.398 Y100.963 E14.73399
G1 X156.398 Y159.215 E16.67146
G1 X156.317 Y160.305 E16.70782
G1 X156.275 Y160.587 E16.7173
G1 X156.123 Y161.341 E16.74288
G1 X155.847 Y162.193 E16.77267
G1 X155.714 Y162.533 E16.78481
G1 X155.397 Y163.234 E16.8104
G1 X154.915 Y164.038 E16.84158
G1 X154.755 Y164.27 E16.85095
G1 X154.286 Y164.88 E16.87655
G1 X153.856 Y165.341 E16.89751
G1 X153.656 Y165.538 E16.90685
G1 X153.081 Y166.049 E16.93244
G1 X152.462 Y166.492 E16.95775
G1 X152.216 Y166.65 E16.96748
G1 X151.548 Y167.032 E16.99307
G1 X150.736 Y167.382 E17.02248
G1 X150.399 Y167.504 E17.0344
G1 X149.663 Y167.728 E17.05999
G1 X148.908 Y167.874 E17.08557
G1 X148.438 Y167.925 E17.10129
G1 X148.015 Y167.957 E17.1154
G1 X147.246 Y167.975 E17.14098
G1 X146.48 Y167.913 E17.16654
G1 X145.984 Y167.83 E17.18327
G1 X145.531 Y167.738 E17.19865
G1 X144.786 Y167.546 E17.22423
G1 X144.066 Y167.278 E17.24979
G1 X143.376 Y166.936 E17.2754
G1 X143.001 Y166.71 E17.28996
G1 X142.659 Y166.49 E17.30349
G1 X142.034 Y166.04 E17.3291
G1 X141.482 Y165.551 E17.35363
G1 X141.281 Y165.354 E17.36299
G1 X140.761 Y164.788 E17.38855
G1 X140.235 Y164.069 E17.41819
G1 X140.037 Y163.758 E17.43045
G1 X139.966 Y164.893 E17.46827
G1 X139.929 Y165.19 E17.47823
G1 X139.718 Y166.247 E17.51408
G1 X139.611 Y166.634 E17.52743
G1 X139.368 Y167.364 E17.55302
G1 X139.051 Y168.064 E17.57858
G1 X138.807 Y168.498 E17.59514
G1 X138.556 Y168.912 E17.61124
G1 X138.123 Y169.549 E17.63686
G1 X137.688 Y170.071 E17.65946
G1 X137.419 Y170.365 E17.67271
G1 X136.871 Y170.905 E17.6983
G1 X136.322 Y171.353 E17.72187
G1 X135.962 Y171.62 E17.73678
G1 X135.318 Y172.067 E17.76285
G1 X135.02 Y172.263 E17.77471
G1 X134.356 Y172.678 E17.80076
G1 X134.039 Y172.865 E17.813
G1 X133.374 Y173.236 E17.83833
G1 X133.057 Y173.404 E17.85026
G1 X132.327 Y173.766 E17.87736
G1 X131.992 Y173.921 E17.88964
G1 X131.275 Y174.233 E17.91564
G1 X130.942 Y174.369 E17.92761
G1 X130.213 Y174.645 E17.95353
G1 X129.868 Y174.766 E17.96569
G1 X129.125 Y175.006 E17.99166
G1 X128.776 Y175.109 E18.00377
G1 X128.023 Y175.312 E18.02971
G1 X127.688 Y175.394 E18.04118
G1 X126.925 Y175.562 E18.06716
G1 X126.557 Y175.633 E18.07963
G1 X125.787 Y175.762 E18.10559
G1 X125.435 Y175.813 E18.11742
G1 X124.659 Y175.905 E18.14341
G1 X124.312 Y175.937 E18.15501
G1 X121.102 Y176.165 E18.26204
G1 X120.751 Y176.182 E18.27373
G1 X117.673 Y176.254 E18.37613
G1 X117.327 Y176.254 E18.38764
G1 X114.249 Y176.182 E18.49004
G1 X113.906 Y176.166 E18.50146
G1 X110.83 Y175.951 E18.60402
G1 X110.504 Y175.921 E18.61491
G1 X109.596 Y175.817 E18.64531
G1 X109.217 Y175.764 E18.65803
G1 X108.446 Y175.635 E18.68403
G1 X108.085 Y175.565 E18.69626
G1 X107.322 Y175.398 E18.72224
G1 X106.969 Y175.312 E18.73433
G1 X106.216 Y175.108 E18.76027
G1 X105.871 Y175.005 E18.77225
G1 X105.13 Y174.765 E18.79816
G1 X104.796 Y174.648 E18.80993
G1 X104.065 Y174.372 E18.83591
G1 X103.723 Y174.233 E18.84819
G1 X103.007 Y173.921 E18.87417
G1 X102.675 Y173.766 E18.88636
G1 X101.935 Y173.399 E18.91383
G1 X101.603 Y173.224 E18.92631
G1 X100.913 Y172.837 E18.95263
G1 X100.604 Y172.654 E18.96457
G1 X99.94 Y172.238 E18.99063
G1 X99.631 Y172.033 E19.00296
G1 X99.007 Y171.597 E19.02828
G1 X98.46 Y171.182 E19.05112
G1 X97.881 Y170.675 E19.07672
G1 X97.574 Y170.358 E19.09139
G1 X97.248 Y170.001 E19.10747
G1 X96.759 Y169.407 E19.13306
G1 X96.335 Y168.765 E19.15865
G1 X96.111 Y168.356 E19.17416
G1 X95.925 Y167.989 E19.18785
G1 X95.614 Y167.286 E19.21342
G1 X95.441 Y166.779 E19.23123
G1 X95.328 Y166.404 E19.24426
G1 X95.144 Y165.657 E19.26985
G1 X95.068 Y165.168 E19.28631
G1 X95.032 Y164.874 E19.29616
G1 X94.977 Y163.978 E19.32602
G1 X94.977 Y163.726 E19.3344
G1 X94.79 Y164.038 E19.3465
G1 X94.63 Y164.27 E19.35587
G1 X94.161 Y164.88 E19.38146
G1 X93.731 Y165.341 E19.40243
G1 X93.531 Y165.538 E19.41177
G1 X92.956 Y166.049 E19.43735
G1 X92.337 Y166.492 E19.46267
G1 X92.091 Y166.65 E19.47239
