;FLAVOR:Marlin
;TIME:270
;Filament used: 0.0609123m
;Layer height: 0.1
;MINX:104.08
;MINY:100.575
;MINZ:0.1
;MAXX:124.92
;MAXY:136.425
;MAXZ:0.8
;Generated with Cura_SteamEngine 5.2.2
M140 S50
M105
M190 S50
M104 S200
M105
M109 S200
M82 ;absolute extrusion mode
; Ender 3 Custom Start G-code
G92 E0 ; Reset Extruder
G28 ; Home all axes
G1 Z2.0 F3000 ; Move Z Axis up little to prevent scratching of Heat Bed
G1 X0.1 Y20 Z0.3 F5000.0 ; Move to start position
G1 X0.1 Y200.0 Z0.3 F1500.0 E15 ; Draw the first line
G1 X0.4 Y200.0 Z0.3 F5000.0 ; Move to side a little
G1 X0.4 Y20 Z0.3 F1500.0 E30 ; Draw the second line
G92 E0 ; Reset Extruder
G1 Z2.0 F3000 ; Move Z Axis up little to prevent scratching of Heat Bed
G1 X5 Y20 Z0.3 F5000.0 ; Move over to prevent blob squish
G92 E0
G92 E0
G1 F2700 E-5
;LAYER_COUNT:8
;LAYER:0
M107
G0 F6000 X106.365 Y103.36 Z0.1
;TYPE:SKIRT
G1 F2700 E0
G1 F1200 X106.865 Y102.86 E0.01176
G1 X107.451 Y102.33 E0.0249
G1 X108.087 Y101.863 E0.03802
G1 X108.767 Y101.462 E0.05115
G1 X109.485 Y101.132 E0.06429
G1 X110.232 Y100.877 E0.07742
G1 X111.001 Y100.698 E0.09055
G1 X111.785 Y100.598 E0.10369
G1 X112.38 Y100.575 E0.11359
G1 X116.62 Y100.575 E0.1841
G1 X117.409 Y100.615 E0.19724
G1 X118.189 Y100.734 E0.21036
G1 X118.954 Y100.932 E0.22351
G1 X119.694 Y101.206 E0.23663
G1 X120.403 Y101.554 E0.24976
G1 X121.074 Y101.972 E0.26291
G1 X121.698 Y102.455 E0.27603
G1 X122.135 Y102.86 E0.28594
G1 X122.635 Y103.36 E0.2977
G1 X123.165 Y103.946 E0.31084
G1 X123.632 Y104.582 E0.32396
G1 X124.033 Y105.262 E0.33709
G1 X124.363 Y105.98 E0.35023
G1 X124.618 Y106.727 E0.36336
G1 X124.797 Y107.496 E0.37649
G1 X124.897 Y108.28 E0.38963
G1 X124.92 Y108.875 E0.39953
G1 X124.92 Y128.125 E0.71966
G1 X124.88 Y128.914 E0.7328
G1 X124.761 Y129.694 E0.74592
G1 X124.563 Y130.459 E0.75906
G1 X124.289 Y131.199 E0.77219
G1 X123.941 Y131.908 E0.78532
G1 X123.523 Y132.579 E0.79847
G1 X123.04 Y133.203 E0.81159
G1 X122.635 Y133.64 E0.8215
G1 X122.135 Y134.14 E0.83326
G1 X121.549 Y134.67 E0.8464
G1 X120.913 Y135.137 E0.85952
G1 X120.233 Y135.538 E0.87265
G1 X119.515 Y135.868 E0.88579
G1 X118.768 Y136.123 E0.89892
G1 X117.999 Y136.302 E0.91205
G1 X117.215 Y136.402 E0.92519
G1 X116.62 Y136.425 E0.93509
G1 X112.38 Y136.425 E1.0056
G1 X111.591 Y136.385 E1.01874
G1 X110.811 Y136.266 E1.03186
G1 X110.046 Y136.068 E1.045
G1 X109.306 Y135.794 E1.05813
G1 X108.597 Y135.446 E1.07126
G1 X107.926 Y135.028 E1.08441
G1 X107.302 Y134.545 E1.09753
G1 X106.865 Y134.14 E1.10744
G1 X106.365 Y133.64 E1.1192
G1 X105.835 Y133.054 E1.13234
G1 X105.368 Y132.418 E1.14546
G1 X104.967 Y131.738 E1.15859
G1 X104.637 Y131.02 E1.17173
G1 X104.382 Y130.273 E1.18486
G1 X104.203 Y129.504 E1.19799
G1 X104.103 Y128.72 E1.21113
G1 X104.08 Y128.125 E1.22103
G1 X104.08 Y108.875 E1.54116
G1 X104.12 Y108.086 E1.5543
G1 X104.239 Y107.306 E1.56742
G1 X104.437 Y106.541 E1.58056
G1 X104.711 Y105.801 E1.59368
G1 X105.059 Y105.092 E1.60682
G1 X105.477 Y104.421 E1.61997
G1 X105.96 Y103.797 E1.63309
G1 X106.365 Y103.36 E1.643
G0 F6000 X106.647 Y103.642
G1 F1200 X107.147 Y103.142 E1.65476
G1 X107.719 Y102.628 E1.66754
G1 X108.341 Y102.175 E1.68034
G1 X109.006 Y101.789 E1.69313
G1 X109.708 Y101.474 E1.70592
G1 X110.439 Y101.234 E1.71872
G1 X111.19 Y101.071 E1.7315
G1 X111.955 Y100.987 E1.7443
G1 X112.38 Y100.975 E1.75137
G1 X116.62 Y100.975 E1.82188
G1 X117.388 Y101.015 E1.83467
G1 X118.148 Y101.134 E1.84746
G1 X118.891 Y101.332 E1.86025
G1 X119.61 Y101.606 E1.87304
G1 X120.296 Y101.953 E1.88583
G1 X120.943 Y102.369 E1.89862
G1 X121.543 Y102.85 E1.91141
G1 X121.853 Y103.142 E1.91849
G1 X122.353 Y103.642 E1.93025
G1 X122.867 Y104.214 E1.94304
G1 X123.32 Y104.836 E1.95584
G1 X123.706 Y105.501 E1.96862
G1 X124.021 Y106.203 E1.98142
G1 X124.261 Y106.934 E1.99421
G1 X124.424 Y107.685 E2.00699
G1 X124.508 Y108.45 E2.01979
G1 X124.52 Y108.875 E2.02686
G1 X124.52 Y128.125 E2.34699
G1 X124.48 Y128.893 E2.35978
G1 X124.361 Y129.653 E2.37257
G1 X124.163 Y130.396 E2.38536
G1 X123.889 Y131.115 E2.39816
G1 X123.542 Y131.801 E2.41094
G1 X123.126 Y132.448 E2.42373
G1 X122.645 Y133.048 E2.43652
G1 X122.353 Y133.358 E2.4436
G1 X121.853 Y133.858 E2.45536
G1 X121.281 Y134.372 E2.46815
G1 X120.659 Y134.825 E2.48095
G1 X119.994 Y135.211 E2.49374
G1 X119.292 Y135.526 E2.50653
G1 X118.561 Y135.766 E2.51933
G1 X117.81 Y135.929 E2.53211
G1 X117.045 Y136.013 E2.5449
G1 X116.62 Y136.025 E2.55198
G1 X112.38 Y136.025 E2.62249
G1 X111.612 Y135.985 E2.63528
G1 X110.852 Y135.866 E2.64807
G1 X110.109 Y135.668 E2.66086
G1 X109.39 Y135.394 E2.67365
G1 X108.704 Y135.047 E2.68644
G1 X108.057 Y134.631 E2.69923
G1 X107.457 Y134.15 E2.71202
G1 X107.147 Y133.858 E2.7191
G1 X106.647 Y133.358 E2.73086
G1 X106.133 Y132.786 E2.74365
G1 X105.68 Y132.164 E2.75644
G1 X105.294 Y131.499 E2.76923
G1 X104.979 Y130.797 E2.78203
G1 X104.739 Y130.066 E2.79482
G1 X104.576 Y129.315 E2.8076
G1 X104.492 Y128.55 E2.8204
G1 X104.48 Y128.125 E2.82747
G1 X104.48 Y108.875 E3.1476
G1 X104.52 Y108.107 E3.16039
G1 X104.639 Y107.347 E3.17318
G1 X104.837 Y106.604 E3.18597
G1 X105.111 Y105.885 E3.19876
G1 X105.458 Y105.199 E3.21155
G1 X105.874 Y104.552 E3.22434
G1 X106.355 Y103.952 E3.23713
G1 X106.647 Y103.642 E3.24421
G0 F6000 X106.93 Y103.925
G1 F1200 X107.43 Y103.425 E3.25597
G1 X107.987 Y102.925 E3.26842
G1 X108.593 Y102.488 E3.28084
G1 X109.243 Y102.117 E3.29329
G1 X109.929 Y101.818 E3.30573
G1 X110.643 Y101.594 E3.31818
G1 X111.376 Y101.447 E3.33061
G1 X112.38 Y101.375 E3.34735
G1 X116.62 Y101.375 E3.41786
G1 X117.367 Y101.415 E3.4303
G1 X118.105 Y101.534 E3.44273
G1 X118.827 Y101.732 E3.45518
G1 X119.523 Y102.005 E3.46762
G1 X120.186 Y102.352 E3.48006
G1 X120.809 Y102.767 E3.49251
G1 X121.57 Y103.425 E3.50924
G1 X122.07 Y103.925 E3.521
G1 X122.57 Y104.482 E3.53345
G1 X123.007 Y105.088 E3.54587
G1 X123.378 Y105.738 E3.55832
G1 X123.677 Y106.424 E3.57076
G1 X123.901 Y107.138 E3.58321
G1 X124.048 Y107.871 E3.59564
G1 X124.12 Y108.875 E3.61238
G1 X124.12 Y128.125 E3.93251
G1 X124.08 Y128.872 E3.94495
G1 X123.961 Y129.61 E3.95738
G1 X123.763 Y130.332 E3.96983
G1 X123.49 Y131.028 E3.98226
G1 X123.143 Y131.691 E3.99471
G1 X122.728 Y132.314 E4.00716
G1 X122.07 Y133.075 E4.02389
G1 X121.57 Y133.575 E4.03565
G1 X121.013 Y134.075 E4.04809
G1 X120.407 Y134.512 E4.06052
G1 X119.757 Y134.883 E4.07297
G1 X119.071 Y135.182 E4.08541
G1 X118.357 Y135.406 E4.09786
G1 X117.624 Y135.553 E4.11029
G1 X116.62 Y135.625 E4.12703
G1 X112.38 Y135.625 E4.19754
G1 X111.633 Y135.585 E4.20998
G1 X110.895 Y135.466 E4.22241
G1 X110.173 Y135.268 E4.23486
G1 X109.477 Y134.995 E4.24729
G1 X108.814 Y134.648 E4.25974
G1 X108.191 Y134.233 E4.27219
G1 X107.43 Y133.575 E4.28892
G1 X106.93 Y133.075 E4.30068
G1 X106.43 Y132.518 E4.31312
G1 X105.993 Y131.912 E4.32555
G1 X105.622 Y131.262 E4.338
G1 X105.323 Y130.576 E4.35044
G1 X105.099 Y129.862 E4.36288
G1 X104.952 Y129.129 E4.37532
G1 X104.88 Y128.125 E4.39206
G1 X104.88 Y108.875 E4.71219
G1 X104.92 Y108.128 E4.72463
G1 X105.039 Y107.39 E4.73706
G1 X105.237 Y106.668 E4.74951
G1 X105.51 Y105.972 E4.76194
G1 X105.857 Y105.309 E4.77439
G1 X106.272 Y104.686 E4.78683
G1 X106.93 Y103.925 E4.80356
G0 F6000 X107.213 Y104.208
G1 F1200 X107.713 Y103.708 E4.81532
G1 X108.254 Y103.224 E4.8274
G1 X108.845 Y102.801 E4.83948
G1 X109.479 Y102.447 E4.85156
G1 X110.148 Y102.164 E4.86364
G1 X110.844 Y101.956 E4.87572
G1 X111.559 Y101.826 E4.8878
G1 X112.38 Y101.775 E4.90148
G1 X116.62 Y101.775 E4.97199
G1 X117.345 Y101.815 E4.98407
G1 X118.062 Y101.934 E4.99616
G1 X118.761 Y102.132 E5.00824
G1 X119.434 Y102.405 E5.02032
G1 X120.073 Y102.75 E5.03239
G1 X120.67 Y103.164 E5.04447
G1 X121.287 Y103.708 E5.05815
G1 X121.787 Y104.208 E5.06991
G1 X122.271 Y104.749 E5.08198
G1 X122.694 Y105.34 E5.09407
G1 X123.048 Y105.974 E5.10615
G1 X123.331 Y106.643 E5.11823
G1 X123.539 Y107.339 E5.13031
G1 X123.669 Y108.054 E5.14239
G1 X123.72 Y108.875 E5.15607
G1 X123.72 Y128.125 E5.4762
G1 X123.68 Y128.85 E5.48828
G1 X123.561 Y129.567 E5.50036
G1 X123.363 Y130.266 E5.51245
G1 X123.09 Y130.939 E5.52452
G1 X122.745 Y131.578 E5.5366
G1 X122.331 Y132.175 E5.54868
G1 X121.787 Y132.792 E5.56236
G1 X121.287 Y133.292 E5.57412
G1 X120.746 Y133.776 E5.58619
G1 X120.155 Y134.199 E5.59828
G1 X119.521 Y134.553 E5.61035
G1 X118.852 Y134.836 E5.62243
G1 X118.156 Y135.044 E5.63451
G1 X117.441 Y135.174 E5.6466
G1 X116.62 Y135.225 E5.66028
G1 X112.38 Y135.225 E5.73079
G1 X111.655 Y135.185 E5.74287
G1 X110.938 Y135.066 E5.75495
G1 X110.239 Y134.868 E5.76703
G1 X109.566 Y134.595 E5.77911
G1 X108.927 Y134.25 E5.79119
G1 X108.33 Y133.836 E5.80327
G1 X107.713 Y133.292 E5.81695
G1 X107.213 Y132.792 E5.82871
G1 X106.729 Y132.251 E5.84078
G1 X106.306 Y131.66 E5.85287
G1 X105.952 Y131.026 E5.86494
G1 X105.669 Y130.357 E5.87702
G1 X105.461 Y129.661 E5.8891
G1 X105.331 Y128.946 E5.90119
G1 X105.28 Y128.125 E5.91487
G1 X105.28 Y108.875 E6.235
G1 X105.32 Y108.15 E6.24707
G1 X105.439 Y107.433 E6.25916
G1 X105.637 Y106.734 E6.27124
G1 X105.91 Y106.061 E6.28332
G1 X106.255 Y105.422 E6.2954
G1 X106.669 Y104.825 E6.30748
G1 X107.213 Y104.208 E6.32116
G0 F6000 X107.496 Y104.491
G1 F1200 X107.996 Y103.991 E6.33292
G1 X108.521 Y103.522 E6.34462
G1 X109.096 Y103.116 E6.35633
G1 X109.714 Y102.778 E6.36804
G1 X110.365 Y102.511 E6.37974
G1 X111.043 Y102.321 E6.39145
G1 X111.738 Y102.208 E6.40316
G1 X112.38 Y102.175 E6.41385
G1 X116.62 Y102.175 E6.48437
G1 X117.323 Y102.215 E6.49608
G1 X118.017 Y102.334 E6.50779
G1 X118.692 Y102.532 E6.51948
G1 X119.341 Y102.804 E6.53119
G1 X119.955 Y103.149 E6.5429
G1 X120.526 Y103.56 E6.5546
G1 X121.004 Y103.991 E6.5653
G1 X121.504 Y104.491 E6.57706
G1 X121.973 Y105.016 E6.58877
G1 X122.379 Y105.591 E6.60047
G1 X122.717 Y106.209 E6.61219
G1 X122.984 Y106.86 E6.62389
G1 X123.174 Y107.538 E6.6356
G1 X123.287 Y108.233 E6.64731
G1 X123.32 Y108.875 E6.658
G1 X123.32 Y128.125 E6.97813
G1 X123.28 Y128.828 E6.98984
G1 X123.161 Y129.522 E7.00155
G1 X122.963 Y130.197 E7.01325
G1 X122.691 Y130.846 E7.02495
G1 X122.346 Y131.46 E7.03666
G1 X121.935 Y132.031 E7.04836
G1 X121.504 Y132.509 E7.05906
G1 X121.004 Y133.009 E7.07082
G1 X120.479 Y133.478 E7.08253
G1 X119.904 Y133.884 E7.09424
G1 X119.286 Y134.222 E7.10595
G1 X118.635 Y134.489 E7.11765
G1 X117.957 Y134.679 E7.12936
G1 X117.262 Y134.792 E7.14107
G1 X116.62 Y134.825 E7.15176
G1 X112.38 Y134.825 E7.22227
G1 X111.677 Y134.785 E7.23398
G1 X110.983 Y134.666 E7.24569
G1 X110.308 Y134.468 E7.25739
G1 X109.659 Y134.196 E7.26909
G1 X109.045 Y133.851 E7.28081
G1 X108.474 Y133.44 E7.2925
G1 X107.996 Y133.009 E7.30321
G1 X107.496 Y132.509 E7.31497
G1 X107.027 Y131.984 E7.32667
G1 X106.621 Y131.409 E7.33838
G1 X106.283 Y130.791 E7.35009
G1 X106.016 Y130.14 E7.3618
G1 X105.826 Y129.462 E7.37351
G1 X105.713 Y128.767 E7.38522
G1 X105.68 Y128.125 E7.39591
G1 X105.68 Y108.875 E7.71603
G1 X105.72 Y108.172 E7.72774
G1 X105.839 Y107.478 E7.73945
G1 X106.037 Y106.803 E7.75115
G1 X106.309 Y106.154 E7.76285
G1 X106.654 Y105.54 E7.77457
G1 X107.065 Y104.969 E7.78627
G1 X107.496 Y104.491 E7.79697
G0 F6000 X107.779 Y104.774
G1 F1200 X108.279 Y104.274 E7.80873
G1 X108.788 Y103.821 E7.82006
G1 X109.346 Y103.432 E7.83137
G1 X109.946 Y103.11 E7.8427
G1 X110.58 Y102.861 E7.85402
G1 X111.239 Y102.688 E7.86536
G1 X111.913 Y102.594 E7.87667
G1 X112.38 Y102.575 E7.88445
G1 X116.62 Y102.575 E7.95496
G1 X117.3 Y102.615 E7.96628
G1 X117.97 Y102.734 E7.9776
G1 X118.622 Y102.931 E7.98893
G1 X119.246 Y103.203 E8.00025
G1 X119.834 Y103.547 E8.01158
G1 X120.378 Y103.957 E8.02291
G1 X120.721 Y104.274 E8.03067
G1 X121.221 Y104.774 E8.04243
G1 X121.674 Y105.283 E8.05376
G1 X122.063 Y105.841 E8.06508
G1 X122.385 Y106.441 E8.0764
G1 X122.634 Y107.075 E8.08773
G1 X122.807 Y107.734 E8.09906
G1 X122.901 Y108.408 E8.11037
G1 X122.92 Y108.875 E8.11815
G1 X122.92 Y128.125 E8.43828
G1 X122.88 Y128.805 E8.4496
G1 X122.761 Y129.475 E8.46092
G1 X122.564 Y130.127 E8.47225
G1 X122.292 Y130.751 E8.48357
G1 X121.948 Y131.339 E8.4949
G1 X121.538 Y131.883 E8.50623
G1 X121.221 Y132.226 E8.51399
G1 X120.721 Y132.726 E8.52575
G1 X120.212 Y133.179 E8.53708
G1 X119.654 Y133.568 E8.5484
G1 X119.054 Y133.89 E8.55972
G1 X118.42 Y134.139 E8.57105
G1 X117.761 Y134.312 E8.58238
G1 X117.087 Y134.406 E8.59369
G1 X116.62 Y134.425 E8.60147
G1 X112.38 Y134.425 E8.67198
G1 X111.7 Y134.385 E8.68331
G1 X111.03 Y134.266 E8.69462
G1 X110.378 Y134.069 E8.70595
G1 X109.754 Y133.797 E8.71727
G1 X109.166 Y133.453 E8.7286
G1 X108.622 Y133.043 E8.73993
G1 X108.279 Y132.726 E8.74769
G1 X107.779 Y132.226 E8.75945
G1 X107.326 Y131.717 E8.77079
G1 X106.937 Y131.159 E8.7821
G1 X106.615 Y130.559 E8.79342
G1 X106.366 Y129.925 E8.80475
G1 X106.193 Y129.266 E8.81608
G1 X106.099 Y128.592 E8.8274
G1 X106.08 Y128.125 E8.83517
G1 X106.08 Y108.875 E9.1553
G1 X106.12 Y108.195 E9.16663
G1 X106.239 Y107.525 E9.17794
G1 X106.436 Y106.873 E9.18927
G1 X106.708 Y106.249 E9.20059
G1 X107.052 Y105.661 E9.21192
G1 X107.462 Y105.117 E9.22325
G1 X107.779 Y104.774 E9.23101
G0 F6000 X108.062 Y105.057
G1 F1200 X108.562 Y104.557 E9.24277
G1 X109.054 Y104.121 E9.25371
G1 X109.595 Y103.749 E9.26462
G1 X110.177 Y103.445 E9.27554
G1 X110.792 Y103.214 E9.28647
G1 X111.431 Y103.059 E9.2974
G1 X112.38 Y102.975 E9.31325
G1 X116.62 Y102.975 E9.38376
G1 X117.276 Y103.015 E9.39469
G1 X117.922 Y103.134 E9.40561
G1 X118.549 Y103.331 E9.41654
G1 X119.147 Y103.603 E9.42747
G1 X119.708 Y103.945 E9.43839
G1 X120.438 Y104.557 E9.45424
G1 X120.938 Y105.057 E9.46599
G1 X121.374 Y105.549 E9.47693
G1 X121.746 Y106.09 E9.48785
G1 X122.05 Y106.672 E9.49877
G1 X122.281 Y107.287 E9.50969
G1 X122.436 Y107.926 E9.52063
G1 X122.52 Y108.875 E9.53647
G1 X122.52 Y128.125 E9.8566
G1 X122.48 Y128.781 E9.86753
G1 X122.361 Y129.427 E9.87845
G1 X122.164 Y130.054 E9.88938
G1 X121.892 Y130.652 E9.90031
G1 X121.55 Y131.213 E9.91123
G1 X120.938 Y131.943 E9.92707
G1 X120.438 Y132.443 E9.93883
G1 X119.946 Y132.879 E9.94977
G1 X119.405 Y133.251 E9.96068
G1 X118.823 Y133.555 E9.9716
G1 X118.208 Y133.786 E9.98253
G1 X117.569 Y133.941 E9.99346
G1 X116.62 Y134.025 E10.00931
G1 X112.38 Y134.025 E10.07982
G1 X111.724 Y133.985 E10.09075
G1 X111.078 Y133.866 E10.10167
G1 X110.451 Y133.669 E10.1126
G1 X109.853 Y133.397 E10.12353
G1 X109.292 Y133.055 E10.13445
G1 X108.562 Y132.443 E10.1503
G1 X108.062 Y131.943 E10.16205
G1 X107.626 Y131.451 E10.17299
G1 X107.254 Y130.91 E10.18391
G1 X106.95 Y130.328 E10.19482
G1 X106.719 Y129.713 E10.20575
G1 X106.564 Y129.074 E10.21668
G1 X106.48 Y128.125 E10.23253
G1 X106.48 Y108.875 E10.55266
G1 X106.52 Y108.219 E10.56359
G1 X106.639 Y107.573 E10.57451
G1 X106.836 Y106.946 E10.58544
G1 X107.108 Y106.348 E10.59637
G1 X107.45 Y105.787 E10.60729
G1 X108.062 Y105.057 E10.62313
G0 F6000 X108.344 Y105.339
G1 F1200 X108.844 Y104.839 E10.63489
G1 X109.319 Y104.422 E10.6454
G1 X109.842 Y104.067 E10.65592
G1 X110.406 Y103.781 E10.66643
G1 X111.001 Y103.569 E10.67694
G1 X111.619 Y103.433 E10.68746
G1 X112.38 Y103.375 E10.70015
G1 X116.62 Y103.375 E10.77066
G1 X117.251 Y103.415 E10.78118
G1 X117.872 Y103.534 E10.79169
G1 X118.472 Y103.731 E10.8022
G1 X119.044 Y104.002 E10.81272
G1 X119.576 Y104.342 E10.82322
G1 X120.156 Y104.839 E10.83592
G1 X120.656 Y105.339 E10.84768
G1 X121.073 Y105.814 E10.85819
G1 X121.428 Y106.337 E10.86871
G1 X121.714 Y106.901 E10.87922
G1 X121.926 Y107.496 E10.88973
G1 X122.062 Y108.114 E10.90025
G1 X122.12 Y108.875 E10.91294
G1 X122.12 Y128.125 E11.23307
G1 X122.08 Y128.756 E11.24359
G1 X121.961 Y129.377 E11.2541
G1 X121.764 Y129.977 E11.2646
G1 X121.493 Y130.549 E11.27513
G1 X121.153 Y131.081 E11.28563
G1 X120.656 Y131.661 E11.29833
G1 X120.156 Y132.161 E11.31009
G1 X119.681 Y132.578 E11.3206
G1 X119.158 Y132.933 E11.33111
G1 X118.594 Y133.219 E11.34163
G1 X117.999 Y133.431 E11.35213
G1 X117.381 Y133.567 E11.36266
G1 X116.62 Y133.625 E11.37535
G1 X112.38 Y133.625 E11.44586
G1 X111.749 Y133.585 E11.45638
G1 X111.128 Y133.466 E11.46689
G1 X110.528 Y133.269 E11.47739
G1 X109.956 Y132.998 E11.48792
G1 X109.424 Y132.658 E11.49842
G1 X108.844 Y132.161 E11.51112
G1 X108.344 Y131.661 E11.52288
G1 X107.927 Y131.186 E11.53339
G1 X107.572 Y130.663 E11.5439
