;FLAVOR:Marlin
;TIME:11842
;Filament used: 5.50944m
;Layer height: 0.2
;MINX:77.7
;MINY:56.701
;MINZ:0.2
;MAXX:157.3
;MAXY:178.299
;MAXZ:3.6
;Generated with Cura_SteamEngine 5.2.2
M140 S50
M105
M190 S50
M104 S200
M105
M109 S200
M82 ;absolute extrusion mode
; Ender 3 Custom Start G-code
G92 E0 ; Reset Extruder
G28 ; Home all axes
G1 Z2.0 F3000 ; Move Z Axis up little to prevent scratching of Heat Bed
G1 X0.1 Y20 Z0.3 F5000.0 ; Move to start position
G1 X0.1 Y200.0 Z0.3 F1500.0 E15 ; Draw the first line
G1 X0.4 Y200.0 Z0.3 F5000.0 ; Move to side a little
G1 X0.4 Y20 Z0.3 F1500.0 E30 ; Draw the second line
G92 E0 ; Reset Extruder
G1 Z2.0 F3000 ; Move Z Axis up little to prevent scratching of Heat Bed
G1 X5 Y20 Z0.3 F5000.0 ; Move over to prevent blob squish
G92 E0
G92 E0
G1 F2700 E-5
;LAYER_COUNT:18
;LAYER:0
M107
G0 F6000 X81.327 Y63.735 Z0.2
;TYPE:SKIRT
G1 F2700 E0
G1 F1200 X81.641 Y63.334 E0.01694
G1 X81.876 Y63.048 E0.02925
G1 X82.196 Y62.677 E0.04555
G1 X82.464 Y62.382 E0.0588
G1 X83.045 Y61.786 E0.08649
G1 X83.414 Y61.434 E0.10345
G1 X83.72 Y61.157 E0.11718
G1 X84.078 Y60.85 E0.13286
G1 X84.744 Y60.32 E0.16117
G1 X85.045 Y60.096 E0.17365
G1 X85.446 Y59.813 E0.18997
G1 X85.78 Y59.59 E0.20333
G1 X86.195 Y59.328 E0.21966
G1 X86.518 Y59.135 E0.23217
G1 X86.944 Y58.894 E0.24845
G1 X87.278 Y58.716 E0.26104
G1 X87.735 Y58.486 E0.27805
G1 X88.095 Y58.316 E0.2913
G1 X88.544 Y58.118 E0.30762
G1 X88.888 Y57.976 E0.31999
G1 X89.345 Y57.8 E0.33628
G1 X89.706 Y57.671 E0.34903
G1 X90.155 Y57.523 E0.36476
G1 X90.53 Y57.41 E0.37778
G1 X91.003 Y57.28 E0.3941
G1 X91.829 Y57.085 E0.42233
G1 X92.217 Y57.007 E0.43549
G1 X92.702 Y56.923 E0.45186
G1 X93.081 Y56.867 E0.4646
G1 X93.569 Y56.807 E0.48096
G1 X93.947 Y56.77 E0.49359
G1 X94.435 Y56.734 E0.50987
G1 X94.818 Y56.715 E0.52262
G1 X95.5 Y56.701 E0.54531
G1 X139.5 Y56.701 E2.00875
G1 X140.209 Y56.717 E2.03234
G1 X140.599 Y56.736 E2.04533
G1 X141.088 Y56.773 E2.06164
G1 X141.468 Y56.811 E2.07434
G1 X141.955 Y56.872 E2.09066
G1 X142.338 Y56.93 E2.10355
G1 X142.821 Y57.015 E2.11986
G1 X143.196 Y57.091 E2.13259
G1 X144.042 Y57.292 E2.16151
G1 X144.516 Y57.424 E2.17787
G1 X144.88 Y57.535 E2.19053
G1 X145.344 Y57.689 E2.20679
G1 X145.707 Y57.82 E2.21963
G1 X146.166 Y57.998 E2.236
G1 X146.942 Y58.333 E2.26411
G1 X147.295 Y58.5 E2.2771
G1 X147.75 Y58.73 E2.29406
G1 X148.096 Y58.916 E2.30712
G1 X148.828 Y59.343 E2.33531
G1 X149.242 Y59.605 E2.3516
G1 X149.575 Y59.828 E2.36493
G1 X149.961 Y60.101 E2.38066
G1 X150.266 Y60.328 E2.3933
G1 X150.667 Y60.642 E2.41024
G1 X150.953 Y60.877 E2.42256
G1 X151.324 Y61.197 E2.43885
G1 X151.619 Y61.465 E2.45211
G1 X152.215 Y62.046 E2.47979
G1 X152.567 Y62.415 E2.49675
G1 X152.851 Y62.729 E2.51083
G1 X153.394 Y63.376 E2.53893
G1 X153.905 Y64.046 E2.56695
G1 X154.188 Y64.447 E2.58328
G1 X154.411 Y64.781 E2.59664
G1 X154.673 Y65.196 E2.61296
G1 X154.87 Y65.527 E2.62577
G1 X155.12 Y65.97 E2.64269
G1 X155.297 Y66.302 E2.6552
G1 X155.518 Y66.742 E2.67158
G1 X155.685 Y67.096 E2.6846
G1 X155.883 Y67.545 E2.70092
G1 X156.03 Y67.903 E2.71379
G1 X156.329 Y68.707 E2.74232
G1 X156.477 Y69.156 E2.75805
G1 X156.589 Y69.527 E2.77094
G1 X156.805 Y70.339 E2.79888
G1 X156.914 Y70.818 E2.81522
G1 X156.994 Y71.218 E2.82879
G1 X157.078 Y71.703 E2.84516
G1 X157.193 Y72.564 E2.87405
G1 X157.231 Y72.948 E2.88688
G1 X157.267 Y73.438 E2.90323
G1 X157.286 Y73.819 E2.91591
G1 X157.3 Y74.5 E2.93857
G1 X157.299 Y130.642 E4.80586
G1 X157.282 Y131.948 E4.8493
G1 X157.245 Y133.041 E4.88568
G1 X157.13 Y134.938 E4.94889
G1 X156.975 Y136.626 E5.00526
G1 X156.801 Y138.078 E5.0539
G1 X156.516 Y139.973 E5.11764
G1 X156.258 Y141.406 E5.16607
G1 X155.858 Y143.293 E5.23023
G1 X155.457 Y144.922 E5.28602
G1 X155.074 Y146.309 E5.33388
G1 X154.51 Y148.134 E5.39741
G1 X153.964 Y149.713 E5.45298
G1 X153.462 Y151.039 E5.50014
G1 X152.825 Y152.579 E5.55557
G1 X152.154 Y154.071 E5.60998
G1 X151.308 Y155.787 E5.67362
G1 X150.655 Y157.007 E5.71964
G1 X149.845 Y158.417 E5.77372
G1 X148.988 Y159.8 E5.82784
G1 X148.085 Y161.15 E5.88186
G1 X146.98 Y162.675 E5.9445
G1 X145.982 Y163.949 E5.99832
G1 X145.131 Y164.963 E6.04235
G1 X143.872 Y166.358 E6.10485
G1 X142.752 Y167.502 E6.1581
G1 X141.819 Y168.391 E6.20096
G1 X140.638 Y169.44 E6.2535
G1 X139.43 Y170.434 E6.30553
G1 X139.183 Y170.628 E6.31598
G1 X138.176 Y171.385 E6.35788
G1 X137.913 Y171.574 E6.36865
G1 X136.885 Y172.282 E6.41017
G1 X135.591 Y173.109 E6.46125
G1 X135.298 Y173.286 E6.47263
G1 X133.956 Y174.05 E6.52399
G1 X132.871 Y174.616 E6.56469
G1 X132.565 Y174.767 E6.57604
G1 X131.465 Y175.281 E6.61643
G1 X131.159 Y175.416 E6.62755
G1 X130.046 Y175.879 E6.66765
G1 X129.736 Y176 E6.67871
G1 X128.61 Y176.413 E6.7186
G1 X128.275 Y176.527 E6.73037
G1 X127.136 Y176.887 E6.7701
G1 X126.802 Y176.985 E6.78168
G1 X125.655 Y177.292 E6.82117
G1 X125.323 Y177.373 E6.83254
G1 X124.166 Y177.629 E6.87195
G1 X123.808 Y177.699 E6.88409
G1 X122.644 Y177.9 E6.92337
G1 X122.305 Y177.951 E6.93477
G1 X121.138 Y178.1 E6.9739
G1 X120.773 Y178.138 E6.98611
G1 X119.6 Y178.232 E7.02525
G1 X119.256 Y178.252 E7.03671
G1 X118.084 Y178.294 E7.07572
G1 X117.725 Y178.299 E7.08766
G1 X116.552 Y178.287 E7.12667
G1 X116.188 Y178.274 E7.13879
G1 X115.014 Y178.207 E7.1779
G1 X114.662 Y178.179 E7.18964
G1 X113.493 Y178.059 E7.22873
G1 X113.139 Y178.015 E7.24059
G1 X111.972 Y177.841 E7.27984
G1 X111.619 Y177.78 E7.29175
G1 X110.458 Y177.552 E7.3311
G1 X110.117 Y177.477 E7.34272
G1 X108.966 Y177.197 E7.38212
G1 X108.63 Y177.107 E7.39369
G1 X107.486 Y176.774 E7.43331
G1 X107.149 Y176.668 E7.44506
G1 X106.017 Y176.282 E7.48484
G1 X105.703 Y176.167 E7.49597
G1 X104.581 Y175.73 E7.53601
G1 X104.263 Y175.598 E7.54747
G1 X103.157 Y175.11 E7.58767
G1 X102.854 Y174.968 E7.5988
G1 X101.474 Y174.28 E7.65009
G1 X100.398 Y173.692 E7.69087
G1 X100.11 Y173.527 E7.70191
G1 X99.052 Y172.889 E7.743
G1 X98.773 Y172.712 E7.75399
G1 X97.621 Y171.949 E7.79995
G1 X97.309 Y171.731 E7.81261
G1 X96.06 Y170.813 E7.86417
G1 X95.763 Y170.584 E7.87664
G1 X94.547 Y169.597 E7.92873
G1 X94.262 Y169.354 E7.94119
G1 X93.083 Y168.299 E7.99381
G1 X92.815 Y168.048 E8.00602
G1 X91.676 Y166.928 E8.05915
G1 X91.426 Y166.67 E8.0711
G1 X90.328 Y165.486 E8.12481
G1 X90.089 Y165.216 E8.1368
G1 X89.037 Y163.971 E8.19101
G1 X88.824 Y163.707 E8.2023
G1 X87.816 Y162.403 E8.25711
G1 X87.613 Y162.129 E8.26846
G1 X86.655 Y160.771 E8.32373
G1 X86.471 Y160.497 E8.33471
G1 X85.562 Y159.085 E8.39056
G1 X85.39 Y158.806 E8.40146
G1 X84.534 Y157.345 E8.45778
G1 X84.369 Y157.049 E8.46905
G1 X83.481 Y155.37 E8.53223
G1 X83.318 Y155.043 E8.54438
G1 X82.411 Y153.115 E8.61525
G1 X82.257 Y152.767 E8.6279
G1 X81.437 Y150.777 E8.69949
G1 X81.301 Y150.421 E8.71217
G1 X80.574 Y148.379 E8.78426
G1 X80.461 Y148.036 E8.79627
G1 X79.824 Y145.945 E8.86897
G1 X79.726 Y145.595 E8.88106
G1 X79.184 Y143.464 E8.9542
G1 X79.103 Y143.111 E8.96624
G1 X78.658 Y140.946 E9.03975
G1 X78.595 Y140.601 E9.05142
G1 X78.246 Y138.406 E9.12534
G1 X78.198 Y138.052 E9.13722
G1 X77.949 Y135.836 E9.21139
G1 X77.918 Y135.489 E9.22298
G1 X77.768 Y133.261 E9.29725
G1 X77.752 Y132.911 E9.3089
G1 X77.7 Y130.502 E9.38905
G1 X77.702 Y74.31 E11.258
G1 X77.714 Y73.819 E11.27434
G1 X77.734 Y73.428 E11.28736
G1 X77.809 Y72.541 E11.31696
G1 X77.867 Y72.074 E11.33262
G1 X77.924 Y71.693 E11.34543
G1 X78.012 Y71.189 E11.36245
G1 X78.087 Y70.814 E11.37517
G1 X78.191 Y70.353 E11.39088
G1 X78.288 Y69.97 E11.40402
G1 X78.532 Y69.128 E11.43318
G1 X78.68 Y68.681 E11.44884
G1 X78.992 Y67.849 E11.4784
G1 X79.138 Y67.496 E11.4911
G1 X79.329 Y67.065 E11.50678
G1 X79.493 Y66.718 E11.51955
G1 X79.713 Y66.281 E11.53582
G1 X79.903 Y65.926 E11.54921
G1 X80.156 Y65.482 E11.56621
G1 X80.604 Y64.759 E11.5945
G1 X80.827 Y64.426 E11.60783
G1 X81.1 Y64.04 E11.62355
G1 X81.327 Y63.735 E11.6362
G0 F6000 X81.642 Y63.982
G1 F1200 X82.178 Y63.31 E11.66479
G1 X82.498 Y62.939 E11.68108
G1 X82.753 Y62.658 E11.6937
G1 X83.08 Y62.316 E11.70944
G1 X83.69 Y61.724 E11.73771
G1 X83.981 Y61.461 E11.75076
G1 X84.603 Y60.937 E11.77781
G1 X84.99 Y60.635 E11.79414
G1 X85.677 Y60.14 E11.8223
G1 X85.994 Y59.929 E11.83497
G1 X86.715 Y59.483 E11.86316
G1 X87.141 Y59.242 E11.87944
G1 X87.915 Y58.843 E11.90841
G1 X88.256 Y58.682 E11.92095
G1 X89.032 Y58.349 E11.94903
G1 X89.489 Y58.173 E11.96532
G1 X90.28 Y57.903 E11.99312
G1 X90.636 Y57.796 E12.00549
G1 X91.439 Y57.583 E12.03312
G1 X91.917 Y57.475 E12.04942
G1 X92.285 Y57.402 E12.06189
G1 X93.13 Y57.264 E12.09037
G1 X93.618 Y57.204 E12.10672
G1 X94.465 Y57.133 E12.13499
G1 X94.828 Y57.115 E12.14708
G1 X95.5 Y57.101 E12.16944
G1 X139.689 Y57.103 E13.63917
G1 X140.199 Y57.116 E13.65614
G1 X140.568 Y57.135 E13.66843
G1 X141.419 Y57.208 E13.69684
G1 X141.906 Y57.269 E13.71316
G1 X142.269 Y57.324 E13.72537
G1 X142.752 Y57.409 E13.74168
G1 X143.108 Y57.481 E13.75376
G1 X143.934 Y57.677 E13.782
G1 X144.408 Y57.809 E13.79836
G1 X145.218 Y58.069 E13.82666
G1 X145.563 Y58.193 E13.83885
G1 X146.35 Y58.507 E13.86704
G1 X146.78 Y58.698 E13.88268
G1 X147.114 Y58.857 E13.89499
G1 X147.898 Y59.263 E13.92435
G1 X148.324 Y59.506 E13.94066
G1 X149.028 Y59.943 E13.96822
G1 X149.344 Y60.154 E13.98086
G1 X149.73 Y60.427 E13.99659
G1 X150.019 Y60.643 E14.00859
G1 X150.691 Y61.179 E14.03718
G1 X151.062 Y61.499 E14.05347
G1 X151.343 Y61.754 E14.06609
G1 X151.685 Y62.081 E14.08183
G1 X152.277 Y62.691 E14.1101
G1 X152.547 Y62.989 E14.12348
G1 X152.866 Y63.362 E14.1398
G1 X153.368 Y63.994 E14.16665
G1 X153.861 Y64.678 E14.19469
G1 X154.072 Y64.995 E14.20736
G1 X154.522 Y65.723 E14.23582
G1 X154.772 Y66.166 E14.25274
G1 X155.161 Y66.922 E14.28102
G1 X155.319 Y67.257 E14.29334
G1 X155.517 Y67.706 E14.30966
G1 X155.657 Y68.046 E14.32189
G1 X155.832 Y68.503 E14.33816
G1 X156.097 Y69.281 E14.3655
G1 X156.203 Y69.633 E14.37773
G1 X156.415 Y70.428 E14.40509
G1 X156.524 Y70.907 E14.42143
G1 X156.599 Y71.286 E14.43428
G1 X156.736 Y72.127 E14.46262
G1 X156.796 Y72.613 E14.47891
G1 X156.832 Y72.978 E14.49111
G1 X156.886 Y73.829 E14.51947
G1 X156.9 Y74.5 E14.54179
G1 X156.899 Y130.637 E16.40892
G1 X156.882 Y131.934 E16.45206
G1 X156.836 Y133.221 E16.49489
G1 X156.748 Y134.684 E16.54364
G1 X156.6 Y136.36 E16.5996
G1 X156.403 Y138.03 E16.65553
G1 X156.122 Y139.902 E16.71849
G1 X155.821 Y141.556 E16.77441
G1 X155.47 Y143.198 E16.83025
G1 X155.127 Y144.602 E16.87832
G1 X154.688 Y146.203 E16.93354
G1 X154.202 Y147.787 E16.98865
G1 X153.59 Y149.571 E17.05138
G1 X153.088 Y150.897 E17.09854
G1 X152.367 Y152.63 E17.16096
G1 X151.79 Y153.906 E17.20754
G1 X151.068 Y155.379 E17.2621
G1 X150.302 Y156.818 E17.31632
G1 X149.498 Y158.217 E17.36999
G1 X148.508 Y159.804 E17.4322
G1 X147.606 Y161.137 E17.48573
G1 X146.665 Y162.429 E17.5389
G1 X145.847 Y163.48 E17.58319
G1 X144.824 Y164.706 E17.6363
G1 X143.773 Y165.878 E17.68866
G1 X142.677 Y167.013 E17.74114
G1 X142.476 Y167.212 E17.75054
G1 X141.334 Y168.293 E17.80285
G1 X140.374 Y169.14 E17.84543
G1 X139.177 Y170.124 E17.89696
G1 X138.943 Y170.308 E17.90687
G1 X137.936 Y171.065 E17.94877
G1 X137.686 Y171.244 E17.95899
G1 X136.424 Y172.107 E18.00984
G1 X135.377 Y172.771 E18.05108
G1 X135.098 Y172.94 E18.06193
G1 X133.771 Y173.695 E18.11271
G1 X132.686 Y174.261 E18.15341
G1 X132.396 Y174.404 E18.16416
G1 X131.296 Y174.918 E18.20455
G1 X131.005 Y175.046 E18.21512
G1 X129.892 Y175.509 E18.25522
G1 X129.598 Y175.624 E18.26572
G1 X128.472 Y176.037 E18.30561
G1 X128.154 Y176.146 E18.31679
G1 X127.015 Y176.506 E18.35652
G1 X126.698 Y176.598 E18.3675
G1 X125.551 Y176.905 E18.40699
G1 X125.237 Y176.982 E18.41774
G1 X124.08 Y177.238 E18.45715
G1 X123.74 Y177.305 E18.46868
G1 X122.576 Y177.506 E18.50797
G1 X122.254 Y177.554 E18.5188
G1 X121.087 Y177.703 E18.55793
G1 X120.741 Y177.739 E18.5695
G1 X119.568 Y177.833 E18.60863
G1 X119.242 Y177.852 E18.6195
G1 X118.07 Y177.894 E18.6585
G1 X117.729 Y177.899 E18.66984
G1 X116.556 Y177.887 E18.70886
G1 X116.21 Y177.875 E18.72038
G1 X115.036 Y177.808 E18.75949
G1 X114.702 Y177.781 E18.77063
G1 X113.533 Y177.661 E18.80972
G1 X113.198 Y177.619 E18.82095
G1 X112.031 Y177.445 E18.86019
G1 X111.696 Y177.387 E18.8715
G1 X110.535 Y177.159 E18.91085
G1 X110.212 Y177.088 E18.92185
G1 X109.061 Y176.808 E18.96125
G1 X108.742 Y176.723 E18.97223
G1 X107.598 Y176.39 E19.01186
G1 X107.278 Y176.289 E19.02302
G1 X106.146 Y175.903 E19.0628
G1 X105.848 Y175.794 E19.07335
G1 X104.726 Y175.357 E19.1134
G1 X104.425 Y175.232 E19.12424
G1 X103.319 Y174.744 E19.16445
G1 X103.031 Y174.61 E19.17501
G1 X101.665 Y173.929 E19.22578
G1 X100.589 Y173.341 E19.26656
G1 X99.259 Y172.546 E19.3181
G1 X98.994 Y172.379 E19.32852
G1 X97.842 Y171.616 E19.37447
G1 X97.545 Y171.409 E19.38652
G1 X96.296 Y170.491 E19.43807
G1 X96.015 Y170.274 E19.44988
G1 X94.799 Y169.287 E19.50197
G1 X94.528 Y169.056 E19.51381
G1 X93.349 Y168.001 E19.56643
G1 X93.096 Y167.762 E19.57801
G1 X91.957 Y166.642 E19.63114
G1 X91.719 Y166.398 E19.64248
G1 X90.621 Y165.214 E19.69618
G1 X90.395 Y164.958 E19.70754
G1 X89.343 Y163.713 E19.76175
G1 X89.14 Y163.463 E19.77247
G1 X88.132 Y162.159 E19.82728
G1 X87.94 Y161.899 E19.83803
G1 X86.982 Y160.541 E19.89331
G1 X86.807 Y160.281 E19.90373
G1 X85.898 Y158.869 E19.95959
G1 X85.735 Y158.604 E19.96993
G1 X84.879 Y157.143 E20.02625
G1 X84.723 Y156.862 E20.03694
G1 X83.835 Y155.183 E20.10012
G1 X83.68 Y154.873 E20.11164
G1 X82.773 Y152.945 E20.18251
G1 X82.627 Y152.614 E20.19454
G1 X81.807 Y150.624 E20.26613
G1 X81.678 Y150.287 E20.27813
G1 X80.951 Y148.245 E20.35023
G1 X80.843 Y147.919 E20.36165
G1 X80.206 Y145.828 E20.43435
G1 X80.113 Y145.496 E20.44582
G1 X79.571 Y143.365 E20.51895
G1 X79.495 Y143.031 E20.53034
G1 X79.05 Y140.866 E20.60386
G1 X78.99 Y140.538 E20.61495
G1 X78.641 Y138.343 E20.68887
G1 X78.595 Y138.007 E20.70015
G1 X78.346 Y135.791 E20.77432
G1 X78.317 Y135.462 E20.7853
G1 X78.167 Y133.234 E20.85958
G1 X78.152 Y132.903 E20.8706
G1 X78.1 Y130.502 E20.95047
G1 X78.102 Y74.32 E22.81909
G1 X78.114 Y73.829 E22.83543
G1 X78.133 Y73.458 E22.84778
G1 X78.206 Y72.59 E22.87676
G1 X78.264 Y72.123 E22.89241
G1 X78.318 Y71.762 E22.90455
G1 X78.406 Y71.258 E22.92157
G1 X78.477 Y70.903 E22.93361
G1 X78.581 Y70.442 E22.94932
G1 X78.673 Y70.077 E22.96184
G1 X78.81 Y69.587 E22.97877
G1 X79.06 Y68.807 E23.00601
G1 X79.365 Y67.993 E23.03492
G1 X79.504 Y67.658 E23.04698
G1 X79.85 Y66.897 E23.07479
G1 X80.07 Y66.46 E23.09106
G1 X80.251 Y66.124 E23.10376
G1 X80.68 Y65.387 E23.13212
G1 X80.942 Y64.973 E23.14841
G1 X81.153 Y64.657 E23.16105
G1 X81.426 Y64.271 E23.17678
G1 X81.642 Y63.982 E23.18878
G0 F6000 X81.957 Y64.228
G1 F1200 X82.481 Y63.571 E23.21673
G1 X82.801 Y63.2 E23.23302
G1 X83.043 Y62.934 E23.24498
G1 X83.597 Y62.365 E23.2714
G1 X83.966 Y62.013 E23.28836
G1 X84.241 Y61.764 E23.3007
G1 X84.599 Y61.457 E23.31638
G1 X85.237 Y60.95 E23.34349
G1 X85.908 Y60.467 E23.37099
G1 X86.207 Y60.267 E23.38295
G1 X86.912 Y59.831 E23.41052
G1 X87.338 Y59.59 E23.4268
G1 X88.095 Y59.2 E23.45512
G1 X88.418 Y59.048 E23.467
G1 X88.867 Y58.85 E23.48332
G1 X89.632 Y58.547 E23.51068
G1 X89.957 Y58.431 E23.52216
G1 X90.742 Y58.181 E23.54956
G1 X91.215 Y58.051 E23.56588
G1 X92.005 Y57.865 E23.59287
G1 X92.353 Y57.796 E23.60467
G1 X93.179 Y57.661 E23.63251
G1 X93.667 Y57.601 E23.64886
G1 X94.494 Y57.532 E23.67646
G1 X94.838 Y57.515 E23.68792
G1 X95.5 Y57.501 E23.70994
G1 X139.5 Y57.501 E25.17339
G1 X140.188 Y57.516 E25.19628
G1 X140.538 Y57.534 E25.20793
G1 X141.369 Y57.605 E25.23567
G1 X141.856 Y57.666 E25.252
G1 X142.682 Y57.803 E25.27985
G1 X143.499 Y57.98 E25.30765
G1 X143.827 Y58.063 E25.3189
G1 X144.628 Y58.294 E25.34663
G1 X145.092 Y58.448 E25.36289
G1 X145.877 Y58.744 E25.39079
G1 X146.618 Y59.064 E25.41764
G1 X146.934 Y59.214 E25.42927
G1 X147.389 Y59.444 E25.44623
G1 X147.699 Y59.611 E25.45794
G1 X148.4 Y60.019 E25.48492
G1 X148.814 Y60.281 E25.50122
G1 X149.113 Y60.481 E25.51318
G1 X149.773 Y60.958 E25.54026
G1 X150.43 Y61.482 E25.56822
G1 X150.801 Y61.802 E25.58451
G1 X151.067 Y62.044 E25.59647
G1 X151.636 Y62.598 E25.62289
G1 X151.988 Y62.967 E25.63985
G1 X152.243 Y63.249 E25.65249
G1 X152.763 Y63.868 E25.67938
G1 X153.053 Y64.24 E25.69507
G1 X153.534 Y64.909 E25.72247
