;FLAVOR:Marlin
;TIME:6295
;Filament used: 4.72547m
;Layer height: 0.2
;MINX:74
;MINY:56.5
;MINZ:0.2
;MAXX:161
;MAXY:178.5
;MAXZ:4
;Generated with Cura_SteamEngine 5.2.2
M140 S50
M105
M190 S50
M104 S200
M105
M109 S200
M82 ;absolute extrusion mode
; Ender 3 Custom Start G-code
G92 E0 ; Reset Extruder
G28 ; Home all axes
G1 Z2.0 F3000 ; Move Z Axis up little to prevent scratching of Heat Bed
G1 X0.1 Y20 Z0.3 F5000.0 ; Move to start position
G1 X0.1 Y200.0 Z0.3 F1500.0 E15 ; Draw the first line
G1 X0.4 Y200.0 Z0.3 F5000.0 ; Move to side a little
G1 X0.4 Y20 Z0.3 F1500.0 E30 ; Draw the second line
G92 E0 ; Reset Extruder
G1 Z2.0 F3000 ; Move Z Axis up little to prevent scratching of Heat Bed
G1 X5 Y20 Z0.3 F5000.0 ; Move over to prevent blob squish
G92 E0
G92 E0
G1 F2700 E-5
;LAYER_COUNT:20
;LAYER:0
M107
G0 F6000 X79.523 Y65.198 Z0.2
;TYPE:SKIRT
G1 F2700 E0
G1 F1200 X79.868 Y64.79 E0.01777
G1 X80.285 Y64.321 E0.03864
G1 X80.656 Y63.924 E0.05672
G1 X81.085 Y63.487 E0.07708
G1 X81.464 Y63.119 E0.09466
G1 X81.959 Y62.661 E0.11709
G1 X82.36 Y62.308 E0.13485
G1 X82.826 Y61.917 E0.15509
G1 X83.239 Y61.587 E0.17267
G1 X83.702 Y61.235 E0.19201
G1 X84.143 Y60.917 E0.2101
G1 X84.746 Y60.504 E0.23441
G1 X85.215 Y60.199 E0.25301
G1 X85.752 Y59.87 E0.27396
G1 X86.213 Y59.603 E0.29168
G1 X86.755 Y59.306 E0.31223
G1 X87.246 Y59.053 E0.33061
G1 X87.82 Y58.775 E0.35182
G1 X88.313 Y58.551 E0.36983
G1 X88.899 Y58.302 E0.39101
G1 X89.374 Y58.113 E0.40801
G1 X89.948 Y57.9 E0.42837
G1 X90.459 Y57.725 E0.44634
G1 X91.079 Y57.529 E0.46796
G1 X91.631 Y57.37 E0.48707
G1 X92.282 Y57.201 E0.50944
G1 X92.789 Y57.082 E0.52676
G1 X93.39 Y56.956 E0.54719
G1 X93.915 Y56.859 E0.56494
G1 X94.542 Y56.759 E0.58606
G1 X95.086 Y56.686 E0.60432
G1 X95.721 Y56.617 E0.62556
G1 X96.239 Y56.573 E0.64285
G1 X96.878 Y56.534 E0.66414
G1 X97.4 Y56.515 E0.68152
G1 X98.589 Y56.5 E0.72107
G1 X136.387 Y56.5 E1.97823
G1 X137.431 Y56.513 E2.01296
G1 X138.295 Y56.544 E2.04172
G1 X138.813 Y56.578 E2.05898
G1 X139.455 Y56.635 E2.08042
G1 X139.999 Y56.697 E2.09863
G1 X140.631 Y56.785 E2.11985
G1 X141.172 Y56.874 E2.13809
G1 X141.781 Y56.99 E2.15871
G1 X142.3 Y57.102 E2.17637
G1 X142.939 Y57.256 E2.19823
G1 X143.474 Y57.4 E2.21666
G1 X144.074 Y57.577 E2.23746
G1 X144.566 Y57.734 E2.25464
G1 X145.16 Y57.94 E2.27555
G1 X145.665 Y58.129 E2.29348
G1 X146.261 Y58.369 E2.31485
G1 X146.755 Y58.583 E2.33276
G1 X147.354 Y58.859 E2.3547
G1 X147.839 Y59.096 E2.37265
G1 X148.37 Y59.373 E2.39257
G1 X148.855 Y59.642 E2.41102
G1 X149.403 Y59.964 E2.43216
G1 X149.836 Y60.232 E2.44909
G1 X150.393 Y60.595 E2.47121
G1 X150.845 Y60.906 E2.48945
G1 X151.318 Y61.249 E2.50889
G1 X151.743 Y61.574 E2.52668
G1 X152.284 Y62.008 E2.54975
G1 X152.727 Y62.382 E2.56903
G1 X153.212 Y62.815 E2.59066
G1 X153.587 Y63.167 E2.60776
G1 X153.997 Y63.569 E2.62686
G1 X154.372 Y63.955 E2.64476
G1 X154.851 Y64.473 E2.66823
G1 X155.211 Y64.882 E2.68635
G1 X155.611 Y65.36 E2.70708
G1 X155.949 Y65.785 E2.72514
G1 X156.318 Y66.273 E2.74549
G1 X156.626 Y66.701 E2.76303
G1 X156.982 Y67.222 E2.78402
G1 X157.286 Y67.693 E2.80266
G1 X157.641 Y68.274 E2.82531
G1 X157.891 Y68.703 E2.84182
G1 X158.141 Y69.157 E2.85906
G1 X158.386 Y69.628 E2.87672
G1 X158.707 Y70.284 E2.90101
G1 X158.948 Y70.812 E2.92031
G1 X159.205 Y71.416 E2.94214
G1 X159.402 Y71.912 E2.9599
G1 X159.614 Y72.486 E2.98025
G1 X159.793 Y73.011 E2.9987
G1 X159.983 Y73.618 E3.01985
G1 X160.131 Y74.134 E3.03771
G1 X160.297 Y74.772 E3.05963
G1 X160.422 Y75.308 E3.07794
G1 X160.556 Y75.954 E3.09988
G1 X160.651 Y76.479 E3.11763
G1 X160.746 Y77.083 E3.13796
G1 X160.818 Y77.628 E3.15625
G1 X160.886 Y78.267 E3.17762
G1 X160.928 Y78.762 E3.19414
G1 X160.966 Y79.386 E3.21494
G1 X160.985 Y79.906 E3.23224
G1 X161 Y81.088 E3.27156
G1 X160.999 Y154.034 E5.69775
G1 X160.987 Y154.931 E5.72759
G1 X160.957 Y155.773 E5.75561
G1 X160.923 Y156.307 E5.77341
G1 X160.867 Y156.937 E5.79445
G1 X160.806 Y157.472 E5.81236
G1 X160.719 Y158.1 E5.83344
G1 X160.63 Y158.64 E5.85164
G1 X160.506 Y159.294 E5.87378
G1 X160.392 Y159.827 E5.89191
G1 X160.243 Y160.444 E5.91302
G1 X160.105 Y160.958 E5.93073
G1 X159.929 Y161.558 E5.95152
G1 X159.773 Y162.049 E5.96866
G1 X159.585 Y162.594 E5.98783
G1 X159.4 Y163.09 E6.00544
G1 X159.147 Y163.723 E6.02811
G1 X158.915 Y164.261 E6.0476
G1 X158.622 Y164.894 E6.0708
G1 X158.381 Y165.384 E6.08896
G1 X158.105 Y165.91 E6.10872
G1 X157.855 Y166.36 E6.12584
G1 X157.548 Y166.884 E6.14604
G1 X157.272 Y167.33 E6.16348
G1 X156.905 Y167.893 E6.18584
G1 X156.594 Y168.345 E6.20408
G1 X156.256 Y168.811 E6.22323
G1 X155.926 Y169.243 E6.24131
G1 X155.492 Y169.783 E6.26436
G1 X155.15 Y170.188 E6.28199
G1 X154.729 Y170.663 E6.3031
G1 X154.334 Y171.086 E6.32235
G1 X153.878 Y171.549 E6.34396
G1 X153.508 Y171.908 E6.36111
G1 X153.032 Y172.348 E6.38267
G1 X152.633 Y172.699 E6.40034
G1 X152.181 Y173.078 E6.41996
G1 X151.772 Y173.404 E6.43736
G1 X151.3 Y173.763 E6.45708
G1 X150.86 Y174.081 E6.47514
G1 X150.256 Y174.495 E6.49949
G1 X149.786 Y174.8 E6.51813
G1 X149.264 Y175.12 E6.53849
G1 X148.795 Y175.392 E6.55652
G1 X148.265 Y175.682 E6.57662
G1 X147.795 Y175.924 E6.5942
G1 X147.213 Y176.207 E6.61573
G1 X146.719 Y176.433 E6.63379
G1 X146.093 Y176.7 E6.65643
G1 X145.609 Y176.893 E6.67376
G1 X145.095 Y177.084 E6.692
G1 X144.593 Y177.257 E6.70966
G1 X143.913 Y177.473 E6.73339
G1 X143.354 Y177.634 E6.75274
G1 X142.724 Y177.798 E6.77439
G1 X142.168 Y177.928 E6.79338
G1 X141.526 Y178.06 E6.81518
G1 X141.02 Y178.151 E6.83228
G1 X140.416 Y178.246 E6.85262
G1 X139.871 Y178.318 E6.8709
G1 X139.232 Y178.386 E6.89227
G1 X138.737 Y178.428 E6.9088
G1 X138.113 Y178.466 E6.92959
G1 X137.593 Y178.485 E6.9469
G1 X136.411 Y178.5 E6.98621
G1 X98.466 Y178.499 E8.24827
G1 X97.264 Y178.479 E8.28825
G1 X96.706 Y178.456 E8.30683
G1 X96.183 Y178.422 E8.32426
G1 X95.543 Y178.365 E8.34563
G1 X95.002 Y178.303 E8.36374
G1 X94.37 Y178.215 E8.38496
G1 X93.829 Y178.126 E8.4032
G1 X93.22 Y178.01 E8.42382
G1 X92.693 Y177.896 E8.44175
G1 X92.052 Y177.741 E8.46369
G1 X91.541 Y177.604 E8.48128
G1 X90.941 Y177.428 E8.50208
G1 X90.442 Y177.269 E8.5195
G1 X89.829 Y177.057 E8.54107
G1 X89.316 Y176.865 E8.55929
G1 X88.782 Y176.65 E8.57844
G1 X88.281 Y176.434 E8.59658
G1 X87.633 Y176.135 E8.62032
G1 X87.154 Y175.9 E8.63807
G1 X86.646 Y175.635 E8.65712
G1 X86.179 Y175.377 E8.67487
G1 X85.591 Y175.033 E8.69753
G1 X85.12 Y174.741 E8.71596
G1 X84.587 Y174.392 E8.73715
G1 X84.136 Y174.08 E8.75539
G1 X83.613 Y173.699 E8.77691
G1 X83.186 Y173.372 E8.7948
G1 X82.701 Y172.981 E8.81552
G1 X82.293 Y172.635 E8.83331
G1 X81.821 Y172.215 E8.85432
G1 X81.414 Y171.834 E8.87287
G1 X80.946 Y171.373 E8.89472
G1 X80.572 Y170.987 E8.91259
G1 X80.131 Y170.508 E8.93425
G1 X79.8 Y170.131 E8.95093
G1 X79.433 Y169.694 E8.96991
G1 X79.086 Y169.258 E8.98845
G1 X78.669 Y168.707 E9.01143
G1 X78.334 Y168.239 E9.03057
G1 X77.962 Y167.69 E9.05263
G1 X77.683 Y167.257 E9.06976
G1 X77.37 Y166.745 E9.08972
G1 X77.089 Y166.259 E9.10839
G1 X76.769 Y165.67 E9.13069
G1 X76.535 Y165.213 E9.14777
G1 X76.274 Y164.674 E9.16768
G1 X76.052 Y164.187 E9.18548
G1 X75.795 Y163.583 E9.20732
G1 X75.591 Y163.067 E9.22577
G1 X75.374 Y162.476 E9.24671
G1 X75.202 Y161.97 E9.26449
G1 X75.013 Y161.366 E9.28554
G1 X74.868 Y160.86 E9.30304
G1 X74.704 Y160.232 E9.32463
G1 X74.58 Y159.704 E9.34267
G1 X74.455 Y159.106 E9.36299
G1 X74.359 Y158.585 E9.38061
G1 X74.266 Y158.001 E9.40028
G1 X74.196 Y157.479 E9.4178
G1 X74.118 Y156.773 E9.44142
G1 X74.07 Y156.219 E9.45992
G1 X74.033 Y155.598 E9.48061
G1 X74.015 Y155.093 E9.49741
G1 X74 Y153.911 E9.53673
G1 X74.001 Y80.957 E11.96319
G1 X74.018 Y79.826 E12.00081
G1 X74.04 Y79.261 E12.01962
G1 X74.075 Y78.713 E12.03788
G1 X74.133 Y78.062 E12.05962
G1 X74.191 Y77.549 E12.07679
G1 X74.276 Y76.927 E12.09767
G1 X74.368 Y76.366 E12.11658
G1 X74.493 Y75.707 E12.13889
G1 X74.608 Y75.172 E12.15709
G1 X74.754 Y74.568 E12.17776
G1 X74.886 Y74.072 E12.19483
G1 X75.066 Y73.455 E12.21621
G1 X75.23 Y72.94 E12.23418
G1 X75.414 Y72.408 E12.2529
G1 X75.59 Y71.935 E12.26969
G1 X75.844 Y71.297 E12.29253
G1 X76.083 Y70.743 E12.3126
G1 X76.372 Y70.119 E12.33547
G1 X76.601 Y69.654 E12.35271
G1 X76.865 Y69.148 E12.37169
G1 X77.124 Y68.678 E12.38954
G1 X77.47 Y68.087 E12.41232
G1 X77.758 Y67.622 E12.43051
G1 X78.112 Y67.081 E12.45201
G1 X78.41 Y66.649 E12.46947
G1 X78.747 Y66.184 E12.48857
G1 X79.088 Y65.738 E12.50724
G1 X79.523 Y65.198 E12.53031
G0 F6000 X79.834 Y65.449
G1 F1200 X80.167 Y65.056 E12.54744
G1 X80.584 Y64.587 E12.56831
G1 X80.942 Y64.204 E12.58575
G1 X81.371 Y63.767 E12.60612
G1 X81.736 Y63.413 E12.62303
G1 X82.231 Y62.955 E12.64546
G1 X82.617 Y62.615 E12.66257
G1 X83.083 Y62.224 E12.6828
G1 X83.481 Y61.906 E12.69974
G1 X83.944 Y61.554 E12.71909
G1 X84.369 Y61.247 E12.73653
G1 X84.972 Y60.834 E12.76084
G1 X85.424 Y60.54 E12.77877
G1 X85.961 Y60.211 E12.79972
G1 X86.405 Y59.954 E12.81678
G1 X86.947 Y59.657 E12.83733
G1 X87.421 Y59.413 E12.85507
G1 X87.995 Y59.135 E12.87628
G1 X88.47 Y58.919 E12.89363
G1 X89.056 Y58.67 E12.91481
G1 X89.513 Y58.488 E12.93117
G1 X90.087 Y58.275 E12.95153
G1 X90.58 Y58.106 E12.96887
G1 X91.2 Y57.91 E12.9905
G1 X91.732 Y57.757 E13.00891
G1 X92.383 Y57.588 E13.03128
G1 X92.871 Y57.474 E13.04795
G1 X93.472 Y57.348 E13.06837
G1 X93.978 Y57.254 E13.08549
G1 X94.605 Y57.154 E13.1066
G1 X95.129 Y57.084 E13.12419
G1 X95.764 Y57.015 E13.14543
G1 X96.263 Y56.973 E13.16209
G1 X96.902 Y56.934 E13.18338
G1 X97.405 Y56.915 E13.20012
G1 X98.589 Y56.9 E13.23951
G1 X136.387 Y56.9 E14.49667
G1 X137.426 Y56.913 E14.53123
G1 X138.278 Y56.944 E14.55959
G1 X138.777 Y56.977 E14.57622
G1 X139.419 Y57.034 E14.59766
G1 X139.944 Y57.093 E14.61523
G1 X140.576 Y57.181 E14.63645
G1 X141.097 Y57.267 E14.65402
G1 X141.706 Y57.383 E14.67464
G1 X142.207 Y57.491 E14.69168
G1 X142.846 Y57.645 E14.71354
G1 X143.361 Y57.783 E14.73128
G1 X143.961 Y57.96 E14.75208
G1 X144.435 Y58.112 E14.76864
G1 X145.029 Y58.318 E14.78955
G1 X145.515 Y58.5 E14.80681
G1 X146.111 Y58.74 E14.82818
G1 X146.588 Y58.946 E14.84546
G1 X147.187 Y59.222 E14.8674
G1 X147.654 Y59.451 E14.8847
G1 X148.185 Y59.728 E14.90462
G1 X148.652 Y59.987 E14.92238
G1 X149.2 Y60.309 E14.94352
G1 X149.618 Y60.567 E14.95986
G1 X150.175 Y60.93 E14.98197
G1 X150.61 Y61.23 E14.99954
G1 X151.083 Y61.573 E15.01898
G1 X151.493 Y61.886 E15.03613
G1 X152.034 Y62.32 E15.0592
G1 X152.46 Y62.681 E15.07777
G1 X152.945 Y63.114 E15.0994
G1 X153.307 Y63.452 E15.11587
G1 X153.717 Y63.854 E15.13497
G1 X154.079 Y64.226 E15.15223
G1 X154.558 Y64.744 E15.1757
G1 X154.904 Y65.138 E15.19314
G1 X155.304 Y65.616 E15.21387
G1 X155.63 Y66.026 E15.23129
G1 X155.999 Y66.514 E15.25164
G1 X156.296 Y66.927 E15.26856
G1 X156.652 Y67.448 E15.28955
G1 X156.945 Y67.901 E15.30749
G1 X157.3 Y68.482 E15.33014
G1 X157.54 Y68.896 E15.34605
G1 X157.79 Y69.35 E15.36329
G1 X158.026 Y69.804 E15.38031
G1 X158.347 Y70.46 E15.4046
G1 X158.58 Y70.969 E15.42322
G1 X158.837 Y71.573 E15.44505
G1 X159.026 Y72.05 E15.46212
G1 X159.238 Y72.624 E15.48247
G1 X159.411 Y73.131 E15.50029
G1 X159.601 Y73.738 E15.52144
G1 X159.743 Y74.235 E15.53863
G1 X159.909 Y74.873 E15.56056
G1 X160.03 Y75.389 E15.57819
G1 X160.164 Y76.035 E15.60013
G1 X160.256 Y76.541 E15.61724
G1 X160.351 Y77.145 E15.63757
G1 X160.42 Y77.67 E15.65518
G1 X160.488 Y78.309 E15.67656
G1 X160.528 Y78.787 E15.69251
G1 X160.566 Y79.411 E15.7133
G1 X160.585 Y79.911 E15.72995
G1 X160.6 Y81.088 E15.7691
G1 X160.599 Y154.029 E18.19512
G1 X160.587 Y154.926 E18.22496
G1 X160.557 Y155.757 E18.25262
G1 X160.524 Y156.272 E18.26978
G1 X160.468 Y156.902 E18.29082
G1 X160.41 Y157.418 E18.30809
G1 X160.323 Y158.046 E18.32918
G1 X160.237 Y158.566 E18.34671
G1 X160.113 Y159.22 E18.36885
G1 X160.003 Y159.733 E18.3863
G1 X159.854 Y160.35 E18.40741
G1 X159.721 Y160.846 E18.42449
G1 X159.545 Y161.446 E18.44528
G1 X159.395 Y161.919 E18.46179
G1 X159.207 Y162.464 E18.48096
G1 X159.029 Y162.941 E18.4979
G1 X158.776 Y163.574 E18.52057
G1 X158.552 Y164.093 E18.53937
G1 X158.259 Y164.726 E18.56257
G1 X158.026 Y165.198 E18.58008
G1 X157.75 Y165.724 E18.59984
G1 X157.51 Y166.157 E18.6163
G1 X157.203 Y166.681 E18.6365
G1 X156.937 Y167.112 E18.65335
G1 X156.57 Y167.675 E18.6757
G1 X156.271 Y168.11 E18.69325
G1 X155.933 Y168.576 E18.7124
G1 X155.614 Y168.992 E18.72984
G1 X155.18 Y169.532 E18.75288
G1 X154.851 Y169.923 E18.76988
G1 X154.43 Y170.398 E18.79099
G1 X154.049 Y170.805 E18.80953
G1 X153.593 Y171.268 E18.83114
G1 X153.236 Y171.614 E18.84768
G1 X152.76 Y172.054 E18.86924
G1 X152.376 Y172.392 E18.88625
G1 X151.924 Y172.771 E18.90587
G1 X151.53 Y173.086 E18.92265
G1 X151.058 Y173.445 E18.94237
G1 X150.634 Y173.751 E18.95977
G1 X150.03 Y174.165 E18.98412
G1 X149.577 Y174.459 E19.00208
G1 X149.055 Y174.779 E19.02245
G1 X148.603 Y175.041 E19.03982
G1 X148.073 Y175.331 E19.05992
G1 X147.62 Y175.565 E19.07688
G1 X147.038 Y175.848 E19.0984
G1 X146.562 Y176.065 E19.1158
G1 X145.936 Y176.332 E19.13844
G1 X145.469 Y176.518 E19.15515
G1 X144.955 Y176.709 E19.17339
G1 X144.472 Y176.876 E19.19039
G1 X143.792 Y177.092 E19.21412
G1 X143.253 Y177.247 E19.23277
G1 X142.623 Y177.411 E19.25443
G1 X142.088 Y177.536 E19.2727
G1 X141.446 Y177.668 E19.2945
G1 X140.958 Y177.756 E19.31099
G1 X140.354 Y177.851 E19.33133
G1 X139.829 Y177.92 E19.34894
G1 X139.19 Y177.988 E19.37031
G1 X138.712 Y178.028 E19.38627
G1 X138.088 Y178.066 E19.40706
G1 X137.588 Y178.085 E19.4237
G1 X136.411 Y178.1 E19.46285
G1 X98.471 Y178.099 E20.72474
G1 X97.575 Y178.087 E20.75455
G1 X96.722 Y178.056 E20.78294
G1 X96.219 Y178.023 E20.7997
G1 X95.579 Y177.966 E20.82107
G1 X95.057 Y177.907 E20.83854
G1 X94.425 Y177.819 E20.85977
G1 X93.904 Y177.733 E20.87733
G1 X93.295 Y177.617 E20.89795
G1 X92.787 Y177.507 E20.91524
G1 X92.146 Y177.352 E20.93717
G1 X91.653 Y177.22 E20.95415
G1 X91.053 Y177.044 E20.97494
G1 X90.572 Y176.891 E20.99173
G1 X89.959 Y176.679 E21.0133
G1 X89.465 Y176.494 E21.03085
G1 X88.931 Y176.279 E21.05
G1 X88.449 Y176.071 E21.06746
G1 X87.801 Y175.772 E21.09119
G1 X87.339 Y175.545 E21.10831
G1 X86.831 Y175.28 E21.12737
G1 X86.381 Y175.031 E21.14448
G1 X85.793 Y174.687 E21.16713
G1 X85.339 Y174.406 E21.18489
G1 X84.806 Y174.057 E21.20608
G1 X84.372 Y173.757 E21.22363
G1 X83.849 Y173.376 E21.24515
G1 X83.437 Y173.06 E21.26242
G1 X82.952 Y172.669 E21.28314
G1 X82.559 Y172.336 E21.30027
G1 X82.087 Y171.916 E21.32129
G1 X81.694 Y171.549 E21.33917
G1 X81.226 Y171.088 E21.36102
G1 X80.867 Y170.716 E21.37822
G1 X80.426 Y170.237 E21.39987
G1 X80.107 Y169.874 E21.41595
G1 X79.74 Y169.437 E21.43493
G1 X79.405 Y169.017 E21.45279
G1 X78.988 Y168.466 E21.47578
G1 X78.665 Y168.015 E21.49423
G1 X78.293 Y167.466 E21.51628
G1 X78.024 Y167.049 E21.53279
G1 X77.711 Y166.537 E21.55275
G1 X77.441 Y166.068 E21.57075
G1 X77.121 Y165.479 E21.59304
G1 X76.895 Y165.039 E21.60949
G1 X76.634 Y164.5 E21.62941
G1 X76.42 Y164.03 E21.64659
G1 X76.163 Y163.426 E21.66842
G1 X75.967 Y162.93 E21.68616
G1 X75.75 Y162.339 E21.7071
G1 X75.584 Y161.851 E21.72424
G1 X75.395 Y161.247 E21.74529
G1 X75.255 Y160.759 E21.76218
G1 X75.091 Y160.131 E21.78377
G1 X74.971 Y159.622 E21.80116
G1 X74.846 Y159.024 E21.82148
G1 X74.754 Y158.522 E21.83846
G1 X74.661 Y157.938 E21.85812
G1 X74.593 Y157.435 E21.87501
G1 X74.515 Y156.729 E21.89863
G1 X74.47 Y156.195 E21.91645
G1 X74.433 Y155.574 E21.93715
G1 X74.415 Y155.088 E21.95332
G1 X74.4 Y153.911 E21.99247
G1 X74.401 Y80.962 E24.41876
G1 X74.418 Y79.842 E24.45602
G1 X74.44 Y79.277 E24.47483
G1 X74.474 Y78.748 E24.49246
G1 X74.532 Y78.097 E24.5142
G1 X74.588 Y77.603 E24.53073
G1 X74.673 Y76.981 E24.55161
G1 X74.761 Y76.441 E24.56981
G1 X74.886 Y75.782 E24.59212
G1 X74.997 Y75.266 E24.60967
G1 X75.143 Y74.662 E24.63034
G1 X75.27 Y74.184 E24.64679
G1 X75.45 Y73.567 E24.66817
G1 X75.608 Y73.071 E24.68548
G1 X75.792 Y72.539 E24.7042
G1 X75.962 Y72.083 E24.72039
G1 X76.216 Y71.445 E24.74323
G1 X76.446 Y70.911 E24.76257
G1 X76.735 Y70.287 E24.78544
G1 X76.955 Y69.839 E24.80204
G1 X77.219 Y69.333 E24.82102
G1 X77.469 Y68.881 E24.8382
G1 X77.815 Y68.29 E24.86098
G1 X78.093 Y67.841 E24.87855
G1 X78.447 Y67.3 E24.90005
G1 X78.734 Y66.884 E24.91686
