;FLAVOR:Marlin
;TIME:11075
;Filament used: 5.57788m
;Layer height: 0.2
;MINX:78.2
;MINY:56.701
;MINZ:0.2
;MAXX:156.8
;MAXY:178.299
;MAXZ:3.6
;Generated with Cura_SteamEngine 5.2.2
M140 S50
M105
M190 S50
M104 S200
M105
M109 S200
M82 ;absolute extrusion mode
; Ender 3 Custom Start G-code
G92 E0 ; Reset Extruder
G28 ; Home all axes
G1 Z2.0 F3000 ; Move Z Axis up little to prevent scratching of Heat Bed
G1 X0.1 Y20 Z0.3 F5000.0 ; Move to start position
G1 X0.1 Y200.0 Z0.3 F1500.0 E15 ; Draw the first line
G1 X0.4 Y200.0 Z0.3 F5000.0 ; Move to side a little
G1 X0.4 Y20 Z0.3 F1500.0 E30 ; Draw the second line
G92 E0 ; Reset Extruder
G1 Z2.0 F3000 ; Move Z Axis up little to prevent scratching of Heat Bed
G1 X5 Y20 Z0.3 F5000.0 ; Move over to prevent blob squish
G92 E0
G92 E0
G1 F2700 E-5
;LAYER_COUNT:18
;LAYER:0
M107
G0 F6000 X81.834 Y63.726 Z0.2
;TYPE:SKIRT
G1 F2700 E0
G1 F1200 X82.375 Y63.05 E0.0288
G1 X82.694 Y62.68 E0.04505
G1 X82.956 Y62.391 E0.05802
G1 X83.283 Y62.048 E0.07378
G1 X83.553 Y61.778 E0.08648
G1 X83.922 Y61.427 E0.10342
G1 X84.211 Y61.166 E0.11637
G1 X84.855 Y60.623 E0.14439
G1 X85.243 Y60.32 E0.16076
G1 X85.573 Y60.077 E0.17439
G1 X86.276 Y59.594 E0.20276
G1 X86.674 Y59.341 E0.21845
G1 X87.019 Y59.134 E0.23183
G1 X87.447 Y58.892 E0.24818
G1 X87.798 Y58.705 E0.26141
G1 X88.254 Y58.477 E0.27837
G1 X88.602 Y58.314 E0.29115
G1 X89.384 Y57.979 E0.31945
G1 X89.843 Y57.802 E0.33581
G1 X90.641 Y57.528 E0.36387
G1 X91.027 Y57.411 E0.37729
G1 X91.866 Y57.189 E0.40615
G1 X92.344 Y57.082 E0.42244
G1 X92.717 Y57.008 E0.43509
G1 X93.202 Y56.924 E0.45146
G1 X93.581 Y56.868 E0.4642
G1 X94.069 Y56.808 E0.48056
G1 X94.447 Y56.771 E0.49319
G1 X94.935 Y56.735 E0.50946
G1 X95.303 Y56.717 E0.52172
G1 X96 Y56.701 E0.54491
G1 X139 Y56.701 E1.97509
G1 X139.724 Y56.718 E1.99918
G1 X140.099 Y56.737 E2.01167
G1 X140.588 Y56.774 E2.02798
G1 X140.968 Y56.812 E2.04068
G1 X141.455 Y56.873 E2.05701
G1 X141.838 Y56.931 E2.06989
G1 X142.321 Y57.016 E2.0862
G1 X142.693 Y57.091 E2.09882
G1 X143.174 Y57.2 E2.11523
G1 X143.551 Y57.295 E2.12816
G1 X144.023 Y57.427 E2.14446
G1 X144.839 Y57.689 E2.17296
G1 X145.207 Y57.821 E2.18597
G1 X145.666 Y57.999 E2.20234
G1 X146.012 Y58.143 E2.21481
G1 X146.777 Y58.492 E2.24277
G1 X147.231 Y58.72 E2.25967
G1 X147.6 Y58.918 E2.2736
G1 X148.339 Y59.35 E2.30207
G1 X149.064 Y59.821 E2.33082
G1 X149.45 Y60.093 E2.34653
G1 X149.768 Y60.329 E2.3597
G1 X150.17 Y60.644 E2.37669
G1 X150.831 Y61.204 E2.4055
G1 X151.119 Y61.466 E2.41845
G1 X151.46 Y61.792 E2.43414
G1 X151.728 Y62.061 E2.44677
G1 X152.081 Y62.433 E2.46383
G1 X152.337 Y62.717 E2.47655
G1 X152.887 Y63.369 E2.50492
G1 X153.177 Y63.74 E2.52058
G1 X153.41 Y64.054 E2.53358
G1 X153.693 Y64.456 E2.54993
G1 X154.163 Y65.181 E2.57867
G1 X154.371 Y65.527 E2.5921
G1 X154.622 Y65.972 E2.60909
G1 X154.805 Y66.316 E2.62205
G1 X155.025 Y66.756 E2.63841
G1 X155.188 Y67.104 E2.65119
G1 X155.528 Y67.899 E2.67995
G1 X155.704 Y68.358 E2.6963
G1 X155.973 Y69.143 E2.7239
G1 X156.09 Y69.529 E2.73732
G1 X156.22 Y70.001 E2.7536
G1 X156.416 Y70.831 E2.78197
G1 X156.493 Y71.216 E2.79503
G1 X156.577 Y71.7 E2.81136
G1 X156.633 Y72.078 E2.82407
G1 X156.693 Y72.564 E2.84036
G1 X156.731 Y72.95 E2.85326
G1 X156.786 Y73.82 E2.88226
G1 X156.8 Y74.5 E2.90488
G1 X156.799 Y130.162 E4.7562
G1 X156.776 Y131.67 E4.80637
G1 X156.711 Y133.262 E4.85936
G1 X156.608 Y134.781 E4.91
G1 X156.453 Y136.425 E4.96492
G1 X156.209 Y138.384 E5.03058
G1 X155.939 Y140.1 E5.08836
G1 X155.636 Y141.719 E5.14314
G1 X155.32 Y143.188 E5.19312
G1 X154.903 Y144.882 E5.25114
G1 X154.377 Y146.758 E5.31594
G1 X153.884 Y148.327 E5.37064
G1 X153.32 Y149.942 E5.42754
G1 X152.74 Y151.455 E5.48143
G1 X152.179 Y152.801 E5.52993
G1 X151.37 Y154.578 E5.59487
G1 X150.733 Y155.864 E5.64261
G1 X149.857 Y157.498 E5.70427
G1 X149.149 Y158.719 E5.75122
G1 X148.311 Y160.065 E5.80395
G1 X147.353 Y161.495 E5.8612
G1 X146.261 Y162.996 E5.92294
G1 X145.231 Y164.303 E5.97828
G1 X144.358 Y165.337 E6.02329
G1 X144.16 Y165.562 E6.03326
G1 X143.073 Y166.746 E6.08672
G1 X141.942 Y167.891 E6.14025
G1 X141.004 Y168.775 E6.18312
G1 X139.848 Y169.791 E6.23431
G1 X138.654 Y170.762 E6.28549
G1 X138.402 Y170.957 E6.29609
G1 X137.126 Y171.896 E6.34879
G1 X136.07 Y172.613 E6.39124
G1 X135.796 Y172.791 E6.40211
G1 X134.75 Y173.439 E6.44303
G1 X134.459 Y173.61 E6.45426
G1 X133.395 Y174.207 E6.49484
G1 X133.107 Y174.361 E6.5057
G1 X132.027 Y174.909 E6.54598
G1 X131.706 Y175.063 E6.55782
G1 X130.611 Y175.557 E6.59778
G1 X130.305 Y175.687 E6.60883
G1 X129.195 Y176.132 E6.64861
G1 X128.852 Y176.26 E6.66079
G1 X127.732 Y176.649 E6.70022
G1 X127.4 Y176.756 E6.71182
G1 X126.269 Y177.093 E6.75107
G1 X125.908 Y177.191 E6.76351
G1 X124.727 Y177.482 E6.80397
G1 X124.379 Y177.56 E6.81583
G1 X123.23 Y177.788 E6.85479
G1 X122.871 Y177.85 E6.86691
G1 X121.76 Y178.017 E6.90428
G1 X121.396 Y178.063 E6.91648
G1 X120.196 Y178.186 E6.9566
G1 X119.824 Y178.216 E6.96901
G1 X118.663 Y178.279 E7.00769
G1 X118.303 Y178.29 E7.01966
G1 X117.187 Y178.299 E7.05678
G1 X116.813 Y178.293 E7.06922
G1 X115.61 Y178.245 E7.10927
G1 X115.237 Y178.221 E7.1217
G1 X114.078 Y178.119 E7.1604
G1 X113.712 Y178.078 E7.17265
G1 X112.601 Y177.927 E7.20994
G1 X112.248 Y177.871 E7.22183
G1 X111.056 Y177.653 E7.26213
G1 X110.699 Y177.579 E7.27426
G1 X109.555 Y177.314 E7.31331
G1 X109.189 Y177.22 E7.32588
G1 X108.056 Y176.899 E7.36505
G1 X107.717 Y176.794 E7.37685
G1 X106.594 Y176.42 E7.41622
G1 X106.273 Y176.305 E7.42756
G1 X105.159 Y175.879 E7.46723
G1 X104.826 Y175.743 E7.47919
G1 X103.721 Y175.261 E7.51929
G1 X103.416 Y175.12 E7.53047
G1 X102.323 Y174.586 E7.57093
G1 X102.015 Y174.427 E7.58245
G1 X100.936 Y173.839 E7.62333
G1 X100.635 Y173.666 E7.63487
G1 X99.574 Y173.025 E7.6761
G1 X99.305 Y172.855 E7.68669
G1 X98.266 Y172.168 E7.72811
G1 X97.983 Y171.972 E7.73956
G1 X96.842 Y171.143 E7.78647
G1 X96.542 Y170.914 E7.79903
G1 X95.306 Y169.921 E7.85176
G1 X95.011 Y169.671 E7.86462
G1 X93.847 Y168.637 E7.9164
G1 X93.579 Y168.388 E7.92857
G1 X92.453 Y167.289 E7.9809
G1 X92.202 Y167.032 E7.99285
G1 X91.105 Y165.858 E8.04629
G1 X90.866 Y165.59 E8.05824
G1 X89.804 Y164.343 E8.11271
G1 X89.585 Y164.075 E8.12423
G1 X88.531 Y162.72 E8.18132
G1 X88.324 Y162.441 E8.19288
G1 X87.385 Y161.116 E8.24689
G1 X87.2 Y160.843 E8.25786
G1 X86.287 Y159.432 E8.31376
G1 X86.105 Y159.135 E8.32534
G1 X85.128 Y157.466 E8.38967
G1 X84.947 Y157.14 E8.40207
G1 X83.961 Y155.254 E8.47285
G1 X83.79 Y154.906 E8.48575
G1 X82.885 Y152.943 E8.55764
G1 X82.736 Y152.598 E8.57014
G1 X81.918 Y150.573 E8.64278
G1 X81.789 Y150.231 E8.65494
G1 X81.06 Y148.15 E8.72828
G1 X80.947 Y147.802 E8.74045
G1 X80.311 Y145.671 E8.81441
G1 X80.216 Y145.324 E8.82638
G1 X79.675 Y143.151 E8.90086
G1 X79.599 Y142.813 E8.91238
G1 X79.152 Y140.602 E8.98741
G1 X79.09 Y140.254 E8.99916
G1 X78.742 Y138.015 E9.07453
G1 X78.696 Y137.672 E9.08604
G1 X78.447 Y135.413 E9.16163
G1 X78.417 Y135.071 E9.17305
G1 X78.267 Y132.797 E9.24884
G1 X78.252 Y132.455 E9.26023
G1 X78.2 Y130.001 E9.34187
G1 X78.202 Y74.31 E11.19416
G1 X78.214 Y73.82 E11.21046
G1 X78.234 Y73.43 E11.22345
G1 X78.309 Y72.541 E11.25312
G1 X78.367 Y72.074 E11.26877
G1 X78.425 Y71.691 E11.28166
G1 X78.587 Y70.815 E11.31129
G1 X78.691 Y70.354 E11.32701
G1 X78.788 Y69.971 E11.34015
G1 X79.032 Y69.129 E11.36931
G1 X79.18 Y68.682 E11.38497
G1 X79.492 Y67.85 E11.41452
G1 X79.638 Y67.497 E11.42723
G1 X79.829 Y67.066 E11.44291
G1 X79.99 Y66.725 E11.45545
G1 X80.21 Y66.287 E11.47175
G1 X80.403 Y65.926 E11.48537
G1 X80.656 Y65.482 E11.50236
G1 X81.109 Y64.753 E11.53091
G1 X81.321 Y64.435 E11.54362
G1 X81.594 Y64.048 E11.55937
G1 X81.834 Y63.726 E11.57273
G0 F6000 X82.149 Y63.973
G1 F1200 X82.678 Y63.311 E11.60091
G1 X82.997 Y62.941 E11.61716
G1 X83.573 Y62.324 E11.64524
G1 X83.829 Y62.068 E11.65728
G1 X84.198 Y61.717 E11.67422
G1 X84.472 Y61.469 E11.68651
G1 X84.83 Y61.161 E11.70222
G1 X85.489 Y60.636 E11.73024
G1 X85.802 Y60.404 E11.7432
G1 X86.218 Y60.113 E11.76008
G1 X86.888 Y59.679 E11.78663
G1 X87.216 Y59.482 E11.79936
G1 X87.644 Y59.24 E11.81571
G1 X87.977 Y59.063 E11.82826
G1 X88.433 Y58.835 E11.84521
G1 X88.763 Y58.68 E11.85734
G1 X89.211 Y58.483 E11.87362
G1 X89.987 Y58.176 E11.90137
G1 X90.767 Y57.908 E11.9288
G1 X91.133 Y57.797 E11.94153
G1 X91.605 Y57.667 E11.95781
G1 X92.432 Y57.473 E11.98606
G1 X92.785 Y57.403 E11.99803
G1 X93.63 Y57.265 E12.02651
G1 X94.118 Y57.205 E12.04286
G1 X94.965 Y57.134 E12.07113
G1 X95.313 Y57.117 E12.08272
G1 X96 Y57.101 E12.10558
G1 X139 Y57.101 E13.53576
G1 X139.713 Y57.118 E13.55948
G1 X140.068 Y57.136 E13.57131
G1 X140.919 Y57.209 E13.59971
G1 X141.406 Y57.27 E13.61604
G1 X141.769 Y57.325 E13.62825
G1 X142.252 Y57.41 E13.64456
G1 X143.085 Y57.59 E13.67291
G1 X143.443 Y57.68 E13.68518
G1 X143.915 Y57.812 E13.70148
G1 X144.713 Y58.068 E13.72936
G1 X145.063 Y58.194 E13.74173
G1 X145.85 Y58.508 E13.76991
G1 X146.597 Y58.849 E13.79722
G1 X147.051 Y59.077 E13.81412
G1 X147.401 Y59.265 E13.82734
G1 X148.125 Y59.688 E13.85523
G1 X148.834 Y60.148 E13.88334
G1 X149.22 Y60.42 E13.89904
G1 X149.521 Y60.644 E13.91152
G1 X149.923 Y60.959 E13.92851
G1 X150.2 Y61.187 E13.94044
G1 X150.57 Y61.507 E13.95671
G1 X150.843 Y61.755 E13.96898
G1 X151.438 Y62.336 E13.99664
G1 X151.791 Y62.708 E14.01369
G1 X152.034 Y62.977 E14.02575
G1 X152.353 Y63.348 E14.04202
G1 X152.862 Y63.987 E14.0692
G1 X153.083 Y64.284 E14.08151
G1 X153.564 Y64.982 E14.1097
G1 X153.826 Y65.395 E14.12597
G1 X154.022 Y65.724 E14.13871
G1 X154.447 Y66.495 E14.16799
G1 X154.667 Y66.935 E14.18435
G1 X154.822 Y67.265 E14.19648
G1 X155.019 Y67.713 E14.21275
G1 X155.154 Y68.043 E14.22461
G1 X155.444 Y68.82 E14.2522
G1 X155.593 Y69.269 E14.26793
G1 X155.704 Y69.635 E14.28065
G1 X155.918 Y70.441 E14.30839
G1 X156.026 Y70.919 E14.32469
G1 X156.099 Y71.285 E14.3371
G1 X156.183 Y71.769 E14.35344
G1 X156.236 Y72.127 E14.36548
G1 X156.296 Y72.613 E14.38176
G1 X156.332 Y72.979 E14.394
G1 X156.386 Y73.829 E14.42232
G1 X156.4 Y74.5 E14.44465
G1 X156.399 Y130.156 E16.29577
G1 X156.381 Y131.469 E16.33945
G1 X156.312 Y133.235 E16.39823
G1 X156.192 Y134.961 E16.45578
G1 X156.033 Y136.591 E16.51025
G1 X155.846 Y138.096 E16.56069
G1 X155.581 Y139.819 E16.61867
G1 X155.245 Y141.635 E16.68009
G1 X154.929 Y143.104 E16.73007
G1 X154.515 Y144.785 E16.78765
G1 X154.056 Y146.433 E16.84455
G1 X153.506 Y148.196 E16.90598
G1 X153.022 Y149.591 E16.95509
G1 X152.37 Y151.301 E17.01596
G1 X151.714 Y152.866 E17.0724
G1 X151.011 Y154.401 E17.12855
G1 X150.374 Y155.687 E17.17628
G1 X149.511 Y157.297 E17.23704
G1 X148.803 Y158.518 E17.28398
G1 X147.836 Y160.063 E17.3446
G1 X146.868 Y161.491 E17.40198
G1 X145.946 Y162.75 E17.45389
G1 X145.097 Y163.834 E17.49968
G1 X144.052 Y165.079 E17.55374
G1 X142.971 Y166.272 E17.60729
G1 X141.875 Y167.396 E17.65951
G1 X141.667 Y167.6 E17.6692
G1 X140.519 Y168.675 E17.72151
G1 X139.585 Y169.49 E17.76273
G1 X138.403 Y170.451 E17.8134
G1 X137.153 Y171.386 E17.86532
G1 X136.901 Y171.565 E17.8756
G1 X135.845 Y172.282 E17.91806
G1 X135.585 Y172.451 E17.92837
G1 X134.539 Y173.099 E17.96929
G1 X134.263 Y173.262 E17.97996
G1 X133.199 Y173.859 E18.02053
G1 X131.846 Y174.552 E18.07109
G1 X131.541 Y174.698 E18.08234
G1 X130.157 Y175.316 E18.13275
G1 X129.047 Y175.761 E18.17253
G1 X128.721 Y175.882 E18.18409
G1 X127.601 Y176.271 E18.22353
G1 X127.286 Y176.373 E18.23454
G1 X126.155 Y176.71 E18.27379
G1 X125.812 Y176.803 E18.28561
G1 X124.631 Y177.094 E18.32607
G1 X124.301 Y177.167 E18.33731
G1 X123.152 Y177.395 E18.37627
G1 X122.812 Y177.455 E18.38775
G1 X121.701 Y177.622 E18.42512
G1 X121.356 Y177.665 E18.43668
G1 X120.156 Y177.788 E18.47681
G1 X119.802 Y177.816 E18.48862
G1 X118.641 Y177.879 E18.52729
G1 X118.3 Y177.89 E18.53864
G1 X117.184 Y177.899 E18.57576
G1 X116.829 Y177.893 E18.58756
G1 X115.626 Y177.845 E18.62761
G1 X115.272 Y177.823 E18.63941
G1 X114.113 Y177.721 E18.6781
G1 X113.765 Y177.682 E18.68975
G1 X112.654 Y177.531 E18.72704
G1 X112.32 Y177.477 E18.73829
G1 X111.128 Y177.259 E18.7786
G1 X110.789 Y177.189 E18.79011
G1 X109.645 Y176.924 E18.82917
G1 X109.298 Y176.835 E18.84108
G1 X108.165 Y176.514 E18.88025
G1 X107.844 Y176.415 E18.89142
G1 X106.721 Y176.041 E18.93079
G1 X106.416 Y175.932 E18.94156
G1 X105.302 Y175.506 E18.98123
G1 X104.986 Y175.377 E18.99258
G1 X103.881 Y174.895 E19.03268
G1 X103.592 Y174.761 E19.04328
G1 X102.499 Y174.227 E19.08374
G1 X102.206 Y174.076 E19.0947
G1 X101.127 Y173.488 E19.13557
G1 X100.841 Y173.324 E19.14654
G1 X99.78 Y172.683 E19.18776
G1 X98.487 Y171.835 E19.23919
G1 X98.218 Y171.649 E19.25007
G1 X97.077 Y170.82 E19.29698
G1 X96.792 Y170.602 E19.30891
G1 X95.556 Y169.609 E19.36165
G1 X95.276 Y169.372 E19.37385
G1 X94.112 Y168.338 E19.42563
G1 X93.858 Y168.102 E19.43716
G1 X92.732 Y167.003 E19.4895
G1 X92.494 Y166.759 E19.50083
G1 X91.397 Y165.585 E19.55427
G1 X91.17 Y165.331 E19.56561
G1 X90.108 Y164.084 E19.62008
G1 X89.901 Y163.829 E19.63101
G1 X88.847 Y162.474 E19.6881
G1 X88.65 Y162.21 E19.69906
G1 X87.711 Y160.885 E19.75307
G1 X87.536 Y160.626 E19.76347
G1 X86.623 Y159.215 E19.81937
G1 X86.45 Y158.933 E19.83037
G1 X85.473 Y157.264 E19.89469
G1 X85.301 Y156.954 E19.90649
G1 X84.315 Y155.068 E19.97727
G1 X84.153 Y154.738 E19.9895
G1 X83.248 Y152.775 E20.06139
G1 X83.107 Y152.449 E20.0732
G1 X82.289 Y150.424 E20.14584
G1 X82.166 Y150.099 E20.1574
G1 X81.437 Y148.018 E20.23074
G1 X81.33 Y147.687 E20.24231
G1 X80.694 Y145.556 E20.31628
G1 X80.604 Y145.228 E20.32759
G1 X80.063 Y143.055 E20.40207
G1 X79.991 Y142.733 E20.41304
G1 X79.544 Y140.522 E20.48807
G1 X79.485 Y140.193 E20.49919
G1 X79.137 Y137.954 E20.57455
G1 X79.094 Y137.628 E20.58549
G1 X78.845 Y135.369 E20.66108
G1 X78.816 Y135.045 E20.6719
G1 X78.666 Y132.771 E20.74769
G1 X78.652 Y132.446 E20.75851
G1 X78.6 Y130.001 E20.83985
G1 X78.602 Y74.32 E22.69181
G1 X78.614 Y73.83 E22.70811
G1 X78.633 Y73.46 E22.72044
G1 X78.706 Y72.59 E22.74947
G1 X78.764 Y72.123 E22.76513
G1 X78.819 Y71.76 E22.77734
G1 X78.977 Y70.904 E22.80629
G1 X79.081 Y70.443 E22.82201
G1 X79.173 Y70.078 E22.83453
G1 X79.31 Y69.588 E22.85145
G1 X79.56 Y68.808 E22.87869
G1 X79.865 Y67.994 E22.9076
G1 X80.004 Y67.659 E22.91967
G1 X80.347 Y66.905 E22.94722
G1 X80.567 Y66.467 E22.96352
G1 X80.751 Y66.124 E22.97647
G1 X81.184 Y65.38 E23.0051
G1 X81.446 Y64.967 E23.02136
G1 X81.648 Y64.665 E23.03345
G1 X81.921 Y64.278 E23.0492
G1 X82.149 Y63.973 E23.06187
G0 F6000 X82.463 Y64.22
G1 F1200 X82.981 Y63.572 E23.08946
G1 X83.3 Y63.202 E23.10571
G1 X83.862 Y62.6 E23.1331
G1 X84.474 Y62.007 E23.16144
G1 X84.733 Y61.773 E23.17305
G1 X85.348 Y61.254 E23.19982
G1 X85.736 Y60.951 E23.21619
G1 X86.032 Y60.732 E23.22844
G1 X86.448 Y60.441 E23.24532
G1 X87.103 Y60.017 E23.27127
G1 X87.413 Y59.831 E23.2833
G1 X87.841 Y59.589 E23.29965
G1 X88.156 Y59.421 E23.31153
G1 X88.924 Y59.046 E23.33995
G1 X89.372 Y58.849 E23.35623
G1 X90.13 Y58.549 E23.38334
G1 X90.893 Y58.287 E23.41018
G1 X91.239 Y58.182 E23.4222
G1 X91.711 Y58.052 E23.43849
G1 X92.519 Y57.863 E23.46608
G1 X92.853 Y57.797 E23.47741
G1 X93.679 Y57.662 E23.50525
G1 X94.167 Y57.602 E23.5216
G1 X94.506 Y57.569 E23.53293
G1 X95.324 Y57.516 E23.56019
G1 X95.815 Y57.503 E23.57653
G1 X139 Y57.501 E25.01287
G1 X139.702 Y57.518 E25.03622
G1 X140.038 Y57.535 E25.04741
G1 X140.869 Y57.606 E25.07515
G1 X141.356 Y57.667 E25.09148
G1 X141.699 Y57.719 E25.10301
G1 X142.516 Y57.871 E25.13065
G1 X142.997 Y57.98 E25.14706
G1 X143.335 Y58.066 E25.15866
G1 X144.123 Y58.294 E25.18594
G1 X144.588 Y58.448 E25.20223
G1 X144.918 Y58.567 E25.2139
G1 X145.688 Y58.874 E25.24147
G1 X146.418 Y59.207 E25.26816
G1 X146.872 Y59.435 E25.28506
G1 X147.203 Y59.612 E25.29754
G1 X147.911 Y60.025 E25.3248
G1 X148.325 Y60.288 E25.34112
G1 X148.989 Y60.747 E25.36796
G1 X149.274 Y60.959 E25.37978
G1 X149.938 Y61.489 E25.40804
G1 X150.308 Y61.809 E25.42431
G1 X150.907 Y62.37 E25.4516
G1 X151.148 Y62.612 E25.46296
G1 X151.731 Y63.238 E25.49141
G1 X152.05 Y63.609 E25.50769
G1 X152.547 Y64.233 E25.53422
G1 X152.756 Y64.514 E25.54587
G1 X153.039 Y64.916 E25.56222
G1 X153.488 Y65.609 E25.58968
G1 X153.674 Y65.92 E25.60174
G1 X153.925 Y66.365 E25.61873
