;FLAVOR:Marlin
;TIME:9868
;Filament used: 4.60123m
;Layer height: 0.2
;MINX:78.202
;MINY:60.455
;MINZ:0.2
;MAXX:156.798
;MAXY:174.543
;MAXZ:3.6
;Generated with Cura_SteamEngine 5.2.2
M140 S50
M105
M190 S50
M104 S200
M105
M109 S200
M82 ;absolute extrusion mode
; Ender 3 Custom Start G-code
G92 E0 ; Reset Extruder
G28 ; Home all axes
G1 Z2.0 F3000 ; Move Z Axis up little to prevent scratching of Heat Bed
G1 X0.1 Y20 Z0.3 F5000.0 ; Move to start position
G1 X0.1 Y200.0 Z0.3 F1500.0 E15 ; Draw the first line
G1 X0.4 Y200.0 Z0.3 F5000.0 ; Move to side a little
G1 X0.4 Y20 Z0.3 F1500.0 E30 ; Draw the second line
G92 E0 ; Reset Extruder
G1 Z2.0 F3000 ; Move Z Axis up little to prevent scratching of Heat Bed
G1 X5 Y20 Z0.3 F5000.0 ; Move over to prevent blob squish
G92 E0
G92 E0
G1 F2700 E-5
;LAYER_COUNT:18
;LAYER:0
M107
G0 F6000 X87.522 Y74.335 Z0.2
;TYPE:SKIRT
G1 F2700 E0
G1 F1200 X88.56 Y73.159 E0.05217
G1 X88.824 Y72.875 E0.06507
G1 X89.922 Y71.749 E0.11738
G1 X90.198 Y71.48 E0.1302
G1 X91.348 Y70.412 E0.1824
G1 X91.643 Y70.152 E0.19547
G1 X92.848 Y69.141 E0.24779
G1 X93.154 Y68.896 E0.26083
G1 X94.404 Y67.95 E0.31297
G1 X94.716 Y67.726 E0.32574
G1 X96.015 Y66.84 E0.37804
G1 X96.342 Y66.629 E0.39098
G1 X97.682 Y65.81 E0.44322
G1 X98.017 Y65.616 E0.45609
G1 X99.395 Y64.865 E0.50829
G1 X99.747 Y64.685 E0.52144
G1 X101.163 Y64.004 E0.5737
G1 X101.518 Y63.844 E0.58665
G1 X102.965 Y63.235 E0.63887
G1 X103.319 Y63.096 E0.65152
G1 X104.797 Y62.557 E0.70384
G1 X105.17 Y62.432 E0.71693
G1 X106.671 Y61.969 E0.76917
G1 X107.05 Y61.862 E0.78227
G1 X108.57 Y61.476 E0.83443
G1 X108.941 Y61.391 E0.84709
G1 X110.481 Y61.079 E0.89935
G1 X110.868 Y61.011 E0.91242
G1 X112.421 Y60.777 E0.96465
G1 X112.804 Y60.729 E0.97749
G1 X114.368 Y60.572 E1.02977
G1 X114.759 Y60.543 E1.04281
G1 X116.327 Y60.465 E1.09503
G1 X116.715 Y60.455 E1.10794
G1 X118.284 Y60.455 E1.16012
G1 X118.671 Y60.465 E1.173
G1 X120.24 Y60.543 E1.22525
G1 X120.632 Y60.572 E1.23832
G1 X122.196 Y60.729 E1.2906
G1 X122.58 Y60.777 E1.30347
G1 X124.132 Y61.011 E1.35568
G1 X124.508 Y61.077 E1.36837
G1 X126.048 Y61.387 E1.42062
G1 X126.44 Y61.477 E1.434
G1 X127.962 Y61.866 E1.48625
G1 X128.332 Y61.97 E1.49903
G1 X129.832 Y62.433 E1.55124
G1 X130.192 Y62.554 E1.56388
G1 X131.669 Y63.09 E1.61614
G1 X132.04 Y63.236 E1.6294
G1 X133.488 Y63.847 E1.68167
G1 X133.841 Y64.006 E1.69455
G1 X135.255 Y64.687 E1.74675
G1 X135.598 Y64.863 E1.75957
G1 X136.978 Y65.614 E1.81182
G1 X137.321 Y65.812 E1.825
G1 X138.661 Y66.632 E1.87725
G1 X138.98 Y66.837 E1.88986
G1 X140.277 Y67.72 E1.94205
G1 X140.596 Y67.95 E1.95513
G1 X141.848 Y68.898 E2.00736
G1 X142.155 Y69.143 E2.02042
G1 X143.359 Y70.154 E2.07271
G1 X143.646 Y70.407 E2.08544
G1 X144.797 Y71.474 E2.13764
G1 X145.081 Y71.751 E2.15084
G1 X146.178 Y72.877 E2.20312
G1 X146.439 Y73.158 E2.21588
G1 X147.477 Y74.334 E2.26805
G1 X147.728 Y74.633 E2.28103
G1 X148.708 Y75.862 E2.33331
G1 X148.944 Y76.174 E2.34632
G1 X149.86 Y77.449 E2.39854
G1 X150.076 Y77.767 E2.41133
G1 X150.929 Y79.087 E2.4636
G1 X151.133 Y79.419 E2.47656
G1 X151.919 Y80.78 E2.52883
G1 X152.105 Y81.123 E2.54181
G1 X152.821 Y82.52 E2.59402
G1 X152.99 Y82.871 E2.60698
G1 X153.635 Y84.301 E2.65916
G1 X153.784 Y84.655 E2.67193
G1 X154.359 Y86.118 E2.72421
G1 X154.494 Y86.488 E2.73731
G1 X154.994 Y87.977 E2.78956
G1 X155.109 Y88.348 E2.80247
G1 X155.534 Y89.859 E2.85468
G1 X155.63 Y90.238 E2.86768
G1 X155.979 Y91.77 E2.91994
G1 X156.054 Y92.142 E2.93257
G1 X156.328 Y93.688 E2.98479
G1 X156.388 Y94.082 E2.99804
G1 X156.583 Y95.642 E3.05033
G1 X156.621 Y96.023 E3.06307
G1 X156.739 Y97.588 E3.11527
G1 X156.759 Y97.98 E3.12832
G1 X156.798 Y99.551 E3.18059
G1 X156.798 Y137.929 E4.45705
G1 X156.765 Y139.328 E4.50359
G1 X156.746 Y139.711 E4.51635
G1 X156.644 Y141.11 E4.563
G1 X156.608 Y141.484 E4.5755
G1 X156.439 Y142.874 E4.62207
G1 X156.382 Y143.263 E4.63514
G1 X156.118 Y144.789 E4.68665
G1 X156.038 Y145.187 E4.70016
G1 X155.72 Y146.587 E4.74791
G1 X155.627 Y146.956 E4.76056
G1 X155.254 Y148.292 E4.8067
G1 X155.147 Y148.643 E4.8189
G1 X154.714 Y149.953 E4.86479
G1 X154.588 Y150.306 E4.87726
G1 X154.07 Y151.652 E4.92523
G1 X153.918 Y152.017 E4.93838
G1 X153.341 Y153.316 E4.98565
G1 X153.182 Y153.654 E4.99808
G1 X152.543 Y154.925 E5.04539
G1 X152.357 Y155.273 E5.05852
G1 X151.654 Y156.511 E5.10587
G1 X151.464 Y156.827 E5.11813
G1 X150.704 Y158.029 E5.16543
G1 X150.483 Y158.359 E5.17864
G1 X149.662 Y159.522 E5.22599
G1 X149.441 Y159.821 E5.23836
G1 X148.566 Y160.943 E5.28568
G1 X148.321 Y161.241 E5.29851
G1 X147.391 Y162.319 E5.34587
G1 X147.133 Y162.603 E5.35863
G1 X146.152 Y163.633 E5.40594
G1 X145.881 Y163.904 E5.41868
G1 X144.848 Y164.887 E5.46611
G1 X144.559 Y165.149 E5.47909
G1 X143.483 Y166.075 E5.5263
G1 X143.196 Y166.311 E5.53866
G1 X142.073 Y167.188 E5.58605
G1 X141.767 Y167.415 E5.59872
G1 X140.604 Y168.235 E5.64605
G1 X140.275 Y168.454 E5.6592
G1 X139.072 Y169.214 E5.70653
G1 X138.754 Y169.405 E5.71886
G1 X137.518 Y170.106 E5.76613
G1 X137.178 Y170.288 E5.77895
G1 X135.905 Y170.929 E5.82636
G1 X135.557 Y171.093 E5.83915
G1 X134.257 Y171.669 E5.88644
G1 X133.901 Y171.817 E5.89927
G1 X132.572 Y172.329 E5.94664
G1 X132.215 Y172.456 E5.95924
G1 X130.862 Y172.903 E6.00663
G1 X130.495 Y173.015 E6.0194
G1 X129.125 Y173.394 E6.06667
G1 X128.757 Y173.486 E6.07929
G1 X127.37 Y173.798 E6.12657
G1 X126.988 Y173.874 E6.13953
G1 X125.584 Y174.117 E6.18692
G1 X125.207 Y174.173 E6.1996
G1 X123.794 Y174.347 E6.24695
G1 X123.417 Y174.384 E6.25955
G1 X121.999 Y174.489 E6.30684
G1 X121.615 Y174.508 E6.31963
G1 X120.192 Y174.543 E6.36697
G1 X114.766 Y174.542 E6.54744
G1 X113.386 Y174.508 E6.59335
G1 X113.008 Y174.489 E6.60594
G1 X111.589 Y174.385 E6.65326
G1 X111.204 Y174.347 E6.66613
G1 X109.793 Y174.173 E6.71342
G1 X109.418 Y174.118 E6.72602
G1 X108.014 Y173.875 E6.77341
G1 X107.635 Y173.799 E6.78627
G1 X106.246 Y173.487 E6.83362
G1 X105.87 Y173.393 E6.84651
G1 X104.5 Y173.013 E6.8938
G1 X104.14 Y172.904 E6.90631
G1 X102.789 Y172.458 E6.95363
G1 X102.432 Y172.33 E6.96624
G1 X101.102 Y171.818 E7.01364
G1 X100.742 Y171.669 E7.0266
G1 X99.441 Y171.092 E7.07394
G1 X99.099 Y170.931 E7.08651
G1 X97.828 Y170.292 E7.13383
G1 X97.482 Y170.107 E7.14688
G1 X96.245 Y169.405 E7.19418
G1 X95.93 Y169.216 E7.2064
G1 X94.728 Y168.457 E7.25368
G1 X94.397 Y168.236 E7.26692
G1 X93.233 Y167.415 E7.31429
G1 X92.929 Y167.189 E7.32689
G1 X91.807 Y166.313 E7.37424
G1 X91.518 Y166.076 E7.38667
G1 X90.44 Y165.148 E7.43398
G1 X90.149 Y164.885 E7.44703
G1 X89.118 Y163.903 E7.49438
G1 X88.855 Y163.64 E7.50675
G1 X87.872 Y162.61 E7.55411
G1 X87.606 Y162.317 E7.56727
G1 X86.678 Y161.24 E7.61455
G1 X86.437 Y160.946 E7.6272
G1 X85.56 Y159.822 E7.67462
G1 X85.337 Y159.521 E7.68708
G1 X84.517 Y158.359 E7.73438
G1 X84.297 Y158.03 E7.74754
G1 X83.537 Y156.828 E7.79484
G1 X83.345 Y156.507 E7.80728
G1 X82.643 Y155.269 E7.85462
G1 X82.461 Y154.93 E7.86741
G1 X81.821 Y153.659 E7.91475
G1 X81.658 Y153.313 E7.92747
G1 X81.082 Y152.014 E7.97473
G1 X80.934 Y151.658 E7.98755
G1 X80.402 Y150.278 E8.03674
G1 X80.274 Y149.92 E8.04939
G1 X79.846 Y148.625 E8.09475
G1 X79.736 Y148.263 E8.10734
G1 X79.361 Y146.912 E8.15397
G1 X79.268 Y146.543 E8.16663
G1 X78.96 Y145.178 E8.21317
G1 X78.883 Y144.791 E8.22629
G1 X78.619 Y143.265 E8.2778
G1 X78.562 Y142.876 E8.29088
G1 X78.393 Y141.485 E8.33748
G1 X78.357 Y141.112 E8.34995
G1 X78.255 Y139.715 E8.39653
G1 X78.236 Y139.336 E8.40915
G1 X78.202 Y137.934 E8.4558
G1 X78.202 Y99.551 E9.73242
G1 X78.241 Y97.982 E9.78462
G1 X78.261 Y97.59 E9.79768
G1 X78.379 Y96.023 E9.84995
G1 X78.417 Y95.64 E9.86275
G1 X78.612 Y94.082 E9.91497
G1 X78.671 Y93.696 E9.92796
G1 X78.944 Y92.148 E9.98024
G1 X79.02 Y91.77 E9.99306
G1 X79.369 Y90.238 E10.04532
G1 X79.467 Y89.854 E10.0585
G1 X79.893 Y88.343 E10.11072
G1 X80.006 Y87.976 E10.12349
G1 X80.506 Y86.488 E10.1757
G1 X80.639 Y86.123 E10.18862
G1 X81.213 Y84.66 E10.24089
G1 X81.364 Y84.302 E10.25382
G1 X82.009 Y82.872 E10.30599
G1 X82.176 Y82.525 E10.3188
G1 X82.892 Y81.126 E10.37107
G1 X83.084 Y80.773 E10.38444
G1 X83.871 Y79.413 E10.4367
G1 X84.067 Y79.093 E10.44918
G1 X84.917 Y77.775 E10.50134
G1 X85.139 Y77.449 E10.51446
G1 X86.057 Y76.172 E10.56677
G1 X86.293 Y75.86 E10.57978
G1 X87.273 Y74.632 E10.63204
G1 X87.522 Y74.335 E10.64493
G0 F6000 X87.822 Y74.6
G1 F1200 X88.86 Y73.424 E10.6971
G1 X89.11 Y73.155 E10.70931
G1 X90.208 Y72.029 E10.76162
G1 X90.47 Y71.773 E10.7738
G1 X91.62 Y70.705 E10.826
G1 X91.9 Y70.458 E10.83842
G1 X93.105 Y69.447 E10.89074
G1 X93.395 Y69.215 E10.90309
G1 X94.645 Y68.269 E10.95523
G1 X94.941 Y68.057 E10.96734
G1 X96.24 Y67.171 E11.01964
G1 X96.551 Y66.97 E11.03195
G1 X97.891 Y66.151 E11.08419
G1 X98.209 Y65.967 E11.09641
G1 X99.587 Y65.216 E11.1486
G1 X99.921 Y65.045 E11.16108
G1 X101.337 Y64.364 E11.21334
G1 X101.673 Y64.212 E11.22561
G1 X103.12 Y63.603 E11.27783
G1 X103.456 Y63.472 E11.28982
G1 X104.934 Y62.933 E11.34215
G1 X105.288 Y62.814 E11.35457
G1 X106.789 Y62.351 E11.40681
G1 X107.149 Y62.25 E11.41925
G1 X108.669 Y61.864 E11.47141
G1 X109.021 Y61.783 E11.48342
G1 X110.561 Y61.471 E11.53568
G1 X110.927 Y61.407 E11.54804
G1 X112.48 Y61.173 E11.60028
G1 X112.844 Y61.127 E11.61248
G1 X114.408 Y60.97 E11.66476
G1 X114.779 Y60.942 E11.67713
G1 X116.347 Y60.864 E11.72935
G1 X116.715 Y60.855 E11.74159
G1 X118.284 Y60.855 E11.79378
G1 X118.651 Y60.864 E11.80599
G1 X120.22 Y60.942 E11.85824
G1 X120.592 Y60.97 E11.87065
G1 X122.156 Y61.127 E11.92293
G1 X122.52 Y61.173 E11.93513
G1 X124.072 Y61.407 E11.98733
G1 X124.429 Y61.47 E11.99939
G1 X125.969 Y61.78 E12.05164
G1 X126.341 Y61.864 E12.06432
G1 X127.863 Y62.253 E12.11657
G1 X128.214 Y62.352 E12.1287
G1 X129.714 Y62.815 E12.18091
G1 X130.055 Y62.93 E12.19288
G1 X131.532 Y63.466 E12.24514
G1 X131.885 Y63.604 E12.25775
G1 X133.333 Y64.215 E12.31002
G1 X133.667 Y64.366 E12.32221
G1 X135.081 Y65.047 E12.37441
G1 X135.407 Y65.214 E12.3866
G1 X136.787 Y65.965 E12.43885
G1 X137.113 Y66.153 E12.45137
G1 X138.453 Y66.973 E12.50362
G1 X138.754 Y67.168 E12.51555
G1 X140.051 Y68.051 E12.56774
G1 X140.354 Y68.268 E12.58013
G1 X141.606 Y69.216 E12.63236
G1 X141.898 Y69.449 E12.64479
G1 X143.102 Y70.46 E12.69708
G1 X143.374 Y70.7 E12.70914
G1 X144.525 Y71.767 E12.76135
G1 X144.794 Y72.03 E12.77386
G1 X145.891 Y73.156 E12.82614
G1 X146.139 Y73.423 E12.83826
G1 X147.177 Y74.599 E12.89044
G1 X147.415 Y74.882 E12.90273
G1 X148.395 Y76.111 E12.95502
G1 X148.619 Y76.407 E12.96736
G1 X149.535 Y77.682 E13.01958
G1 X149.74 Y77.984 E13.03172
G1 X150.593 Y79.304 E13.08399
G1 X150.786 Y79.619 E13.09628
G1 X151.572 Y80.98 E13.14855
G1 X151.749 Y81.306 E13.16089
G1 X152.465 Y82.703 E13.2131
G1 X152.626 Y83.035 E13.22537
G1 X153.271 Y84.465 E13.27755
G1 X153.412 Y84.801 E13.28967
G1 X153.987 Y86.264 E13.34195
G1 X154.115 Y86.615 E13.35438
G1 X154.615 Y88.104 E13.40662
G1 X154.724 Y88.456 E13.41888
G1 X155.149 Y89.967 E13.47108
G1 X155.24 Y90.327 E13.48343
G1 X155.589 Y91.859 E13.53569
G1 X155.66 Y92.212 E13.54767
G1 X155.934 Y93.758 E13.59989
G1 X155.991 Y94.131 E13.61244
G1 X156.186 Y95.691 E13.66473
G1 X156.222 Y96.053 E13.67683
G1 X156.34 Y97.618 E13.72903
G1 X156.359 Y97.99 E13.74142
G1 X156.398 Y99.561 E13.79369
G1 X156.398 Y137.92 E15.06951
G1 X156.365 Y139.319 E15.11605
G1 X156.347 Y139.682 E15.12814
G1 X156.245 Y141.081 E15.1748
G1 X156.211 Y141.436 E15.18666
G1 X156.042 Y142.826 E15.23323
G1 X155.988 Y143.194 E15.2456
G1 X155.724 Y144.72 E15.29711
G1 X155.648 Y145.098 E15.30993
G1 X155.33 Y146.498 E15.35768
G1 X155.241 Y146.849 E15.36973
G1 X154.868 Y148.185 E15.41586
G1 X154.767 Y148.517 E15.42741
G1 X154.334 Y149.827 E15.47329
G1 X154.214 Y150.163 E15.48516
G1 X153.696 Y151.509 E15.53313
G1 X153.553 Y151.855 E15.54558
G1 X152.976 Y153.154 E15.59286
G1 X152.824 Y153.474 E15.60464
G1 X152.185 Y154.745 E15.65196
G1 X152.009 Y155.075 E15.6644
G1 X151.306 Y156.313 E15.71175
G1 X151.126 Y156.614 E15.72341
G1 X150.366 Y157.816 E15.77071
G1 X150.156 Y158.129 E15.78325
G1 X149.335 Y159.292 E15.8306
G1 X149.125 Y159.575 E15.84232
G1 X148.25 Y160.697 E15.88964
G1 X148.018 Y160.98 E15.90181
G1 X147.088 Y162.058 E15.94917
G1 X146.843 Y162.328 E15.96129
G1 X145.862 Y163.358 E16.0086
G1 X145.605 Y163.615 E16.02069
G1 X144.572 Y164.598 E16.06812
G1 X144.298 Y164.846 E16.08041
G1 X143.222 Y165.772 E16.12763
G1 X142.95 Y165.995 E16.13933
G1 X141.827 Y166.872 E16.18672
G1 X141.536 Y167.088 E16.19877
G1 X140.373 Y167.908 E16.2461
G1 X140.061 Y168.116 E16.25857
G1 X138.858 Y168.876 E16.3059
G1 X138.557 Y169.057 E16.31758
G1 X137.321 Y169.758 E16.36484
G1 X136.998 Y169.93 E16.37701
G1 X135.725 Y170.571 E16.42442
G1 X135.395 Y170.728 E16.43657
G1 X134.095 Y171.304 E16.48387
G1 X133.757 Y171.443 E16.49602
G1 X132.428 Y171.955 E16.54339
G1 X132.089 Y172.076 E16.55536
G1 X130.736 Y172.523 E16.60276
G1 X130.388 Y172.629 E16.61486
G1 X129.018 Y173.008 E16.66213
G1 X128.669 Y173.096 E16.6741
G1 X127.282 Y173.408 E16.72139
G1 X126.92 Y173.48 E16.73366
G1 X125.516 Y173.723 E16.78106
G1 X125.158 Y173.776 E16.79309
G1 X123.745 Y173.95 E16.84044
G1 X123.387 Y173.985 E16.85241
G1 X121.969 Y174.09 E16.8997
G1 X121.605 Y174.108 E16.91182
G1 X120.182 Y174.143 E16.95917
G1 X114.776 Y174.142 E17.13897
G1 X113.396 Y174.108 E17.18488
G1 X113.037 Y174.09 E17.19684
G1 X111.618 Y173.986 E17.24416
G1 X111.253 Y173.95 E17.25636
G1 X109.842 Y173.776 E17.30365
G1 X109.486 Y173.724 E17.31561
G1 X108.082 Y173.481 E17.363
G1 X107.722 Y173.409 E17.37521
G1 X106.333 Y173.097 E17.42256
G1 X105.977 Y173.008 E17.43477
G1 X104.607 Y172.628 E17.48206
G1 X104.265 Y172.524 E17.49394
G1 X102.914 Y172.078 E17.54126
G1 X102.575 Y171.957 E17.55324
G1 X101.245 Y171.445 E17.60064
G1 X100.904 Y171.304 E17.61291
G1 X99.603 Y170.727 E17.66025
G1 X99.279 Y170.573 E17.67218
G1 X98.008 Y169.934 E17.71949
G1 X97.68 Y169.759 E17.73186
G1 X96.443 Y169.057 E17.77916
G1 X96.144 Y168.878 E17.79075
G1 X94.942 Y168.119 E17.83804
G1 X94.628 Y167.909 E17.8506
G1 X93.464 Y167.088 E17.89798
G1 X93.175 Y166.874 E17.90994
G1 X92.053 Y165.998 E17.95728
G1 X91.779 Y165.773 E17.96907
G1 X90.701 Y164.845 E18.01638
G1 X90.425 Y164.595 E18.02877
G1 X89.394 Y163.613 E18.07613
G1 X89.145 Y163.364 E18.08784
G1 X88.162 Y162.334 E18.13519
G1 X87.909 Y162.055 E18.14772
G1 X86.981 Y160.978 E18.19501
G1 X86.753 Y160.7 E18.20696
G1 X85.876 Y159.576 E18.25438
G1 X85.664 Y159.291 E18.2662
G1 X84.844 Y158.129 E18.3135
G1 X84.635 Y157.817 E18.32599
G1 X83.875 Y156.615 E18.37329
G1 X83.693 Y156.31 E18.3851
G1 X82.991 Y155.072 E18.43244
G1 X82.819 Y154.75 E18.44458
G1 X82.179 Y153.479 E18.49191
G1 X82.023 Y153.151 E18.50399
G1 X81.447 Y151.852 E18.55125
G1 X81.307 Y151.514 E18.56342
G1 X80.775 Y150.134 E18.61261
G1 X80.654 Y149.794 E18.62461
G1 X80.226 Y148.499 E18.66998
G1 X80.122 Y148.156 E18.6819
G1 X79.747 Y146.805 E18.72853
G1 X79.658 Y146.455 E18.74054
G1 X79.35 Y145.09 E18.78708
G1 X79.277 Y144.722 E18.79956
G1 X79.013 Y143.196 E18.85107
G1 X78.959 Y142.828 E18.86344
G1 X78.79 Y141.437 E18.91005
G1 X78.756 Y141.083 E18.92188
G1 X78.654 Y139.686 E18.96846
G1 X78.636 Y139.326 E18.98045
G1 X78.602 Y137.924 E19.0271
G1 X78.602 Y99.561 E20.30306
G1 X78.641 Y97.992 E20.35526
G1 X78.66 Y97.62 E20.36765
G1 X78.778 Y96.053 E20.41991
G1 X78.814 Y95.69 E20.43204
G1 X79.009 Y94.132 E20.48427
G1 X79.064 Y93.766 E20.49658
G1 X79.337 Y92.218 E20.54886
G1 X79.41 Y91.859 E20.56104
G1 X79.759 Y90.327 E20.6133
G1 X79.852 Y89.963 E20.6258
G1 X80.278 Y88.452 E20.67801
G1 X80.385 Y88.103 E20.69016
G1 X80.885 Y86.615 E20.74237
G1 X81.011 Y86.269 E20.75461
G1 X81.585 Y84.806 E20.80688
G1 X81.728 Y84.466 E20.81915
G1 X82.373 Y83.036 E20.87133
G1 X82.532 Y82.708 E20.88345
G1 X83.248 Y81.309 E20.93572
G1 X83.43 Y80.974 E20.9484
G1 X84.217 Y79.614 E21.00066
G1 X84.403 Y79.309 E21.01255
G1 X85.253 Y77.991 E21.06471
G1 X85.463 Y77.683 E21.07711
G1 X86.381 Y76.406 E21.12942
G1 X86.606 Y76.109 E21.14181
G1 X87.586 Y74.881 E21.19407
G1 X87.822 Y74.6 E21.20627
G0 F6000 X88.122 Y74.865
G1 F1200 X89.16 Y73.689 E21.25844
G1 X89.396 Y73.434 E21.27
G1 X90.494 Y72.308 E21.32231
G1 X90.743 Y72.066 E21.33386
G1 X91.893 Y70.998 E21.38605
