;FLAVOR:Marlin
;TIME:5798
;Filament used: 4.07422m
;Layer height: 0.2
;MINX:75.5
;MINY:58
;MINZ:0.2
;MAXX:159.5
;MAXY:177
;MAXZ:3.2
;Generated with Cura_SteamEngine 5.2.2
M140 S50
M105
M190 S50
M104 S200
M105
M109 S200
M82 ;absolute extrusion mode
; Ender 3 Custom Start G-code
G92 E0 ; Reset Extruder
G28 ; Home all axes
G1 Z2.0 F3000 ; Move Z Axis up little to prevent scratching of Heat Bed
G1 X0.1 Y20 Z0.3 F5000.0 ; Move to start position
G1 X0.1 Y200.0 Z0.3 F1500.0 E15 ; Draw the first line
G1 X0.4 Y200.0 Z0.3 F5000.0 ; Move to side a little
G1 X0.4 Y20 Z0.3 F1500.0 E30 ; Draw the second line
G92 E0 ; Reset Extruder
G1 Z2.0 F3000 ; Move Z Axis up little to prevent scratching of Heat Bed
G1 X5 Y20 Z0.3 F5000.0 ; Move over to prevent blob squish
G92 E0
G92 E0
G1 F2700 E-5
;LAYER_COUNT:16
;LAYER:0
M107
G0 F6000 X81.024 Y66.696 Z0.2
;TYPE:SKIRT
G1 F2700 E0
G1 F1200 X81.371 Y66.286 E0.01787
G1 X81.782 Y65.824 E0.03843
G1 X82.157 Y65.424 E0.05667
G1 X82.621 Y64.952 E0.07868
G1 X82.994 Y64.589 E0.09599
G1 X83.449 Y64.168 E0.11661
G1 X83.869 Y63.799 E0.13521
G1 X84.354 Y63.394 E0.15622
G1 X84.773 Y63.061 E0.17402
G1 X85.297 Y62.665 E0.19587
G1 X85.75 Y62.341 E0.21439
G1 X86.289 Y61.975 E0.23606
G1 X86.726 Y61.693 E0.25336
G1 X87.257 Y61.368 E0.27407
G1 X87.697 Y61.112 E0.291
G1 X88.186 Y60.843 E0.30956
G1 X88.654 Y60.6 E0.3271
G1 X89.259 Y60.304 E0.3495
G1 X89.774 Y60.068 E0.36834
G1 X90.383 Y59.808 E0.39037
G1 X90.879 Y59.611 E0.40812
G1 X91.451 Y59.399 E0.42841
G1 X91.963 Y59.223 E0.44641
G1 X92.584 Y59.027 E0.46807
G1 X93.131 Y58.87 E0.487
G1 X93.782 Y58.701 E0.50937
G1 X94.289 Y58.582 E0.52669
G1 X94.89 Y58.456 E0.54712
G1 X95.415 Y58.359 E0.56487
G1 X96.042 Y58.259 E0.58599
G1 X96.586 Y58.186 E0.60425
G1 X97.221 Y58.117 E0.62549
G1 X97.739 Y58.073 E0.64278
G1 X98.378 Y58.034 E0.66407
G1 X98.9 Y58.015 E0.68145
G1 X100.089 Y58 E0.721
G1 X134.849 Y58 E1.87712
G1 X135.939 Y58.013 E1.91338
G1 X136.809 Y58.045 E1.94233
G1 X137.325 Y58.079 E1.95953
G1 X137.94 Y58.134 E1.98007
G1 X138.461 Y58.193 E1.99751
G1 X139.1 Y58.281 E2.01896
G1 X139.627 Y58.367 E2.03672
G1 X140.224 Y58.479 E2.05692
G1 X140.757 Y58.592 E2.07505
G1 X141.442 Y58.756 E2.09847
G1 X141.99 Y58.902 E2.11733
G1 X142.55 Y59.067 E2.13675
G1 X143.058 Y59.231 E2.15451
G1 X143.707 Y59.457 E2.17736
G1 X144.224 Y59.651 E2.19573
G1 X144.806 Y59.887 E2.21662
G1 X145.282 Y60.093 E2.23387
G1 X145.828 Y60.345 E2.25387
G1 X146.299 Y60.577 E2.27133
G1 X146.875 Y60.877 E2.29293
G1 X147.37 Y61.151 E2.31175
G1 X147.909 Y61.468 E2.33255
G1 X148.33 Y61.729 E2.34902
G1 X148.862 Y62.075 E2.37013
G1 X149.336 Y62.401 E2.38927
G1 X149.89 Y62.804 E2.41205
G1 X150.298 Y63.115 E2.42911
G1 X150.751 Y63.478 E2.44842
G1 X151.192 Y63.851 E2.46763
G1 X151.69 Y64.295 E2.48982
G1 X152.075 Y64.655 E2.50735
G1 X152.504 Y65.076 E2.52735
G1 X152.869 Y65.453 E2.5448
G1 X153.333 Y65.954 E2.56751
G1 X153.681 Y66.347 E2.58497
G1 X154.073 Y66.813 E2.60522
G1 X154.435 Y67.268 E2.62456
G1 X154.838 Y67.802 E2.64681
G1 X155.155 Y68.244 E2.6649
G1 X155.52 Y68.781 E2.6865
G1 X155.812 Y69.233 E2.7044
G1 X156.138 Y69.767 E2.72521
G1 X156.383 Y70.19 E2.74147
G1 X156.653 Y70.68 E2.76007
G1 X156.893 Y71.142 E2.77739
G1 X157.189 Y71.745 E2.79973
G1 X157.434 Y72.279 E2.81927
G1 X157.694 Y72.889 E2.84133
G1 X157.889 Y73.379 E2.85887
G1 X158.101 Y73.951 E2.87916
G1 X158.276 Y74.46 E2.89706
G1 X158.47 Y75.074 E2.91848
G1 X158.627 Y75.621 E2.9374
G1 X158.798 Y76.279 E2.96002
G1 X158.918 Y76.789 E2.97744
G1 X159.044 Y77.39 E2.99787
G1 X159.141 Y77.917 E3.01569
G1 X159.241 Y78.545 E3.03684
G1 X159.313 Y79.085 E3.05496
G1 X159.382 Y79.719 E3.07617
G1 X159.427 Y80.238 E3.0935
G1 X159.466 Y80.876 E3.11476
G1 X159.485 Y81.399 E3.13216
G1 X159.5 Y82.589 E3.17175
G1 X159.499 Y152.538 E5.49826
G1 X159.479 Y153.74 E5.53824
G1 X159.456 Y154.298 E5.55682
G1 X159.421 Y154.825 E5.57438
G1 X159.366 Y155.44 E5.59492
G1 X159.307 Y155.961 E5.61236
G1 X159.219 Y156.6 E5.63381
G1 X159.13 Y157.147 E5.65225
G1 X159.011 Y157.775 E5.67351
G1 X158.896 Y158.306 E5.69158
G1 X158.738 Y158.961 E5.71399
G1 X158.602 Y159.472 E5.73157
G1 X158.441 Y160.022 E5.75064
G1 X158.274 Y160.543 E5.76883
G1 X158.054 Y161.176 E5.79112
G1 X157.862 Y161.689 E5.80934
G1 X157.621 Y162.285 E5.83072
G1 X157.412 Y162.767 E5.8482
G1 X157.139 Y163.359 E5.86988
G1 X156.901 Y163.845 E5.88788
G1 X156.619 Y164.385 E5.90814
G1 X156.347 Y164.875 E5.92678
G1 X156.029 Y165.415 E5.94762
G1 X155.77 Y165.832 E5.96395
G1 X155.418 Y166.373 E5.98542
G1 X155.105 Y166.828 E6.00378
G1 X154.784 Y167.271 E6.02198
G1 X154.472 Y167.681 E6.03912
G1 X154.008 Y168.262 E6.06385
G1 X153.627 Y168.715 E6.08353
G1 X153.203 Y169.191 E6.10474
G1 X152.845 Y169.573 E6.12215
G1 X152.403 Y170.024 E6.14315
G1 X152.026 Y170.391 E6.16065
G1 X151.559 Y170.824 E6.18183
G1 X151.106 Y171.222 E6.20189
G1 X150.594 Y171.647 E6.22402
G1 X150.217 Y171.946 E6.24002
G1 X149.732 Y172.314 E6.26027
G1 X149.262 Y172.652 E6.27953
G1 X148.72 Y173.02 E6.30132
G1 X148.277 Y173.305 E6.31884
G1 X147.737 Y173.635 E6.33989
G1 X147.31 Y173.883 E6.35631
G1 X146.82 Y174.153 E6.37492
G1 X146.352 Y174.397 E6.39247
G1 X145.748 Y174.693 E6.41484
G1 X145.226 Y174.932 E6.43394
G1 X144.617 Y175.192 E6.45596
G1 X144.121 Y175.389 E6.47371
G1 X143.549 Y175.601 E6.494
G1 X143.037 Y175.777 E6.51201
G1 X142.416 Y175.973 E6.53367
G1 X141.869 Y176.13 E6.5526
G1 X141.218 Y176.299 E6.57497
G1 X140.711 Y176.418 E6.59229
G1 X140.11 Y176.544 E6.61271
G1 X139.588 Y176.64 E6.63037
G1 X138.962 Y176.74 E6.65145
G1 X138.413 Y176.814 E6.66988
G1 X137.777 Y176.883 E6.69115
G1 X137.261 Y176.927 E6.70838
G1 X136.622 Y176.966 E6.72967
G1 X136.1 Y176.985 E6.74704
G1 X134.911 Y177 E6.78659
G1 X99.957 Y176.999 E7.94917
G1 X98.826 Y176.982 E7.98679
G1 X98.261 Y176.96 E8.0056
G1 X97.713 Y176.925 E8.02386
G1 X97.062 Y176.867 E8.0456
G1 X96.541 Y176.808 E8.06304
G1 X95.915 Y176.722 E8.08405
G1 X95.385 Y176.636 E8.10191
G1 X94.777 Y176.522 E8.12249
G1 X94.235 Y176.406 E8.14092
G1 X93.573 Y176.247 E8.16357
G1 X93.049 Y176.107 E8.18161
G1 X92.438 Y175.928 E8.20278
G1 X91.907 Y175.758 E8.22133
G1 X91.308 Y175.549 E8.24243
G1 X90.8 Y175.357 E8.26049
G1 X90.203 Y175.115 E8.28191
G1 X89.726 Y174.909 E8.2992
G1 X89.169 Y174.652 E8.3196
G1 X88.713 Y174.429 E8.33648
G1 X88.152 Y174.138 E8.3575
G1 X87.648 Y173.859 E8.37666
G1 X87.091 Y173.532 E8.39814
G1 X86.649 Y173.258 E8.41544
G1 X86.108 Y172.905 E8.43693
G1 X85.658 Y172.595 E8.4551
G1 X85.173 Y172.243 E8.47503
G1 X84.753 Y171.923 E8.49259
G1 X84.218 Y171.494 E8.5154
G1 X83.78 Y171.124 E8.53447
G1 X83.311 Y170.706 E8.55537
G1 X82.924 Y170.344 E8.57299
G1 X82.487 Y169.915 E8.59336
G1 X82.118 Y169.534 E8.611
G1 X81.662 Y169.041 E8.63334
G1 X81.304 Y168.634 E8.65137
G1 X80.897 Y168.148 E8.67245
G1 X80.561 Y167.728 E8.69034
G1 X80.18 Y167.225 E8.71133
G1 X79.848 Y166.762 E8.73028
G1 X79.48 Y166.22 E8.75207
G1 X79.198 Y165.782 E8.76939
G1 X78.867 Y165.241 E8.79049
G1 X78.612 Y164.802 E8.80737
G1 X78.343 Y164.313 E8.82594
G1 X78.103 Y163.852 E8.84322
G1 X77.807 Y163.248 E8.86559
G1 X77.568 Y162.726 E8.88469
G1 X77.308 Y162.117 E8.90671
G1 X77.112 Y161.625 E8.92433
G1 X76.899 Y161.051 E8.94469
G1 X76.72 Y160.529 E8.96305
G1 X76.525 Y159.91 E8.98463
G1 X76.37 Y159.368 E9.00338
G1 X76.199 Y158.709 E9.02602
G1 X76.08 Y158.205 E9.04325
G1 X75.956 Y157.614 E9.06333
G1 X75.858 Y157.079 E9.08142
G1 X75.758 Y156.449 E9.10264
G1 X75.687 Y155.915 E9.12056
G1 X75.618 Y155.281 E9.14177
G1 X75.573 Y154.761 E9.15913
G1 X75.534 Y154.122 E9.18042
G1 X75.515 Y153.6 E9.19779
G1 X75.5 Y152.411 E9.23734
G1 X75.501 Y82.462 E11.56386
G1 X75.513 Y81.566 E11.59366
G1 X75.546 Y80.679 E11.62318
G1 X75.58 Y80.152 E11.64075
G1 X75.635 Y79.541 E11.66115
G1 X75.696 Y79.01 E11.67893
G1 X75.783 Y78.385 E11.69992
G1 X75.87 Y77.854 E11.71781
G1 X75.989 Y77.226 E11.73907
G1 X76.102 Y76.7 E11.75697
G1 X76.251 Y76.081 E11.77814
G1 X76.385 Y75.579 E11.79542
G1 X76.558 Y74.985 E11.816
G1 X76.733 Y74.438 E11.8351
G1 X76.965 Y73.773 E11.85853
G1 X77.155 Y73.267 E11.87651
G1 X77.381 Y72.709 E11.89653
G1 X77.599 Y72.208 E11.9147
G1 X77.87 Y71.624 E11.93612
G1 X78.085 Y71.186 E11.95234
G1 X78.371 Y70.635 E11.97299
G1 X78.657 Y70.118 E11.99264
G1 X78.977 Y69.575 E12.01361
G1 X79.241 Y69.149 E12.03027
G1 X79.592 Y68.611 E12.05164
G1 X79.934 Y68.118 E12.0716
G1 X80.346 Y67.556 E12.09477
G1 X80.651 Y67.159 E12.11142
G1 X81.024 Y66.696 E12.1312
G0 F6000 X81.335 Y66.947
G1 F1200 X81.67 Y66.552 E12.14843
G1 X82.081 Y66.09 E12.16899
G1 X82.442 Y65.704 E12.18657
G1 X82.906 Y65.232 E12.20859
G1 X83.266 Y64.883 E12.22526
G1 X83.721 Y64.462 E12.24588
G1 X84.126 Y64.106 E12.26381
G1 X84.611 Y63.701 E12.28483
G1 X85.014 Y63.38 E12.30197
G1 X85.538 Y62.984 E12.32381
G1 X85.974 Y62.672 E12.34164
G1 X86.513 Y62.306 E12.36331
G1 X86.934 Y62.034 E12.37998
G1 X87.465 Y61.709 E12.40069
G1 X87.89 Y61.463 E12.41702
G1 X88.379 Y61.194 E12.43559
G1 X88.83 Y60.96 E12.45248
G1 X89.435 Y60.664 E12.47489
G1 X89.931 Y60.436 E12.49304
G1 X90.54 Y60.176 E12.51507
G1 X91.018 Y59.986 E12.53218
G1 X91.59 Y59.774 E12.55246
G1 X92.084 Y59.605 E12.56983
G1 X92.705 Y59.409 E12.59149
G1 X93.232 Y59.257 E12.60973
G1 X93.883 Y59.088 E12.6321
G1 X94.371 Y58.974 E12.64877
G1 X94.972 Y58.848 E12.66919
G1 X95.478 Y58.754 E12.68631
G1 X96.105 Y58.654 E12.70743
G1 X96.629 Y58.584 E12.72501
G1 X97.264 Y58.515 E12.74626
G1 X97.763 Y58.473 E12.76291
G1 X98.402 Y58.434 E12.7842
G1 X98.905 Y58.415 E12.80095
G1 X100.089 Y58.4 E12.84033
G1 X134.849 Y58.4 E13.99645
G1 X136.247 Y58.421 E14.04296
G1 X136.792 Y58.444 E14.0611
G1 X137.289 Y58.477 E14.07766
G1 X137.904 Y58.532 E14.0982
G1 X138.406 Y58.589 E14.11501
G1 X139.045 Y58.677 E14.13646
G1 X139.554 Y58.76 E14.15361
G1 X140.151 Y58.872 E14.17381
G1 X140.664 Y58.981 E14.19126
G1 X141.349 Y59.145 E14.21469
G1 X141.877 Y59.286 E14.23286
G1 X142.437 Y59.451 E14.25228
G1 X142.927 Y59.609 E14.2694
G1 X143.576 Y59.835 E14.29226
G1 X144.073 Y60.022 E14.30992
G1 X144.655 Y60.258 E14.33081
G1 X145.114 Y60.457 E14.34745
G1 X145.66 Y60.709 E14.36745
G1 X146.115 Y60.932 E14.3843
G1 X146.691 Y61.232 E14.4059
G1 X147.168 Y61.496 E14.42404
G1 X147.707 Y61.813 E14.44483
G1 X148.112 Y62.064 E14.46068
G1 X148.644 Y62.41 E14.48179
G1 X149.101 Y62.724 E14.50023
G1 X149.655 Y63.127 E14.52302
G1 X150.047 Y63.427 E14.53944
G1 X150.5 Y63.79 E14.55874
G1 X150.926 Y64.15 E14.57729
G1 X151.424 Y64.594 E14.59948
G1 X151.794 Y64.94 E14.61633
G1 X152.223 Y65.361 E14.63632
G1 X152.576 Y65.724 E14.65317
G1 X153.04 Y66.225 E14.67588
G1 X153.375 Y66.604 E14.6927
G1 X153.767 Y67.07 E14.71296
G1 X154.116 Y67.509 E14.73161
G1 X154.519 Y68.043 E14.75386
G1 X154.825 Y68.469 E14.7713
G1 X155.19 Y69.006 E14.7929
G1 X155.47 Y69.442 E14.81013
G1 X155.796 Y69.976 E14.83094
G1 X156.033 Y70.383 E14.84661
G1 X156.303 Y70.873 E14.86522
G1 X156.534 Y71.318 E14.88189
G1 X156.83 Y71.921 E14.90423
G1 X157.066 Y72.436 E14.92308
G1 X157.326 Y73.046 E14.94513
G1 X157.514 Y73.518 E14.96203
G1 X157.726 Y74.09 E14.98232
G1 X157.894 Y74.58 E14.99955
G1 X158.088 Y75.194 E15.02096
G1 X158.24 Y75.722 E15.03924
G1 X158.411 Y76.38 E15.06185
G1 X158.526 Y76.871 E15.07862
G1 X158.652 Y77.472 E15.09905
G1 X158.746 Y77.98 E15.11623
G1 X158.846 Y78.608 E15.13738
G1 X158.916 Y79.128 E15.15483
G1 X158.985 Y79.762 E15.17604
G1 X159.027 Y80.262 E15.19273
G1 X159.066 Y80.9 E15.21399
G1 X159.085 Y81.405 E15.2308
G1 X159.1 Y82.589 E15.27018
G1 X159.099 Y152.533 E17.59653
G1 X159.087 Y153.429 E17.62633
G1 X159.056 Y154.282 E17.65472
G1 X159.023 Y154.789 E17.67162
G1 X158.968 Y155.404 E17.69216
G1 X158.911 Y155.906 E17.70896
G1 X158.823 Y156.545 E17.73042
G1 X158.737 Y157.072 E17.74818
G1 X158.618 Y157.7 E17.76944
G1 X158.507 Y158.213 E17.78689
G1 X158.349 Y158.868 E17.8093
G1 X158.218 Y159.36 E17.82624
G1 X158.057 Y159.91 E17.8453
G1 X157.897 Y160.412 E17.86282
G1 X157.677 Y161.045 E17.88511
G1 X157.491 Y161.539 E17.90267
G1 X157.25 Y162.135 E17.92405
G1 X157.049 Y162.6 E17.9409
G1 X156.776 Y163.192 E17.96258
G1 X156.546 Y163.66 E17.97993
G1 X156.264 Y164.2 E18.00019
G1 X156.002 Y164.672 E18.01814
G1 X155.684 Y165.212 E18.03899
G1 X155.435 Y165.614 E18.05471
G1 X155.083 Y166.155 E18.07618
G1 X154.781 Y166.594 E18.0939
G1 X154.46 Y167.037 E18.1121
G1 X154.16 Y167.432 E18.1286
G1 X153.696 Y168.013 E18.15333
G1 X153.328 Y168.449 E18.1723
G1 X152.904 Y168.925 E18.19351
G1 X152.559 Y169.293 E18.21028
G1 X152.117 Y169.744 E18.23129
G1 X151.754 Y170.098 E18.24815
G1 X151.287 Y170.531 E18.26933
G1 X150.85 Y170.914 E18.28866
G1 X150.338 Y171.339 E18.31079
G1 X149.975 Y171.627 E18.3262
G1 X149.49 Y171.995 E18.34645
G1 X149.037 Y172.321 E18.36501
G1 X148.495 Y172.689 E18.3868
G1 X148.068 Y172.964 E18.4037
G1 X147.528 Y173.294 E18.42474
G1 X147.117 Y173.533 E18.44056
G1 X146.627 Y173.803 E18.45917
G1 X146.176 Y174.037 E18.47606
G1 X145.572 Y174.333 E18.49844
G1 X145.069 Y174.564 E18.51685
G1 X144.46 Y174.824 E18.53887
G1 X143.982 Y175.014 E18.55598
G1 X143.41 Y175.226 E18.57627
G1 X142.916 Y175.395 E18.59363
G1 X142.295 Y175.591 E18.61529
G1 X141.768 Y175.743 E18.63354
G1 X141.117 Y175.912 E18.65591
G1 X140.629 Y176.026 E18.67257
G1 X140.028 Y176.152 E18.693
G1 X139.525 Y176.245 E18.71001
G1 X138.899 Y176.345 E18.7311
G1 X138.37 Y176.416 E18.74885
G1 X137.734 Y176.485 E18.77013
G1 X137.237 Y176.527 E18.78671
G1 X136.598 Y176.566 E18.80801
G1 X136.095 Y176.585 E18.82475
G1 X134.911 Y176.6 E18.86413
G1 X99.962 Y176.599 E20.02654
G1 X98.842 Y176.582 E20.0638
G1 X98.277 Y176.56 E20.0826
G1 X97.748 Y176.526 E20.10023
G1 X97.097 Y176.468 E20.12197
G1 X96.595 Y176.411 E20.13878
G1 X95.969 Y176.325 E20.15979
G1 X95.459 Y176.242 E20.17698
G1 X94.851 Y176.128 E20.19755
G1 X94.328 Y176.017 E20.21533
G1 X93.666 Y175.858 E20.23798
G1 X93.162 Y175.723 E20.25533
G1 X92.551 Y175.544 E20.27651
G1 X92.039 Y175.38 E20.29439
G1 X91.44 Y175.171 E20.31549
G1 X90.95 Y174.987 E20.3329
G1 X90.353 Y174.745 E20.35433
G1 X89.894 Y174.546 E20.37097
G1 X89.337 Y174.289 E20.39137
G1 X88.897 Y174.073 E20.40767
G1 X88.336 Y173.782 E20.42869
G1 X87.85 Y173.514 E20.44715
G1 X87.293 Y173.187 E20.46863
G1 X86.868 Y172.923 E20.48527
G1 X86.327 Y172.57 E20.50676
G1 X85.893 Y172.272 E20.52427
G1 X85.408 Y171.92 E20.5442
G1 X85.003 Y171.611 E20.56114
G1 X84.468 Y171.182 E20.58395
G1 X84.046 Y170.825 E20.60234
G1 X83.577 Y170.407 E20.62323
G1 X83.204 Y170.058 E20.64022
G1 X82.767 Y169.629 E20.66059
G1 X82.411 Y169.263 E20.67757
G1 X81.955 Y168.77 E20.69991
G1 X81.61 Y168.378 E20.71728
G1 X81.203 Y167.892 E20.73836
G1 X80.88 Y167.486 E20.75562
G1 X80.499 Y166.983 E20.7766
G1 X80.179 Y166.537 E20.79486
G1 X79.811 Y165.995 E20.81665
G1 X79.539 Y165.573 E20.83335
G1 X79.208 Y165.032 E20.85444
G1 X78.963 Y164.609 E20.8707
G1 X78.694 Y164.12 E20.88926
G1 X78.463 Y163.676 E20.90591
G1 X78.167 Y163.072 E20.92828
G1 X77.936 Y162.569 E20.94669
G1 X77.676 Y161.96 E20.96872
G1 X77.487 Y161.486 E20.98569
G1 X77.274 Y160.912 E21.00605
G1 X77.102 Y160.409 E21.02373
G1 X76.907 Y159.79 E21.04532
G1 X76.757 Y159.267 E21.06341
G1 X76.586 Y158.608 E21.08606
G1 X76.472 Y158.123 E21.10263
G1 X76.348 Y157.532 E21.12271
G1 X76.253 Y157.017 E21.14013
G1 X76.153 Y156.387 E21.16135
G1 X76.084 Y155.872 E21.17863
G1 X76.015 Y155.238 E21.19984
G1 X75.973 Y154.737 E21.21656
G1 X75.934 Y154.098 E21.23786
G1 X75.915 Y153.595 E21.2546
G1 X75.9 Y152.411 E21.29398
G1 X75.901 Y82.467 E23.62033
G1 X75.921 Y81.271 E23.66011
G1 X75.945 Y80.696 E23.67925
G1 X75.979 Y80.188 E23.69619
G1 X76.034 Y79.577 E23.71659
G1 X76.092 Y79.066 E23.7337
G1 X76.179 Y78.441 E23.75469
G1 X76.263 Y77.929 E23.77194
G1 X76.382 Y77.301 E23.7932
G1 X76.491 Y76.793 E23.81048
G1 X76.64 Y76.174 E23.83166
G1 X76.769 Y75.691 E23.84829
G1 X76.942 Y75.097 E23.86886
G1 X77.111 Y74.569 E23.8873
G1 X77.343 Y73.904 E23.91073
G1 X77.526 Y73.417 E23.92803
G1 X77.752 Y72.859 E23.94805
G1 X77.962 Y72.376 E23.96557
G1 X78.233 Y71.792 E23.98699
G1 X78.44 Y71.371 E24.00259
G1 X78.726 Y70.82 E24.02324
G1 X79.002 Y70.321 E24.0422
G1 X79.322 Y69.778 E24.06317
G1 X79.576 Y69.368 E24.07921
G1 X79.927 Y68.83 E24.10057
G1 X80.256 Y68.355 E24.11979
