;FLAVOR:Marlin
;TIME:5114
;Filament used: 3.62971m
;Layer height: 0.2
;MINX:61.5
;MINY:78
;MINZ:0.2
;MAXX:173.5
;MAXY:157
;MAXZ:3
;Generated with Cura_SteamEngine 5.2.2
M140 S50
M105
M190 S50
M104 S200
M105
M109 S200
M82 ;absolute extrusion mode
; Ender 3 Custom Start G-code
G92 E0 ; Reset Extruder
G28 ; Home all axes
G1 Z2.0 F3000 ; Move Z Axis up little to prevent scratching of Heat Bed
G1 X0.1 Y20 Z0.3 F5000.0 ; Move to start position
G1 X0.1 Y200.0 Z0.3 F1500.0 E15 ; Draw the first line
G1 X0.4 Y200.0 Z0.3 F5000.0 ; Move to side a little
G1 X0.4 Y20 Z0.3 F1500.0 E30 ; Draw the second line
G92 E0 ; Reset Extruder
G1 Z2.0 F3000 ; Move Z Axis up little to prevent scratching of Heat Bed
G1 X5 Y20 Z0.3 F5000.0 ; Move over to prevent blob squish
G92 E0
G92 E0
G1 F2700 E-5
;LAYER_COUNT:15
;LAYER:0
M107
G0 F6000 X70.307 Y83.432 Z0.2
;TYPE:SKIRT
G1 F2700 E0
G1 F1200 X70.726 Y83.098 E0.01782
G1 X71.277 Y82.68 E0.04082
G1 X71.718 Y82.362 E0.05891
G1 X72.214 Y82.023 E0.07889
G1 X72.677 Y81.724 E0.09722
G1 X73.265 Y81.364 E0.12015
G1 X73.699 Y81.111 E0.13686
G1 X74.178 Y80.847 E0.15505
G1 X74.654 Y80.6 E0.17289
G1 X75.259 Y80.304 E0.19529
G1 X75.774 Y80.068 E0.21413
G1 X76.383 Y79.808 E0.23616
G1 X76.879 Y79.611 E0.25391
G1 X77.451 Y79.399 E0.2742
G1 X77.963 Y79.223 E0.2922
G1 X78.584 Y79.027 E0.31386
G1 X79.131 Y78.87 E0.33279
G1 X79.782 Y78.701 E0.35516
G1 X80.289 Y78.582 E0.37248
G1 X80.89 Y78.456 E0.39291
G1 X81.415 Y78.359 E0.41066
G1 X82.042 Y78.259 E0.43178
G1 X82.586 Y78.186 E0.45004
G1 X83.221 Y78.117 E0.47128
G1 X83.739 Y78.073 E0.48857
G1 X84.378 Y78.034 E0.50986
G1 X84.9 Y78.015 E0.52724
G1 X86.089 Y78 E0.56679
G1 X149.045 Y78.001 E2.66071
G1 X149.923 Y78.013 E2.68992
G1 X150.763 Y78.043 E2.71787
G1 X151.282 Y78.076 E2.73517
G1 X151.923 Y78.132 E2.75657
G1 X152.483 Y78.195 E2.77531
G1 X153.122 Y78.284 E2.79677
G1 X153.634 Y78.368 E2.81403
G1 X154.236 Y78.481 E2.8344
G1 X154.788 Y78.599 E2.85318
G1 X155.451 Y78.759 E2.87586
G1 X155.981 Y78.901 E2.89411
G1 X156.578 Y79.077 E2.91481
G1 X157.055 Y79.23 E2.93147
G1 X157.623 Y79.426 E2.95146
G1 X158.145 Y79.621 E2.96999
G1 X158.788 Y79.88 E2.99305
G1 X159.303 Y80.103 E3.01171
G1 X159.864 Y80.363 E3.03228
G1 X160.342 Y80.599 E3.05001
G1 X160.911 Y80.897 E3.07137
G1 X161.392 Y81.164 E3.08967
G1 X161.93 Y81.481 E3.11044
G1 X162.357 Y81.745 E3.12714
G1 X162.895 Y82.096 E3.1485
G1 X163.36 Y82.417 E3.1673
G1 X163.879 Y82.795 E3.18865
G1 X164.309 Y83.125 E3.20668
G1 X164.79 Y83.513 E3.22723
G1 X165.195 Y83.856 E3.24489
G1 X165.693 Y84.299 E3.26705
G1 X166.089 Y84.67 E3.2851
G1 X166.535 Y85.108 E3.30589
G1 X166.899 Y85.482 E3.32325
G1 X167.325 Y85.942 E3.3441
G1 X167.696 Y86.364 E3.36279
G1 X168.107 Y86.856 E3.38412
G1 X168.422 Y87.252 E3.40095
G1 X168.761 Y87.698 E3.41958
G1 X169.058 Y88.107 E3.43639
G1 X169.454 Y88.681 E3.45958
G1 X169.786 Y89.193 E3.47988
G1 X170.141 Y89.774 E3.50253
G1 X170.412 Y90.242 E3.52051
G1 X170.712 Y90.792 E3.54135
G1 X170.945 Y91.244 E3.55826
G1 X171.205 Y91.778 E3.57802
G1 X171.432 Y92.274 E3.59616
G1 X171.692 Y92.883 E3.61818
G1 X171.889 Y93.379 E3.63593
G1 X172.101 Y93.951 E3.65622
G1 X172.275 Y94.458 E3.67405
G1 X172.471 Y95.078 E3.69568
G1 X172.631 Y95.634 E3.71492
G1 X172.8 Y96.286 E3.73733
G1 X172.918 Y96.789 E3.75451
G1 X173.044 Y97.39 E3.77493
G1 X173.141 Y97.917 E3.79276
G1 X173.241 Y98.545 E3.81391
G1 X173.313 Y99.085 E3.83203
G1 X173.382 Y99.719 E3.85324
G1 X173.427 Y100.238 E3.87056
G1 X173.466 Y100.876 E3.89182
G1 X173.485 Y101.399 E3.90923
G1 X173.5 Y102.589 E3.94881
G1 X173.499 Y132.485 E4.94316
G1 X173.487 Y133.436 E4.97479
G1 X173.454 Y134.328 E5.00448
G1 X173.42 Y134.845 E5.02171
G1 X173.365 Y135.456 E5.04212
G1 X173.304 Y135.988 E5.05993
G1 X173.214 Y136.634 E5.08162
G1 X173.127 Y137.161 E5.09938
G1 X173.011 Y137.774 E5.12014
G1 X172.895 Y138.314 E5.13851
G1 X172.741 Y138.951 E5.1603
G1 X172.601 Y139.474 E5.17831
G1 X172.424 Y140.075 E5.19915
G1 X172.267 Y140.563 E5.2162
G1 X172.057 Y141.17 E5.23756
G1 X171.863 Y141.69 E5.25602
G1 X171.635 Y142.255 E5.27629
G1 X171.411 Y142.772 E5.29503
G1 X171.124 Y143.39 E5.31769
G1 X170.894 Y143.855 E5.33494
G1 X170.61 Y144.398 E5.35532
G1 X170.349 Y144.869 E5.37323
G1 X170.032 Y145.409 E5.39406
G1 X169.759 Y145.851 E5.41134
G1 X169.408 Y146.389 E5.43271
G1 X169.105 Y146.828 E5.45045
G1 X168.751 Y147.317 E5.47053
G1 X168.399 Y147.778 E5.48982
G1 X167.975 Y148.303 E5.51226
G1 X167.642 Y148.696 E5.52939
G1 X167.206 Y149.187 E5.55123
G1 X166.829 Y149.59 E5.56959
G1 X166.392 Y150.035 E5.59033
G1 X166.018 Y150.399 E5.60769
G1 X165.558 Y150.825 E5.62854
G1 X165.116 Y151.212 E5.64808
G1 X164.6 Y151.641 E5.6704
G1 X164.208 Y151.953 E5.68707
G1 X163.718 Y152.324 E5.70751
G1 X163.284 Y152.636 E5.72529
G1 X162.785 Y152.977 E5.74539
G1 X162.328 Y153.273 E5.7635
G1 X161.744 Y153.631 E5.78628
G1 X161.301 Y153.888 E5.80332
G1 X160.818 Y154.154 E5.82165
G1 X160.346 Y154.4 E5.83936
G1 X159.741 Y154.696 E5.86176
G1 X159.226 Y154.932 E5.8806
G1 X158.617 Y155.192 E5.90263
G1 X158.121 Y155.389 E5.92038
G1 X157.549 Y155.601 E5.94067
G1 X157.037 Y155.777 E5.95867
G1 X156.416 Y155.973 E5.98033
G1 X155.869 Y156.13 E5.99926
G1 X155.218 Y156.299 E6.02163
G1 X154.711 Y156.418 E6.03895
G1 X154.11 Y156.544 E6.05937
G1 X153.588 Y156.64 E6.07703
G1 X152.962 Y156.74 E6.09811
G1 X152.413 Y156.814 E6.11654
G1 X151.777 Y156.883 E6.13781
G1 X151.261 Y156.927 E6.15504
G1 X150.622 Y156.966 E6.17633
G1 X150.1 Y156.985 E6.19371
G1 X148.911 Y157 E6.23325
G1 X85.961 Y156.999 E8.32698
G1 X84.759 Y156.979 E8.36696
G1 X84.201 Y156.956 E8.38554
G1 X83.685 Y156.922 E8.40274
G1 X83.052 Y156.866 E8.42387
G1 X82.487 Y156.802 E8.44279
G1 X81.862 Y156.714 E8.46378
G1 X81.345 Y156.628 E8.48121
G1 X80.697 Y156.505 E8.50315
G1 X80.141 Y156.385 E8.52207
G1 X79.526 Y156.235 E8.54312
G1 X79.042 Y156.105 E8.55979
G1 X78.441 Y155.929 E8.58062
G1 X77.93 Y155.766 E8.59846
G1 X77.324 Y155.556 E8.61979
G1 X76.8 Y155.359 E8.63841
G1 X76.239 Y155.132 E8.65854
G1 X75.734 Y154.913 E8.67685
G1 X75.092 Y154.615 E8.70039
G1 X74.614 Y154.379 E8.71812
G1 X74.082 Y154.1 E8.7381
G1 X73.612 Y153.838 E8.75599
G1 X73.075 Y153.522 E8.77672
G1 X72.644 Y153.255 E8.79358
G1 X72.109 Y152.906 E8.81483
G1 X71.658 Y152.595 E8.83305
G1 X71.173 Y152.243 E8.85298
G1 X70.731 Y151.905 E8.87149
G1 X70.205 Y151.481 E8.89396
G1 X69.804 Y151.142 E8.91142
G1 X69.313 Y150.706 E8.93326
G1 X68.899 Y150.319 E8.95211
G1 X68.445 Y149.872 E8.9733
G1 X68.086 Y149.502 E8.99045
G1 X67.669 Y149.051 E9.01088
G1 X67.311 Y148.644 E9.02891
G1 X66.9 Y148.153 E9.0502
G1 X66.551 Y147.713 E9.06888
G1 X66.153 Y147.185 E9.09087
G1 X65.859 Y146.776 E9.10763
G1 X65.521 Y146.282 E9.12754
G1 X65.214 Y145.808 E9.14632
G1 X64.86 Y145.229 E9.16889
G1 X64.607 Y144.792 E9.18569
G1 X64.343 Y144.312 E9.20391
G1 X64.1 Y143.845 E9.22142
G1 X63.804 Y143.24 E9.24382
G1 X63.571 Y142.731 E9.26244
G1 X63.311 Y142.123 E9.28443
G1 X63.112 Y141.625 E9.30227
G1 X62.899 Y141.051 E9.32263
G1 X62.72 Y140.529 E9.34098
G1 X62.525 Y139.91 E9.36257
G1 X62.375 Y139.389 E9.3806
G1 X62.206 Y138.743 E9.40281
G1 X62.078 Y138.198 E9.42143
G1 X61.952 Y137.592 E9.44202
G1 X61.859 Y137.085 E9.45916
G1 X61.759 Y136.458 E9.48028
G1 X61.686 Y135.914 E9.49854
G1 X61.617 Y135.279 E9.51978
G1 X61.573 Y134.761 E9.53707
G1 X61.534 Y134.122 E9.55836
G1 X61.515 Y133.6 E9.57574
G1 X61.5 Y132.411 E9.61529
G1 X61.501 Y102.449 E10.61183
G1 X61.519 Y101.296 E10.65018
G1 X61.54 Y100.759 E10.66805
G1 X61.576 Y100.211 E10.68632
G1 X61.635 Y99.55 E10.70839
G1 X61.696 Y99.014 E10.72634
G1 X61.782 Y98.395 E10.74712
G1 X61.866 Y97.878 E10.76454
G1 X61.987 Y97.234 E10.78634
G1 X62.103 Y96.694 E10.80471
G1 X62.246 Y96.099 E10.82506
G1 X62.385 Y95.578 E10.84299
G1 X62.571 Y94.943 E10.865
G1 X62.733 Y94.433 E10.8828
G1 X62.925 Y93.879 E10.9023
G1 X63.113 Y93.377 E10.92013
G1 X63.376 Y92.723 E10.94358
G1 X63.599 Y92.208 E10.96224
G1 X63.853 Y91.659 E10.98236
G1 X64.068 Y91.22 E10.99862
G1 X64.358 Y90.66 E11.01959
G1 X64.643 Y90.144 E11.0392
G1 X64.971 Y89.586 E11.06073
G1 X65.241 Y89.149 E11.07781
G1 X65.592 Y88.611 E11.09918
G1 X65.899 Y88.166 E11.11716
G1 X66.252 Y87.679 E11.13717
G1 X66.581 Y87.248 E11.1552
G1 X67.013 Y86.71 E11.17815
G1 X67.376 Y86.28 E11.19686
G1 X67.792 Y85.813 E11.21767
G1 X68.156 Y85.424 E11.23539
G1 X68.585 Y84.987 E11.25575
G1 X68.961 Y84.622 E11.27318
G1 X69.461 Y84.159 E11.29585
G1 X69.868 Y83.8 E11.3139
G1 X70.307 Y83.432 E11.33295
G0 F6000 X70.564 Y83.739
G1 F1200 X70.968 Y83.417 E11.35013
G1 X71.519 Y82.999 E11.37314
G1 X71.944 Y82.693 E11.39055
G1 X72.44 Y82.354 E11.41054
G1 X72.886 Y82.065 E11.42821
G1 X73.474 Y81.705 E11.45114
G1 X73.892 Y81.462 E11.46723
G1 X74.371 Y81.198 E11.48542
G1 X74.83 Y80.96 E11.50261
G1 X75.435 Y80.664 E11.52501
G1 X75.931 Y80.436 E11.54317
G1 X76.54 Y80.176 E11.5652
G1 X77.018 Y79.986 E11.5823
G1 X77.59 Y79.774 E11.60259
G1 X78.084 Y79.605 E11.61996
G1 X78.705 Y79.409 E11.64162
G1 X79.232 Y79.257 E11.65986
G1 X79.883 Y79.088 E11.68223
G1 X80.371 Y78.974 E11.6989
G1 X80.972 Y78.848 E11.71932
G1 X81.478 Y78.754 E11.73644
G1 X82.105 Y78.654 E11.75756
G1 X82.629 Y78.584 E11.77514
G1 X83.264 Y78.515 E11.79638
G1 X83.763 Y78.473 E11.81304
G1 X84.402 Y78.434 E11.83433
G1 X84.905 Y78.415 E11.85107
G1 X86.089 Y78.4 E11.89046
G1 X149.04 Y78.401 E13.98422
G1 X150.195 Y78.42 E14.02264
G1 X150.747 Y78.442 E14.04101
G1 X151.248 Y78.474 E14.05771
G1 X151.889 Y78.53 E14.07911
G1 X152.428 Y78.591 E14.09715
G1 X153.067 Y78.68 E14.11861
G1 X153.561 Y78.761 E14.13526
G1 X154.163 Y78.874 E14.15563
G1 X154.694 Y78.988 E14.1737
G1 X155.357 Y79.148 E14.19638
G1 X155.867 Y79.285 E14.21394
G1 X156.464 Y79.461 E14.23465
G1 X156.925 Y79.608 E14.25074
G1 X157.493 Y79.804 E14.27072
G1 X157.995 Y79.992 E14.28855
G1 X158.638 Y80.251 E14.31161
G1 X159.135 Y80.466 E14.32962
G1 X159.696 Y80.726 E14.35019
G1 X160.157 Y80.953 E14.36728
G1 X160.726 Y81.251 E14.38864
G1 X161.189 Y81.508 E14.40625
G1 X161.727 Y81.825 E14.42702
G1 X162.138 Y82.08 E14.44311
G1 X162.676 Y82.431 E14.46447
G1 X163.125 Y82.741 E14.48262
G1 X163.644 Y83.119 E14.50398
G1 X164.058 Y83.437 E14.52134
G1 X164.539 Y83.825 E14.54189
G1 X164.929 Y84.155 E14.55889
G1 X165.427 Y84.598 E14.58105
G1 X165.809 Y84.955 E14.59844
G1 X166.255 Y85.393 E14.61924
G1 X166.605 Y85.754 E14.63596
G1 X167.031 Y86.214 E14.65681
G1 X167.389 Y86.62 E14.67482
G1 X167.8 Y87.112 E14.69614
G1 X168.104 Y87.494 E14.71238
G1 X168.443 Y87.94 E14.73101
G1 X168.729 Y88.335 E14.74723
G1 X169.125 Y88.909 E14.77042
G1 X169.445 Y89.401 E14.78994
G1 X169.8 Y89.982 E14.81259
G1 X170.061 Y90.433 E14.82992
G1 X170.361 Y90.983 E14.85076
G1 X170.585 Y91.419 E14.86706
G1 X170.845 Y91.953 E14.88681
G1 X171.064 Y92.431 E14.9043
G1 X171.324 Y93.04 E14.92633
G1 X171.514 Y93.518 E14.94343
G1 X171.726 Y94.09 E14.96372
G1 X171.894 Y94.579 E14.98092
G1 X172.09 Y95.199 E15.00255
G1 X172.244 Y95.734 E15.02107
G1 X172.413 Y96.386 E15.04347
G1 X172.526 Y96.871 E15.06003
G1 X172.652 Y97.472 E15.08045
G1 X172.746 Y97.98 E15.09764
G1 X172.846 Y98.608 E15.11879
G1 X172.916 Y99.128 E15.13624
G1 X172.985 Y99.762 E15.15745
G1 X173.027 Y100.262 E15.17414
G1 X173.066 Y100.9 E15.1954
G1 X173.085 Y101.405 E15.21221
G1 X173.1 Y102.589 E15.25159
G1 X173.099 Y132.48 E16.24577
G1 X173.087 Y133.431 E16.2774
G1 X173.054 Y134.311 E16.30669
G1 X173.021 Y134.809 E16.32329
G1 X172.966 Y135.42 E16.3437
G1 X172.908 Y135.933 E16.36087
G1 X172.818 Y136.579 E16.38256
G1 X172.734 Y137.087 E16.39969
G1 X172.618 Y137.7 E16.42044
G1 X172.506 Y138.22 E16.43813
G1 X172.352 Y138.857 E16.45993
G1 X172.217 Y139.361 E16.47728
G1 X172.04 Y139.962 E16.49812
G1 X171.889 Y140.433 E16.51457
G1 X171.679 Y141.04 E16.53593
G1 X171.492 Y141.541 E16.55372
G1 X171.264 Y142.106 E16.57398
G1 X171.048 Y142.604 E16.59204
G1 X170.761 Y143.222 E16.6147
G1 X170.54 Y143.67 E16.63131
G1 X170.256 Y144.213 E16.6517
G1 X170.004 Y144.666 E16.66894
G1 X169.687 Y145.206 E16.68976
G1 X169.424 Y145.632 E16.70642
G1 X169.073 Y146.17 E16.72778
G1 X168.781 Y146.594 E16.7449
G1 X168.427 Y147.083 E16.76498
G1 X168.087 Y147.527 E16.78358
G1 X167.663 Y148.052 E16.80603
G1 X167.343 Y148.43 E16.8225
G1 X166.907 Y148.921 E16.84434
G1 X166.544 Y149.31 E16.86204
G1 X166.107 Y149.755 E16.88278
G1 X165.746 Y150.105 E16.8995
G1 X165.286 Y150.531 E16.92036
G1 X164.861 Y150.905 E16.93919
G1 X164.345 Y151.334 E16.96151
G1 X163.967 Y151.634 E16.97756
G1 X163.477 Y152.005 E16.998
G1 X163.059 Y152.306 E17.01513
G1 X162.56 Y152.647 E17.03523
G1 X162.119 Y152.932 E17.0527
G1 X161.535 Y153.29 E17.07548
G1 X161.109 Y153.538 E17.09187
G1 X160.626 Y153.804 E17.11021
G1 X160.17 Y154.04 E17.12729
G1 X159.565 Y154.336 E17.14969
G1 X159.069 Y154.564 E17.16785
G1 X158.46 Y154.824 E17.18987
G1 X157.982 Y155.014 E17.20698
G1 X157.41 Y155.226 E17.22727
G1 X156.916 Y155.395 E17.24464
G1 X156.295 Y155.591 E17.2663
G1 X155.768 Y155.743 E17.28454
G1 X155.117 Y155.912 E17.30691
G1 X154.629 Y156.026 E17.32358
G1 X154.028 Y156.152 E17.344
G1 X153.525 Y156.245 E17.36101
G1 X152.899 Y156.345 E17.3821
G1 X152.37 Y156.416 E17.39985
G1 X151.734 Y156.485 E17.42113
G1 X151.237 Y156.527 E17.43772
G1 X150.598 Y156.566 E17.45901
G1 X150.095 Y156.585 E17.47575
G1 X148.911 Y156.6 E17.51514
G1 X85.966 Y156.599 E19.60869
G1 X85.07 Y156.587 E19.6385
G1 X84.217 Y156.556 E19.66689
G1 X83.72 Y156.524 E19.68345
G1 X83.087 Y156.468 E19.70459
G1 X82.543 Y156.405 E19.7228
G1 X81.918 Y156.317 E19.7438
G1 X81.419 Y156.235 E19.76061
G1 X80.771 Y156.112 E19.78255
G1 X80.236 Y155.996 E19.80076
G1 X79.621 Y155.846 E19.82181
G1 X79.154 Y155.721 E19.83789
G1 X78.553 Y155.545 E19.85872
G1 X78.061 Y155.388 E19.8759
G1 X77.455 Y155.178 E19.89723
G1 X76.95 Y154.988 E19.91518
G1 X76.389 Y154.761 E19.93531
G1 X75.902 Y154.55 E19.95296
G1 X75.26 Y154.252 E19.9765
G1 X74.8 Y154.024 E19.99357
G1 X74.268 Y153.745 E20.01355
G1 X73.815 Y153.494 E20.03078
G1 X73.278 Y153.178 E20.0515
G1 X72.863 Y152.92 E20.06776
G1 X72.328 Y152.571 E20.089
G1 X71.893 Y152.272 E20.10656
G1 X71.408 Y151.92 E20.12649
G1 X70.982 Y151.594 E20.14433
G1 X70.456 Y151.17 E20.1668
G1 X70.07 Y150.843 E20.18363
G1 X69.579 Y150.407 E20.20547
G1 X69.18 Y150.034 E20.22364
G1 X68.726 Y149.587 E20.24483
G1 X68.38 Y149.23 E20.26136
G1 X67.963 Y148.779 E20.28179
G1 X67.618 Y148.387 E20.29916
G1 X67.207 Y147.896 E20.32046
G1 X66.87 Y147.473 E20.33844
G1 X66.472 Y146.945 E20.36044
G1 X66.189 Y146.55 E20.3766
G1 X65.851 Y146.056 E20.39651
G1 X65.555 Y145.599 E20.41462
G1 X65.201 Y145.02 E20.43719
G1 X64.957 Y144.599 E20.45337
G1 X64.693 Y144.119 E20.47159
G1 X64.46 Y143.669 E20.48845
G1 X64.164 Y143.064 E20.51085
G1 X63.939 Y142.574 E20.52878
G1 X63.679 Y141.966 E20.55078
G1 X63.487 Y141.486 E20.56797
G1 X63.274 Y140.912 E20.58833
G1 X63.102 Y140.409 E20.60601
G1 X62.907 Y139.79 E20.6276
G1 X62.762 Y139.288 E20.64498
G1 X62.593 Y138.642 E20.66719
G1 X62.47 Y138.117 E20.68512
G1 X62.344 Y137.511 E20.70571
G1 X62.254 Y137.022 E20.72225
G1 X62.154 Y136.395 E20.74336
G1 X62.084 Y135.871 E20.76095
G1 X62.015 Y135.236 E20.78219
G1 X61.973 Y134.737 E20.79885
G1 X61.934 Y134.098 E20.82014
G1 X61.915 Y133.595 E20.83688
G1 X61.9 Y132.411 E20.87627
G1 X61.901 Y102.454 E21.87264
G1 X61.919 Y101.312 E21.91063
G1 X61.94 Y100.775 E21.9285
G1 X61.974 Y100.247 E21.9461
G1 X62.033 Y99.586 E21.96817
G1 X62.092 Y99.069 E21.98548
G1 X62.178 Y98.45 E22.00626
G1 X62.259 Y97.952 E22.02305
G1 X62.38 Y97.308 E22.04484
G1 X62.491 Y96.788 E22.06252
G1 X62.634 Y96.193 E22.08288
G1 X62.768 Y95.69 E22.10019
G1 X62.954 Y95.055 E22.1222
G1 X63.111 Y94.564 E22.13934
G1 X63.303 Y94.01 E22.15885
G1 X63.484 Y93.526 E22.17603
G1 X63.747 Y92.872 E22.19948
G1 X63.962 Y92.376 E22.21746
G1 X64.216 Y91.827 E22.23758
G1 X64.423 Y91.404 E22.25324
G1 X64.713 Y90.844 E22.27422
G1 X64.988 Y90.346 E22.29314
G1 X65.316 Y89.788 E22.31466
G1 X65.576 Y89.368 E22.33109
G1 X65.927 Y88.83 E22.35246
G1 X66.223 Y88.401 E22.36979
G1 X66.576 Y87.914 E22.3898
G1 X66.893 Y87.498 E22.4072
G1 X67.325 Y86.96 E22.43014
G1 X67.675 Y86.546 E22.44818
G1 X68.091 Y86.079 E22.46898
G1 X68.442 Y85.704 E22.48606
G1 X68.871 Y85.267 E22.50643
