;FLAVOR:Marlin
;TIME:5192
;Filament used: 3.70472m
;Layer height: 0.2
;MINX:78
;MINY:60.003
;MINZ:0.2
;MAXX:157
;MAXY:174.997
;MAXZ:2.6
;Generated with Cura_SteamEngine 5.2.2
M140 S50
M105
M190 S50
M104 S200
M105
M109 S200
M82 ;absolute extrusion mode
; Ender 3 Custom Start G-code
G92 E0 ; Reset Extruder
G28 ; Home all axes
G1 Z2.0 F3000 ; Move Z Axis up little to prevent scratching of Heat Bed
G1 X0.1 Y20 Z0.3 F5000.0 ; Move to start position
G1 X0.1 Y200.0 Z0.3 F1500.0 E15 ; Draw the first line
G1 X0.4 Y200.0 Z0.3 F5000.0 ; Move to side a little
G1 X0.4 Y20 Z0.3 F1500.0 E30 ; Draw the second line
G92 E0 ; Reset Extruder
G1 Z2.0 F3000 ; Move Z Axis up little to prevent scratching of Heat Bed
G1 X5 Y20 Z0.3 F5000.0 ; Move over to prevent blob squish
G92 E0
G92 E0
G1 F2700 E-5
;LAYER_COUNT:13
;LAYER:0
M107
G0 F6000 X83.493 Y68.732 Z0.2
;TYPE:SKIRT
G1 F2700 E0
G1 F1200 X83.86 Y68.299 E0.01888
G1 X84.294 Y67.812 E0.04058
G1 X84.656 Y67.424 E0.05822
G1 X85.085 Y66.987 E0.07859
G1 X85.464 Y66.619 E0.09616
G1 X85.959 Y66.161 E0.11859
G1 X86.36 Y65.808 E0.13636
G1 X86.826 Y65.417 E0.15659
G1 X87.275 Y65.059 E0.17569
G1 X87.823 Y64.646 E0.19852
G1 X88.239 Y64.348 E0.21554
G1 X88.725 Y64.016 E0.23511
G1 X89.192 Y63.714 E0.25361
G1 X89.771 Y63.36 E0.27618
G1 X90.199 Y63.111 E0.29265
G1 X90.678 Y62.847 E0.31084
G1 X91.154 Y62.6 E0.32868
G1 X91.759 Y62.304 E0.35108
G1 X92.274 Y62.068 E0.36992
G1 X92.883 Y61.808 E0.39195
G1 X93.38 Y61.61 E0.40974
G1 X93.89 Y61.421 E0.42783
G1 X94.373 Y61.255 E0.44482
G1 X95.095 Y61.025 E0.47002
G1 X95.66 Y60.861 E0.48959
G1 X96.251 Y60.707 E0.5099
G1 X96.768 Y60.586 E0.52756
G1 X97.388 Y60.456 E0.54863
G1 X97.915 Y60.359 E0.56645
G1 X98.543 Y60.259 E0.5876
G1 X99.088 Y60.186 E0.60589
G1 X99.725 Y60.117 E0.6272
G1 X100.238 Y60.074 E0.64432
G1 X100.875 Y60.035 E0.66555
G1 X101.386 Y60.015 E0.68256
G1 X102.002 Y60.006 E0.70305
G1 X102.701 Y60.013 E0.7263
G1 X104.032 Y60.117 E0.7707
G1 X106.164 Y60.415 E0.8423
G1 X108.683 Y60.701 E0.92663
G1 X111.19 Y60.915 E1.01031
G1 X113.706 Y61.057 E1.09413
G1 X116.201 Y61.129 E1.17715
G1 X118.725 Y61.129 E1.26109
G1 X121.275 Y61.058 E1.34594
G1 X123.739 Y60.918 E1.42803
G1 X126.276 Y60.703 E1.51271
G1 X128.787 Y60.418 E1.59676
G1 X131.054 Y60.105 E1.67288
G1 X131.988 Y60.017 E1.70408
G1 X132.687 Y60.003 E1.72733
G1 X133.677 Y60.018 E1.76027
G1 X134.24 Y60.04 E1.779
G1 X134.797 Y60.076 E1.79757
G1 X135.463 Y60.136 E1.81981
G1 X135.964 Y60.193 E1.83658
G1 X136.572 Y60.276 E1.85699
G1 X137.099 Y60.361 E1.87475
G1 X137.727 Y60.478 E1.89599
G1 X138.298 Y60.6 E1.91541
G1 X138.914 Y60.749 E1.93649
G1 X139.436 Y60.889 E1.95447
G1 X140.098 Y61.084 E1.97742
G1 X140.606 Y61.247 E1.99517
G1 X141.192 Y61.451 E2.0158
G1 X141.699 Y61.642 E2.03382
G1 X142.305 Y61.887 E2.05556
G1 X142.814 Y62.108 E2.07402
G1 X143.374 Y62.368 E2.09455
G1 X143.853 Y62.604 E2.11232
G1 X144.44 Y62.912 E2.13436
G1 X144.916 Y63.178 E2.1525
G1 X145.44 Y63.487 E2.17273
G1 X145.873 Y63.756 E2.18969
G1 X146.396 Y64.098 E2.21047
G1 X146.821 Y64.39 E2.22762
G1 X147.283 Y64.724 E2.24658
G1 X147.704 Y65.044 E2.26417
G1 X148.251 Y65.481 E2.28746
G1 X148.685 Y65.846 E2.30632
G1 X149.172 Y66.278 E2.32797
G1 X149.576 Y66.656 E2.34637
G1 X150.004 Y67.076 E2.36632
G1 X150.367 Y67.449 E2.38363
G1 X150.824 Y67.942 E2.40599
G1 X151.181 Y68.347 E2.42394
G1 X151.579 Y68.821 E2.44453
G1 X151.918 Y69.245 E2.46258
G1 X152.267 Y69.705 E2.48179
G1 X152.558 Y70.107 E2.49829
G1 X152.954 Y70.681 E2.52149
G1 X153.283 Y71.187 E2.54156
G1 X153.633 Y71.759 E2.56387
G1 X153.883 Y72.19 E2.58044
G1 X154.152 Y72.678 E2.59897
G1 X154.41 Y73.175 E2.6176
G1 X154.72 Y73.812 E2.64116
G1 X154.948 Y74.311 E2.65941
G1 X155.194 Y74.888 E2.68027
G1 X155.39 Y75.38 E2.69788
G1 X155.579 Y75.89 E2.71597
G1 X155.743 Y76.366 E2.73272
G1 X155.971 Y77.08 E2.75765
G1 X156.136 Y77.649 E2.77735
G1 X156.292 Y78.247 E2.79791
G1 X156.415 Y78.774 E2.81591
G1 X156.545 Y79.396 E2.83704
G1 X156.642 Y79.919 E2.85473
G1 X156.742 Y80.548 E2.87592
G1 X156.813 Y81.085 E2.89393
G1 X156.882 Y81.719 E2.91514
G1 X156.927 Y82.238 E2.93247
G1 X156.966 Y82.876 E2.95373
G1 X156.985 Y83.399 E2.97114
G1 X157 Y84.589 E3.01072
G1 X156.999 Y150.477 E5.20216
G1 X156.987 Y151.415 E5.23336
G1 X156.957 Y152.265 E5.26165
G1 X156.922 Y152.816 E5.28002
G1 X156.864 Y153.46 E5.30152
G1 X156.805 Y153.976 E5.3188
G1 X156.717 Y154.614 E5.34022
G1 X156.627 Y155.164 E5.35875
G1 X156.51 Y155.78 E5.37961
G1 X156.395 Y156.313 E5.39774
G1 X156.246 Y156.929 E5.41882
G1 X156.108 Y157.444 E5.43656
G1 X155.917 Y158.094 E5.45909
G1 X155.752 Y158.607 E5.47701
G1 X155.553 Y159.179 E5.49716
G1 X155.366 Y159.679 E5.51491
G1 X155.122 Y160.284 E5.53661
G1 X154.9 Y160.796 E5.55517
G1 X154.627 Y161.385 E5.57676
G1 X154.377 Y161.889 E5.59547
G1 X154.077 Y162.458 E5.61687
G1 X153.821 Y162.918 E5.63438
G1 X153.513 Y163.44 E5.65454
G1 X153.25 Y163.863 E5.6711
G1 X152.906 Y164.39 E5.69204
G1 X152.612 Y164.818 E5.70931
G1 X152.279 Y165.279 E5.72822
G1 X151.958 Y165.702 E5.74588
G1 X151.518 Y166.253 E5.76933
G1 X151.146 Y166.694 E5.78852
G1 X150.717 Y167.177 E5.81001
G1 X150.334 Y167.587 E5.82867
G1 X149.906 Y168.022 E5.84897
G1 X149.535 Y168.382 E5.86616
G1 X149.041 Y168.839 E5.88854
G1 X148.633 Y169.198 E5.90662
G1 X148.166 Y169.589 E5.92688
G1 X147.735 Y169.932 E5.9452
G1 X147.195 Y170.34 E5.96771
G1 X146.776 Y170.641 E5.98487
G1 X146.282 Y170.979 E6.00478
G1 X145.808 Y171.286 E6.02356
G1 X145.229 Y171.64 E6.04613
G1 X144.758 Y171.912 E6.06422
G1 X144.208 Y172.212 E6.08506
G1 X143.749 Y172.449 E6.10224
G1 X143.214 Y172.709 E6.12202
G1 X142.731 Y172.929 E6.13968
G1 X142.123 Y173.189 E6.16167
G1 X141.62 Y173.39 E6.17969
G1 X141.11 Y173.579 E6.19778
G1 X140.627 Y173.745 E6.21476
G1 X139.905 Y173.975 E6.23997
G1 X139.344 Y174.137 E6.25939
G1 X138.754 Y174.291 E6.27967
G1 X138.226 Y174.415 E6.29771
G1 X137.604 Y174.545 E6.31884
G1 X137.086 Y174.641 E6.33637
G1 X136.459 Y174.741 E6.35748
G1 X135.913 Y174.814 E6.3758
G1 X135.277 Y174.883 E6.39708
G1 X134.761 Y174.927 E6.41431
G1 X134.122 Y174.966 E6.4356
G1 X133.613 Y174.985 E6.45254
G1 X132.997 Y174.994 E6.47303
G1 X132.299 Y174.987 E6.49625
G1 X130.968 Y174.883 E6.54065
G1 X128.836 Y174.585 E6.61225
G1 X126.317 Y174.299 E6.69657
G1 X123.81 Y174.085 E6.78026
G1 X121.294 Y173.943 E6.86407
G1 X118.799 Y173.871 E6.94709
G1 X116.275 Y173.871 E7.03104
G1 X113.725 Y173.942 E7.11589
G1 X111.261 Y174.082 E7.19797
G1 X108.724 Y174.297 E7.28266
G1 X106.213 Y174.582 E7.36671
G1 X103.946 Y174.895 E7.44282
G1 X103.012 Y174.983 E7.47403
G1 X102.313 Y174.997 E7.49728
G1 X101.626 Y174.989 E7.52013
G1 X100.738 Y174.958 E7.54969
G1 X100.195 Y174.923 E7.56778
G1 X99.557 Y174.866 E7.58909
G1 X99.029 Y174.806 E7.60676
G1 X98.4 Y174.719 E7.62788
G1 X97.898 Y174.638 E7.64479
G1 X97.279 Y174.523 E7.66573
G1 X96.696 Y174.398 E7.68557
G1 X96.069 Y174.246 E7.70702
G1 X95.569 Y174.112 E7.72424
G1 X94.934 Y173.926 E7.74625
G1 X94.41 Y173.759 E7.76454
G1 X93.821 Y173.554 E7.78528
G1 X93.328 Y173.369 E7.8028
G1 X92.732 Y173.129 E7.82417
G1 X92.226 Y172.91 E7.84251
G1 X91.657 Y172.647 E7.86335
G1 X91.199 Y172.422 E7.88033
G1 X90.643 Y172.133 E7.90117
G1 X90.139 Y171.854 E7.92033
G1 X89.578 Y171.524 E7.94198
G1 X89.139 Y171.252 E7.95915
G1 X88.594 Y170.896 E7.9808
G1 X88.142 Y170.585 E7.99905
G1 X87.666 Y170.239 E8.01862
G1 X87.251 Y169.921 E8.03601
G1 X86.715 Y169.491 E8.05887
G1 X86.28 Y169.124 E8.0778
G1 X85.812 Y168.707 E8.09865
G1 X85.424 Y168.344 E8.11632
G1 X84.987 Y167.915 E8.13669
G1 X84.618 Y167.535 E8.1543
G1 X84.161 Y167.041 E8.17669
G1 X83.802 Y166.633 E8.19476
G1 X83.411 Y166.166 E8.21502
G1 X83.068 Y165.735 E8.23334
G1 X82.66 Y165.195 E8.25585
G1 X82.359 Y164.776 E8.27301
G1 X82.021 Y164.282 E8.29292
G1 X81.714 Y163.808 E8.3117
G1 X81.36 Y163.229 E8.33427
G1 X81.107 Y162.792 E8.35107
G1 X80.843 Y162.312 E8.36929
G1 X80.6 Y161.845 E8.3868
G1 X80.304 Y161.24 E8.4092
G1 X80.071 Y160.731 E8.42782
G1 X79.811 Y160.123 E8.44981
G1 X79.612 Y159.625 E8.46765
G1 X79.399 Y159.051 E8.48801
G1 X79.22 Y158.529 E8.50637
G1 X79.025 Y157.91 E8.52795
G1 X78.87 Y157.368 E8.5467
G1 X78.699 Y156.709 E8.56935
G1 X78.58 Y156.205 E8.58657
G1 X78.456 Y155.614 E8.60666
G1 X78.358 Y155.079 E8.62475
G1 X78.258 Y154.449 E8.64596
G1 X78.187 Y153.915 E8.66388
G1 X78.118 Y153.281 E8.68509
G1 X78.073 Y152.761 E8.70245
G1 X78.034 Y152.122 E8.72374
G1 X78.015 Y151.6 E8.74112
G1 X78 Y150.411 E8.78067
G1 X78.001 Y84.526 E10.97201
G1 X78.021 Y83.256 E11.01426
G1 X78.043 Y82.72 E11.0321
G1 X78.079 Y82.175 E11.05026
G1 X78.14 Y81.504 E11.07267
G1 X78.2 Y80.984 E11.09008
G1 X78.285 Y80.373 E11.1106
G1 X78.37 Y79.853 E11.12813
G1 X78.486 Y79.237 E11.14897
G1 X78.606 Y78.678 E11.16799
G1 X78.757 Y78.056 E11.18928
G1 X78.895 Y77.543 E11.20695
G1 X79.085 Y76.898 E11.22931
G1 X79.253 Y76.378 E11.24749
G1 X79.456 Y75.797 E11.26796
G1 X79.646 Y75.291 E11.28593
G1 X79.893 Y74.682 E11.30779
G1 X80.106 Y74.193 E11.32553
G1 X80.37 Y73.623 E11.34643
G1 X80.604 Y73.148 E11.36404
G1 X80.899 Y72.584 E11.38521
G1 X81.176 Y72.086 E11.40416
G1 X81.501 Y71.536 E11.42541
G1 X81.768 Y71.107 E11.44222
G1 X82.113 Y70.58 E11.46317
G1 X82.436 Y70.113 E11.48205
G1 X82.814 Y69.596 E11.50335
G1 X83.115 Y69.203 E11.51982
G1 X83.493 Y68.732 E11.5399
G0 F6000 X83.805 Y68.982
G1 F1200 X84.158 Y68.565 E11.55808
G1 X84.592 Y68.078 E11.57977
G1 X84.942 Y67.704 E11.59681
G1 X85.371 Y67.267 E11.61718
G1 X85.736 Y66.913 E11.63409
G1 X86.231 Y66.455 E11.65652
G1 X86.617 Y66.115 E11.67363
G1 X87.083 Y65.724 E11.69386
G1 X87.516 Y65.379 E11.71227
G1 X88.064 Y64.966 E11.7351
G1 X88.465 Y64.678 E11.75152
G1 X88.951 Y64.346 E11.77109
G1 X89.401 Y64.055 E11.78892
G1 X89.98 Y63.701 E11.81149
G1 X90.392 Y63.462 E11.82733
G1 X90.871 Y63.198 E11.84552
G1 X91.33 Y62.96 E11.86272
G1 X91.935 Y62.664 E11.88512
G1 X92.431 Y62.436 E11.90328
G1 X93.04 Y62.176 E11.9253
G1 X93.519 Y61.986 E11.94244
G1 X94.029 Y61.797 E11.96053
G1 X94.495 Y61.636 E11.97693
G1 X95.217 Y61.406 E12.00213
G1 X95.761 Y61.249 E12.02096
G1 X96.352 Y61.095 E12.04128
G1 X96.85 Y60.978 E12.05829
G1 X97.47 Y60.848 E12.07936
G1 X97.978 Y60.754 E12.09654
G1 X98.606 Y60.654 E12.11769
G1 X99.131 Y60.584 E12.13531
G1 X99.768 Y60.515 E12.15662
G1 X100.262 Y60.473 E12.17311
G1 X100.899 Y60.434 E12.19434
G1 X101.392 Y60.415 E12.21075
G1 X102.008 Y60.406 E12.23124
G1 X102.694 Y60.413 E12.25405
G1 X103.976 Y60.513 E12.29682
G1 X106.103 Y60.81 E12.36825
G1 X108.636 Y61.098 E12.45304
G1 X111.168 Y61.314 E12.53756
G1 X113.673 Y61.456 E12.62102
G1 X116.225 Y61.529 E12.70593
G1 X118.736 Y61.529 E12.78945
G1 X121.273 Y61.458 E12.87386
G1 X123.797 Y61.315 E12.95794
G1 X126.319 Y61.101 E13.04213
G1 X128.848 Y60.814 E13.12678
G1 X131.109 Y60.502 E13.2027
G1 X132.026 Y60.415 E13.23333
G1 X132.682 Y60.403 E13.25515
G1 X133.661 Y60.418 E13.28772
G1 X134.224 Y60.44 E13.30646
G1 X134.761 Y60.475 E13.32436
G1 X135.427 Y60.535 E13.3466
G1 X135.91 Y60.589 E13.36276
G1 X136.518 Y60.672 E13.38317
G1 X137.025 Y60.754 E13.40026
G1 X137.653 Y60.871 E13.4215
G1 X138.204 Y60.989 E13.44024
G1 X138.82 Y61.138 E13.46132
G1 X139.323 Y61.273 E13.47865
G1 X139.985 Y61.468 E13.5016
G1 X140.475 Y61.625 E13.51871
G1 X141.061 Y61.829 E13.53935
G1 X141.549 Y62.013 E13.5567
G1 X142.155 Y62.258 E13.57844
G1 X142.646 Y62.471 E13.59624
G1 X143.206 Y62.731 E13.61677
G1 X143.667 Y62.959 E13.63388
G1 X144.254 Y63.267 E13.65593
G1 X144.713 Y63.522 E13.67339
G1 X145.237 Y63.831 E13.69362
G1 X145.654 Y64.09 E13.70995
G1 X146.177 Y64.432 E13.73074
G1 X146.586 Y64.714 E13.74726
G1 X147.048 Y65.048 E13.76622
G1 X147.454 Y65.356 E13.78317
G1 X148.001 Y65.793 E13.80646
G1 X148.419 Y66.145 E13.82463
G1 X148.906 Y66.577 E13.84628
G1 X149.296 Y66.941 E13.86403
G1 X149.724 Y67.361 E13.88397
G1 X150.074 Y67.721 E13.90067
G1 X150.531 Y68.214 E13.92303
G1 X150.875 Y68.604 E13.94033
G1 X151.273 Y69.078 E13.96091
G1 X151.6 Y69.487 E13.97833
G1 X151.949 Y69.947 E13.99753
G1 X152.229 Y70.335 E14.01345
G1 X152.625 Y70.909 E14.03664
G1 X152.942 Y71.396 E14.05597
G1 X153.292 Y71.968 E14.07827
G1 X153.533 Y72.383 E14.09423
G1 X153.802 Y72.871 E14.11277
G1 X154.05 Y73.35 E14.13071
G1 X154.36 Y73.987 E14.15427
G1 X154.58 Y74.468 E14.17186
G1 X154.826 Y75.045 E14.19272
G1 X155.014 Y75.519 E14.20968
G1 X155.203 Y76.029 E14.22777
G1 X155.362 Y76.488 E14.24393
G1 X155.59 Y77.202 E14.26886
G1 X155.749 Y77.75 E14.28784
G1 X155.905 Y78.348 E14.30839
G1 X156.024 Y78.855 E14.32571
G1 X156.154 Y79.477 E14.34685
G1 X156.247 Y79.982 E14.36393
G1 X156.347 Y80.611 E14.38511
G1 X156.416 Y81.128 E14.40246
G1 X156.485 Y81.762 E14.42367
G1 X156.527 Y82.262 E14.44036
G1 X156.566 Y82.9 E14.46162
G1 X156.585 Y83.405 E14.47843
G1 X156.6 Y84.589 E14.51781
G1 X156.599 Y150.472 E16.70909
G1 X156.58 Y151.694 E16.74974
G1 X156.558 Y152.249 E16.76821
G1 X156.523 Y152.78 E16.78591
G1 X156.465 Y153.424 E16.80742
G1 X156.409 Y153.921 E16.82405
G1 X156.321 Y154.559 E16.84547
G1 X156.234 Y155.089 E16.86334
G1 X156.117 Y155.705 E16.88419
G1 X156.006 Y156.219 E16.90168
G1 X155.857 Y156.835 E16.92276
G1 X155.724 Y157.331 E16.93984
G1 X155.533 Y157.981 E16.96237
G1 X155.374 Y158.476 E16.97966
G1 X155.175 Y159.048 E16.99981
G1 X154.995 Y159.53 E17.01692
G1 X154.751 Y160.135 E17.03862
G1 X154.537 Y160.628 E17.05649
G1 X154.264 Y161.217 E17.07809
G1 X154.024 Y161.703 E17.09611
G1 X153.724 Y162.272 E17.11751
G1 X153.476 Y162.715 E17.13439
G1 X153.168 Y163.237 E17.15455
G1 X152.915 Y163.644 E17.17049
G1 X152.571 Y164.171 E17.19142
G1 X152.288 Y164.584 E17.20808
G1 X151.955 Y165.045 E17.22699
G1 X151.645 Y165.452 E17.24401
G1 X151.205 Y166.003 E17.26746
G1 X150.847 Y166.428 E17.28594
G1 X150.418 Y166.911 E17.30743
G1 X150.049 Y167.306 E17.32541
G1 X149.621 Y167.741 E17.3457
G1 X149.263 Y168.088 E17.36229
G1 X148.769 Y168.545 E17.38467
G1 X148.376 Y168.891 E17.40208
G1 X147.909 Y169.282 E17.42234
G1 X147.494 Y169.612 E17.43998
G1 X146.954 Y170.02 E17.46249
G1 X146.55 Y170.311 E17.47905
G1 X146.056 Y170.649 E17.49896
G1 X145.599 Y170.945 E17.51707
G1 X145.02 Y171.299 E17.53964
G1 X144.567 Y171.561 E17.55704
G1 X144.017 Y171.861 E17.57788
G1 X143.574 Y172.089 E17.59445
G1 X143.039 Y172.349 E17.61424
G1 X142.574 Y172.561 E17.63123
G1 X141.966 Y172.821 E17.65323
G1 X141.481 Y173.014 E17.67059
G1 X140.971 Y173.203 E17.68868
G1 X140.505 Y173.364 E17.70508
G1 X139.783 Y173.594 E17.73028
G1 X139.243 Y173.75 E17.74897
G1 X138.653 Y173.904 E17.76926
G1 X138.145 Y174.024 E17.78662
G1 X137.523 Y174.154 E17.80775
G1 X137.023 Y174.246 E17.82466
G1 X136.396 Y174.346 E17.84578
G1 X135.87 Y174.416 E17.86343
G1 X135.234 Y174.485 E17.8847
G1 X134.737 Y174.527 E17.90129
G1 X134.098 Y174.566 E17.92259
G1 X133.607 Y174.585 E17.93893
G1 X132.991 Y174.594 E17.95942
G1 X132.306 Y174.587 E17.9822
G1 X131.024 Y174.487 E18.02497
G1 X128.897 Y174.19 E18.0964
G1 X126.364 Y173.902 E18.18119
G1 X123.832 Y173.686 E18.26572
G1 X121.327 Y173.544 E18.34917
G1 X118.775 Y173.471 E18.43408
G1 X116.264 Y173.471 E18.5176
G1 X113.727 Y173.542 E18.60201
G1 X111.203 Y173.685 E18.68609
G1 X108.681 Y173.899 E18.77028
G1 X106.152 Y174.186 E18.85493
G1 X103.891 Y174.498 E18.93085
G1 X102.974 Y174.585 E18.96148
G1 X102.318 Y174.597 E18.9833
G1 X101.334 Y174.582 E19.01604
G1 X100.754 Y174.559 E19.03534
G1 X100.231 Y174.525 E19.05277
G1 X99.593 Y174.468 E19.07408
G1 X99.084 Y174.41 E19.09112
G1 X98.455 Y174.323 E19.11224
G1 X97.971 Y174.245 E19.12854
G1 X97.352 Y174.13 E19.14948
G1 X96.791 Y174.01 E19.16856
G1 X96.164 Y173.858 E19.19002
G1 X95.681 Y173.729 E19.20665
G1 X95.046 Y173.543 E19.22866
G1 X94.542 Y173.381 E19.24627
G1 X93.953 Y173.176 E19.26701
G1 X93.478 Y172.998 E19.28388
G1 X92.882 Y172.758 E19.30525
G1 X92.394 Y172.547 E19.32293
G1 X91.825 Y172.284 E19.34378
G1 X91.383 Y172.067 E19.36016
G1 X90.827 Y171.778 E19.381
G1 X90.342 Y171.51 E19.39943
G1 X89.781 Y171.18 E19.42108
G1 X89.358 Y170.917 E19.43765
G1 X88.813 Y170.561 E19.4593
G1 X88.378 Y170.261 E19.47687
G1 X87.902 Y169.915 E19.49644
G1 X87.501 Y169.609 E19.51322
G1 X86.965 Y169.179 E19.53608
G1 X86.546 Y168.825 E19.55432
G1 X86.078 Y168.408 E19.57517
G1 X85.704 Y168.058 E19.59221
