;FLAVOR:Marlin
;TIME:223
;Filament used: 0.0475222m
;Layer height: 0.1
;MINX:104.08
;MINY:100.58
;MINZ:0.1
;MAXX:124.92
;MAXY:136.42
;MAXZ:0.5
;Generated with Cura_SteamEngine 5.2.2
M140 S50
M105
M190 S50
M104 S200
M105
M109 S200
M82 ;absolute extrusion mode
; Ender 3 Custom Start G-code
G92 E0 ; Reset Extruder
G28 ; Home all axes
G1 Z2.0 F3000 ; Move Z Axis up little to prevent scratching of Heat Bed
G1 X0.1 Y20 Z0.3 F5000.0 ; Move to start position
G1 X0.1 Y200.0 Z0.3 F1500.0 E15 ; Draw the first line
G1 X0.4 Y200.0 Z0.3 F5000.0 ; Move to side a little
G1 X0.4 Y20 Z0.3 F1500.0 E30 ; Draw the second line
G92 E0 ; Reset Extruder
G1 Z2.0 F3000 ; Move Z Axis up little to prevent scratching of Heat Bed
G1 X5 Y20 Z0.3 F5000.0 ; Move over to prevent blob squish
G92 E0
G92 E0
G1 F2700 E-5
;LAYER_COUNT:5
;LAYER:0
M107
G0 F6000 X106.365 Y103.365 Z0.1
;TYPE:SKIRT
G1 F2700 E0
G1 F1200 X106.865 Y102.865 E0.01176
G1 X107.451 Y102.335 E0.0249
G1 X108.087 Y101.868 E0.03802
G1 X108.767 Y101.467 E0.05115
G1 X109.485 Y101.137 E0.06429
G1 X110.232 Y100.882 E0.07742
G1 X111.001 Y100.703 E0.09055
G1 X111.785 Y100.603 E0.10369
G1 X112.38 Y100.58 E0.11359
G1 X116.62 Y100.58 E0.1841
G1 X117.409 Y100.62 E0.19724
G1 X118.189 Y100.739 E0.21036
G1 X118.954 Y100.937 E0.22351
G1 X119.694 Y101.211 E0.23663
G1 X120.403 Y101.559 E0.24976
G1 X121.074 Y101.977 E0.26291
G1 X121.698 Y102.46 E0.27603
G1 X122.135 Y102.865 E0.28594
G1 X122.635 Y103.365 E0.2977
G1 X123.165 Y103.951 E0.31084
G1 X123.632 Y104.587 E0.32396
G1 X124.033 Y105.267 E0.33709
G1 X124.363 Y105.985 E0.35023
G1 X124.618 Y106.732 E0.36336
G1 X124.797 Y107.501 E0.37649
G1 X124.897 Y108.285 E0.38963
G1 X124.92 Y108.88 E0.39953
G1 X124.92 Y128.12 E0.7195
G1 X124.88 Y128.909 E0.73263
G1 X124.761 Y129.689 E0.74576
G1 X124.563 Y130.454 E0.7589
G1 X124.289 Y131.194 E0.77202
G1 X123.941 Y131.903 E0.78515
G1 X123.523 Y132.574 E0.7983
G1 X123.04 Y133.198 E0.81142
G1 X122.635 Y133.635 E0.82133
G1 X122.135 Y134.135 E0.83309
G1 X121.549 Y134.665 E0.84623
G1 X120.913 Y135.132 E0.85935
G1 X120.233 Y135.533 E0.87248
G1 X119.515 Y135.863 E0.88562
G1 X118.768 Y136.118 E0.89875
G1 X117.999 Y136.297 E0.91188
G1 X117.215 Y136.397 E0.92502
G1 X116.62 Y136.42 E0.93493
G1 X112.38 Y136.42 E1.00544
G1 X111.591 Y136.38 E1.01857
G1 X110.811 Y136.261 E1.0317
G1 X110.046 Y136.063 E1.04484
G1 X109.306 Y135.789 E1.05796
G1 X108.597 Y135.441 E1.07109
G1 X107.926 Y135.023 E1.08424
G1 X107.302 Y134.54 E1.09736
G1 X106.865 Y134.135 E1.10727
G1 X106.365 Y133.635 E1.11903
G1 X105.835 Y133.049 E1.13217
G1 X105.368 Y132.413 E1.14529
G1 X104.967 Y131.733 E1.15842
G1 X104.637 Y131.015 E1.17156
G1 X104.382 Y130.268 E1.18469
G1 X104.203 Y129.499 E1.19782
G1 X104.103 Y128.715 E1.21096
G1 X104.08 Y128.12 E1.22087
G1 X104.08 Y108.88 E1.54083
G1 X104.12 Y108.091 E1.55397
G1 X104.239 Y107.311 E1.56709
G1 X104.437 Y106.546 E1.58023
G1 X104.711 Y105.806 E1.59335
G1 X105.059 Y105.097 E1.60649
G1 X105.477 Y104.426 E1.61963
G1 X105.96 Y103.802 E1.63276
G1 X106.365 Y103.365 E1.64266
G0 F6000 X106.647 Y103.647
G1 F1200 X107.147 Y103.147 E1.65442
G1 X107.719 Y102.633 E1.66721
G1 X108.341 Y102.18 E1.68001
G1 X109.006 Y101.794 E1.6928
G1 X109.708 Y101.479 E1.70559
G1 X110.439 Y101.239 E1.71839
G1 X111.19 Y101.076 E1.73117
G1 X111.955 Y100.992 E1.74396
G1 X112.38 Y100.98 E1.75104
G1 X116.62 Y100.98 E1.82155
G1 X117.388 Y101.02 E1.83434
G1 X118.148 Y101.139 E1.84713
G1 X118.891 Y101.337 E1.85992
G1 X119.61 Y101.611 E1.87271
G1 X120.296 Y101.958 E1.8855
G1 X120.943 Y102.374 E1.89829
G1 X121.543 Y102.855 E1.91108
G1 X121.853 Y103.147 E1.91816
G1 X122.353 Y103.647 E1.92992
G1 X122.867 Y104.219 E1.94271
G1 X123.32 Y104.841 E1.9555
G1 X123.706 Y105.506 E1.96829
G1 X124.021 Y106.208 E1.98109
G1 X124.261 Y106.939 E1.99388
G1 X124.424 Y107.69 E2.00666
G1 X124.508 Y108.455 E2.01946
G1 X124.52 Y108.88 E2.02653
G1 X124.52 Y128.12 E2.34649
G1 X124.48 Y128.888 E2.35928
G1 X124.361 Y129.648 E2.37207
G1 X124.163 Y130.391 E2.38486
G1 X123.889 Y131.11 E2.39766
G1 X123.542 Y131.796 E2.41044
G1 X123.126 Y132.443 E2.42323
G1 X122.645 Y133.043 E2.43602
G1 X122.353 Y133.353 E2.44311
G1 X121.853 Y133.853 E2.45486
G1 X121.281 Y134.367 E2.46765
G1 X120.659 Y134.82 E2.48045
G1 X119.994 Y135.206 E2.49324
G1 X119.292 Y135.521 E2.50603
G1 X118.561 Y135.761 E2.51883
G1 X117.81 Y135.924 E2.53161
G1 X117.045 Y136.008 E2.54441
G1 X116.62 Y136.02 E2.55148
G1 X112.38 Y136.02 E2.62199
G1 X111.612 Y135.98 E2.63478
G1 X110.852 Y135.861 E2.64757
G1 X110.109 Y135.663 E2.66036
G1 X109.39 Y135.389 E2.67315
G1 X108.704 Y135.042 E2.68594
G1 X108.057 Y134.626 E2.69873
G1 X107.457 Y134.145 E2.71152
G1 X107.147 Y133.853 E2.7186
G1 X106.647 Y133.353 E2.73036
G1 X106.133 Y132.781 E2.74315
G1 X105.68 Y132.159 E2.75594
G1 X105.294 Y131.494 E2.76873
G1 X104.979 Y130.792 E2.78153
G1 X104.739 Y130.061 E2.79432
G1 X104.576 Y129.31 E2.8071
G1 X104.492 Y128.545 E2.8199
G1 X104.48 Y128.12 E2.82697
G1 X104.48 Y108.88 E3.14693
G1 X104.52 Y108.112 E3.15972
G1 X104.639 Y107.352 E3.17252
G1 X104.837 Y106.609 E3.1853
G1 X105.111 Y105.89 E3.1981
G1 X105.458 Y105.204 E3.21088
G1 X105.874 Y104.557 E3.22368
G1 X106.355 Y103.957 E3.23646
G1 X106.647 Y103.647 E3.24355
G0 F6000 X106.93 Y103.93
G1 F1200 X107.43 Y103.43 E3.25531
G1 X107.987 Y102.93 E3.26775
G1 X108.593 Y102.493 E3.28018
G1 X109.243 Y102.122 E3.29262
G1 X109.929 Y101.823 E3.30507
G1 X110.643 Y101.599 E3.31751
G1 X111.376 Y101.452 E3.32995
G1 X112.38 Y101.38 E3.34669
G1 X116.62 Y101.38 E3.4172
G1 X117.367 Y101.42 E3.42964
G1 X118.105 Y101.539 E3.44207
G1 X118.827 Y101.737 E3.45452
G1 X119.523 Y102.01 E3.46695
G1 X120.186 Y102.357 E3.4794
G1 X120.809 Y102.772 E3.49185
G1 X121.57 Y103.43 E3.50858
G1 X122.07 Y103.93 E3.52034
G1 X122.57 Y104.487 E3.53278
G1 X123.007 Y105.093 E3.54521
G1 X123.378 Y105.743 E3.55765
G1 X123.677 Y106.429 E3.5701
G1 X123.901 Y107.143 E3.58254
G1 X124.048 Y107.876 E3.59498
G1 X124.12 Y108.88 E3.61172
G1 X124.12 Y128.12 E3.93168
G1 X124.08 Y128.867 E3.94412
G1 X123.961 Y129.605 E3.95655
G1 X123.763 Y130.327 E3.969
G1 X123.49 Y131.023 E3.98143
G1 X123.143 Y131.686 E3.99388
G1 X122.728 Y132.309 E4.00633
G1 X122.07 Y133.07 E4.02306
G1 X121.57 Y133.57 E4.03482
G1 X121.013 Y134.07 E4.04726
G1 X120.407 Y134.507 E4.05969
G1 X119.757 Y134.878 E4.07213
G1 X119.071 Y135.177 E4.08458
G1 X118.357 Y135.401 E4.09702
G1 X117.624 Y135.548 E4.10946
G1 X116.62 Y135.62 E4.1262
G1 X112.38 Y135.62 E4.19671
G1 X111.633 Y135.58 E4.20915
G1 X110.895 Y135.461 E4.22158
G1 X110.173 Y135.263 E4.23403
G1 X109.477 Y134.99 E4.24646
G1 X108.814 Y134.643 E4.25891
G1 X108.191 Y134.228 E4.27136
G1 X107.43 Y133.57 E4.28809
G1 X106.93 Y133.07 E4.29985
G1 X106.43 Y132.513 E4.31229
G1 X105.993 Y131.907 E4.32472
G1 X105.622 Y131.257 E4.33716
G1 X105.323 Y130.571 E4.34961
G1 X105.099 Y129.857 E4.36205
G1 X104.952 Y129.124 E4.37449
G1 X104.88 Y128.12 E4.39123
G1 X104.88 Y108.88 E4.71119
G1 X104.92 Y108.133 E4.72363
G1 X105.039 Y107.395 E4.73606
G1 X105.237 Y106.673 E4.74851
G1 X105.51 Y105.977 E4.76094
G1 X105.857 Y105.314 E4.77339
G1 X106.272 Y104.691 E4.78584
G1 X106.93 Y103.93 E4.80257
G0 F6000 X107.213 Y104.213
G1 F1200 X107.713 Y103.713 E4.81433
G1 X108.254 Y103.229 E4.8264
G1 X108.845 Y102.806 E4.83848
G1 X109.479 Y102.452 E4.85056
G1 X110.148 Y102.169 E4.86264
G1 X110.844 Y101.961 E4.87472
G1 X111.559 Y101.831 E4.88681
G1 X112.38 Y101.78 E4.90049
G1 X116.62 Y101.78 E4.971
G1 X117.345 Y101.82 E4.98307
G1 X118.062 Y101.939 E4.99516
G1 X118.761 Y102.137 E5.00724
G1 X119.434 Y102.41 E5.01932
G1 X120.073 Y102.755 E5.03139
G1 X120.67 Y103.169 E5.04348
G1 X121.287 Y103.713 E5.05716
G1 X121.787 Y104.213 E5.06892
G1 X122.271 Y104.754 E5.08099
G1 X122.694 Y105.345 E5.09307
G1 X123.048 Y105.979 E5.10515
G1 X123.331 Y106.648 E5.11723
G1 X123.539 Y107.344 E5.12931
G1 X123.669 Y108.059 E5.1414
G1 X123.72 Y108.88 E5.15507
G1 X123.72 Y128.12 E5.47504
G1 X123.68 Y128.845 E5.48711
G1 X123.561 Y129.562 E5.4992
G1 X123.363 Y130.261 E5.51128
G1 X123.09 Y130.934 E5.52336
G1 X122.745 Y131.573 E5.53544
G1 X122.331 Y132.17 E5.54752
G1 X121.787 Y132.787 E5.5612
G1 X121.287 Y133.287 E5.57296
G1 X120.746 Y133.771 E5.58503
G1 X120.155 Y134.194 E5.59711
G1 X119.521 Y134.548 E5.60919
G1 X118.852 Y134.831 E5.62127
G1 X118.156 Y135.039 E5.63335
G1 X117.441 Y135.169 E5.64544
G1 X116.62 Y135.22 E5.65912
G1 X112.38 Y135.22 E5.72963
G1 X111.655 Y135.18 E5.7417
G1 X110.938 Y135.061 E5.75379
G1 X110.239 Y134.863 E5.76587
G1 X109.566 Y134.59 E5.77795
G1 X108.927 Y134.245 E5.79002
G1 X108.33 Y133.831 E5.80211
G1 X107.713 Y133.287 E5.81579
G1 X107.213 Y132.787 E5.82755
G1 X106.729 Y132.246 E5.83962
G1 X106.306 Y131.655 E5.8517
G1 X105.952 Y131.021 E5.86378
G1 X105.669 Y130.352 E5.87586
G1 X105.461 Y129.656 E5.88794
G1 X105.331 Y128.941 E5.90002
G1 X105.28 Y128.12 E5.9137
G1 X105.28 Y108.88 E6.23367
G1 X105.32 Y108.155 E6.24574
G1 X105.439 Y107.438 E6.25783
G1 X105.637 Y106.739 E6.26991
G1 X105.91 Y106.066 E6.28199
G1 X106.255 Y105.427 E6.29406
G1 X106.669 Y104.83 E6.30615
G1 X107.213 Y104.213 E6.31983
G0 F6000 X107.496 Y104.496
G1 F1200 X107.996 Y103.996 E6.33159
G1 X108.521 Y103.527 E6.34329
G1 X109.096 Y103.121 E6.355
G1 X109.714 Y102.783 E6.36671
G1 X110.365 Y102.516 E6.37841
G1 X111.043 Y102.326 E6.39012
G1 X111.738 Y102.213 E6.40183
G1 X112.38 Y102.18 E6.41252
G1 X116.62 Y102.18 E6.48304
G1 X117.323 Y102.22 E6.49474
G1 X118.017 Y102.339 E6.50645
G1 X118.692 Y102.537 E6.51815
G1 X119.341 Y102.809 E6.52986
G1 X119.955 Y103.154 E6.54157
G1 X120.526 Y103.565 E6.55327
G1 X121.004 Y103.996 E6.56397
G1 X121.504 Y104.496 E6.57573
G1 X121.973 Y105.021 E6.58744
G1 X122.379 Y105.596 E6.59914
G1 X122.717 Y106.214 E6.61086
G1 X122.984 Y106.865 E6.62256
G1 X123.174 Y107.543 E6.63427
G1 X123.287 Y108.238 E6.64598
G1 X123.32 Y108.88 E6.65667
G1 X123.32 Y128.12 E6.97663
G1 X123.28 Y128.823 E6.98834
G1 X123.161 Y129.517 E7.00005
G1 X122.963 Y130.192 E7.01175
G1 X122.691 Y130.841 E7.02345
G1 X122.346 Y131.455 E7.03516
G1 X121.935 Y132.026 E7.04686
G1 X121.504 Y132.504 E7.05757
G1 X121.004 Y133.004 E7.06933
G1 X120.479 Y133.473 E7.08103
G1 X119.904 Y133.879 E7.09274
G1 X119.286 Y134.217 E7.10445
G1 X118.635 Y134.484 E7.11615
G1 X117.957 Y134.674 E7.12786
G1 X117.262 Y134.787 E7.13957
G1 X116.62 Y134.82 E7.15026
G1 X112.38 Y134.82 E7.22078
G1 X111.677 Y134.78 E7.23249
G1 X110.983 Y134.661 E7.2442
G1 X110.308 Y134.463 E7.25589
G1 X109.659 Y134.191 E7.2676
G1 X109.045 Y133.846 E7.27931
G1 X108.474 Y133.435 E7.29101
G1 X107.996 Y133.004 E7.30171
G1 X107.496 Y132.504 E7.31347
G1 X107.027 Y131.979 E7.32518
G1 X106.621 Y131.404 E7.33688
G1 X106.283 Y130.786 E7.3486
G1 X106.016 Y130.135 E7.3603
G1 X105.826 Y129.457 E7.37201
G1 X105.713 Y128.762 E7.38372
G1 X105.68 Y128.12 E7.39441
G1 X105.68 Y108.88 E7.71437
G1 X105.72 Y108.177 E7.72608
G1 X105.839 Y107.483 E7.73779
G1 X106.037 Y106.808 E7.74949
G1 X106.309 Y106.159 E7.76119
G1 X106.654 Y105.545 E7.7729
G1 X107.065 Y104.974 E7.7846
G1 X107.496 Y104.496 E7.79531
G0 F6000 X107.779 Y104.779
G1 F1200 X108.279 Y104.279 E7.80707
G1 X108.788 Y103.826 E7.8184
G1 X109.346 Y103.437 E7.82971
G1 X109.946 Y103.115 E7.84103
G1 X110.58 Y102.866 E7.85236
G1 X111.239 Y102.693 E7.86369
G1 X111.913 Y102.599 E7.87501
G1 X112.38 Y102.58 E7.88278
G1 X116.62 Y102.58 E7.95329
G1 X117.3 Y102.62 E7.96462
G1 X117.97 Y102.739 E7.97594
G1 X118.622 Y102.936 E7.98727
G1 X119.246 Y103.208 E7.99859
G1 X119.834 Y103.552 E8.00991
G1 X120.378 Y103.962 E8.02124
G1 X120.721 Y104.279 E8.02901
G1 X121.221 Y104.779 E8.04077
G1 X121.674 Y105.288 E8.0521
G1 X122.063 Y105.846 E8.06341
G1 X122.385 Y106.446 E8.07474
G1 X122.634 Y107.08 E8.08606
G1 X122.807 Y107.739 E8.09739
G1 X122.901 Y108.413 E8.10871
G1 X122.92 Y108.88 E8.11648
G1 X122.92 Y128.12 E8.43645
G1 X122.88 Y128.8 E8.44778
G1 X122.761 Y129.47 E8.45909
G1 X122.564 Y130.122 E8.47042
G1 X122.292 Y130.746 E8.48174
G1 X121.948 Y131.334 E8.49307
G1 X121.538 Y131.878 E8.5044
G1 X121.221 Y132.221 E8.51216
G1 X120.721 Y132.721 E8.52392
G1 X120.212 Y133.174 E8.53525
G1 X119.654 Y133.563 E8.54657
G1 X119.054 Y133.885 E8.55789
G1 X118.42 Y134.134 E8.56922
G1 X117.761 Y134.307 E8.58055
G1 X117.087 Y134.401 E8.59187
G1 X116.62 Y134.42 E8.59964
G1 X112.38 Y134.42 E8.67015
G1 X111.7 Y134.38 E8.68148
G1 X111.03 Y134.261 E8.69279
G1 X110.378 Y134.064 E8.70412
G1 X109.754 Y133.792 E8.71544
G1 X109.166 Y133.448 E8.72677
G1 X108.622 Y133.038 E8.7381
G1 X108.279 Y132.721 E8.74587
G1 X107.779 Y132.221 E8.75762
G1 X107.326 Y131.712 E8.76896
G1 X106.937 Y131.154 E8.78027
G1 X106.615 Y130.554 E8.79159
G1 X106.366 Y129.92 E8.80292
G1 X106.193 Y129.261 E8.81425
G1 X106.099 Y128.587 E8.82557
G1 X106.08 Y128.12 E8.83334
G1 X106.08 Y108.88 E9.1533
G1 X106.12 Y108.2 E9.16463
G1 X106.239 Y107.53 E9.17595
G1 X106.436 Y106.878 E9.18727
G1 X106.708 Y106.254 E9.19859
G1 X107.052 Y105.666 E9.20992
G1 X107.462 Y105.122 E9.22125
G1 X107.779 Y104.779 E9.22902
G0 F6000 X108.062 Y105.062
G1 F1200 X108.562 Y104.562 E9.24078
G1 X109.054 Y104.126 E9.25171
G1 X109.595 Y103.754 E9.26263
G1 X110.177 Y103.45 E9.27355
G1 X110.792 Y103.219 E9.28447
G1 X111.431 Y103.064 E9.29541
G1 X112.38 Y102.98 E9.31125
G1 X116.62 Y102.98 E9.38176
G1 X117.276 Y103.02 E9.39269
G1 X117.922 Y103.139 E9.40362
G1 X118.549 Y103.336 E9.41455
G1 X119.147 Y103.608 E9.42547
G1 X119.708 Y103.95 E9.4364
G1 X120.438 Y104.562 E9.45224
G1 X120.938 Y105.062 E9.464
G1 X121.374 Y105.554 E9.47493
G1 X121.746 Y106.095 E9.48585
G1 X122.05 Y106.677 E9.49677
G1 X122.281 Y107.292 E9.50769
G1 X122.436 Y107.931 E9.51863
G1 X122.52 Y108.88 E9.53447
G1 X122.52 Y128.12 E9.85444
G1 X122.48 Y128.776 E9.86537
G1 X122.361 Y129.422 E9.87629
G1 X122.164 Y130.049 E9.88722
G1 X121.892 Y130.647 E9.89814
G1 X121.55 Y131.208 E9.90907
G1 X120.938 Y131.938 E9.92491
G1 X120.438 Y132.438 E9.93667
G1 X119.946 Y132.874 E9.9476
G1 X119.405 Y133.246 E9.95852
G1 X118.823 Y133.55 E9.96944
G1 X118.208 Y133.781 E9.98037
G1 X117.569 Y133.936 E9.9913
G1 X116.62 Y134.02 E10.00715
G1 X112.38 Y134.02 E10.07766
G1 X111.724 Y133.98 E10.08859
G1 X111.078 Y133.861 E10.09951
G1 X110.451 Y133.664 E10.11044
G1 X109.853 Y133.392 E10.12136
G1 X109.292 Y133.05 E10.13229
G1 X108.562 Y132.438 E10.14813
G1 X108.062 Y131.938 E10.15989
G1 X107.626 Y131.446 E10.17082
G1 X107.254 Y130.905 E10.18174
G1 X106.95 Y130.323 E10.19266
G1 X106.719 Y129.708 E10.20359
G1 X106.564 Y129.069 E10.21452
G1 X106.48 Y128.12 E10.23037
G1 X106.48 Y108.88 E10.55033
G1 X106.52 Y108.224 E10.56126
G1 X106.639 Y107.578 E10.57218
G1 X106.836 Y106.951 E10.58311
G1 X107.108 Y106.353 E10.59404
G1 X107.45 Y105.792 E10.60496
G1 X108.062 Y105.062 E10.62081
G0 F6000 X108.344 Y105.344
G1 F1200 X108.844 Y104.844 E10.63256
G1 X109.319 Y104.427 E10.64308
G1 X109.842 Y104.072 E10.65359
G1 X110.406 Y103.786 E10.6641
G1 X111.001 Y103.574 E10.67461
G1 X111.619 Y103.438 E10.68513
G1 X112.38 Y103.38 E10.69782
G1 X116.62 Y103.38 E10.76834
G1 X117.251 Y103.42 E10.77885
G1 X117.872 Y103.539 E10.78937
G1 X118.472 Y103.736 E10.79987
G1 X119.044 Y104.007 E10.81039
G1 X119.576 Y104.347 E10.82089
G1 X120.156 Y104.844 E10.8336
G1 X120.656 Y105.344 E10.84535
G1 X121.073 Y105.819 E10.85587
G1 X121.428 Y106.342 E10.86638
G1 X121.714 Y106.906 E10.87689
G1 X121.926 Y107.501 E10.8874
G1 X122.062 Y108.119 E10.89792
G1 X122.12 Y108.88 E10.91061
G1 X122.12 Y128.12 E11.23058
G1 X122.08 Y128.751 E11.24109
G1 X121.961 Y129.372 E11.25161
G1 X121.764 Y129.972 E11.26211
G1 X121.493 Y130.544 E11.27263
G1 X121.153 Y131.076 E11.28313
G1 X120.656 Y131.656 E11.29584
G1 X120.156 Y132.156 E11.3076
G1 X119.681 Y132.573 E11.31811
G1 X119.158 Y132.928 E11.32862
G1 X118.594 Y133.214 E11.33914
G1 X117.999 Y133.426 E11.34964
G1 X117.381 Y133.562 E11.36016
G1 X116.62 Y133.62 E11.37285
G1 X112.38 Y133.62 E11.44337
G1 X111.749 Y133.58 E11.45388
G1 X111.128 Y133.461 E11.4644
G1 X110.528 Y133.264 E11.4749
G1 X109.956 Y132.993 E11.48542
G1 X109.424 Y132.653 E11.49592
G1 X108.844 Y132.156 E11.50863
G1 X108.344 Y131.656 E11.52039
G1 X107.927 Y131.181 E11.5309
G1 X107.572 Y130.658 E11.54141
G1 X107.286 Y130.094 E11.55192
G1 X107.074 Y129.499 E11.56243
