;FLAVOR:Marlin
;TIME:10287
;Filament used: 4.5816m
;Layer height: 0.2
;MINX:78.701
;MINY:61.201
;MINZ:0.2
;MAXX:156.299
;MAXY:173.799
;MAXZ:2.8
;Generated with Cura_SteamEngine 5.2.2
M140 S50
M105
M190 S50
M104 S200
M105
M109 S200
M82 ;absolute extrusion mode
; Ender 3 Custom Start G-code
G92 E0 ; Reset Extruder
G28 ; Home all axes
G1 Z2.0 F3000 ; Move Z Axis up little to prevent scratching of Heat Bed
G1 X0.1 Y20 Z0.3 F5000.0 ; Move to start position
G1 X0.1 Y200.0 Z0.3 F1500.0 E15 ; Draw the first line
G1 X0.4 Y200.0 Z0.3 F5000.0 ; Move to side a little
G1 X0.4 Y20 Z0.3 F1500.0 E30 ; Draw the second line
G92 E0 ; Reset Extruder
G1 Z2.0 F3000 ; Move Z Axis up little to prevent scratching of Heat Bed
G1 X5 Y20 Z0.3 F5000.0 ; Move over to prevent blob squish
G92 E0
G92 E0
G1 F2700 E-5
;LAYER_COUNT:14
;LAYER:0
M107
G0 F6000 X83.546 Y68.657 Z0.2
;TYPE:SKIRT
G1 F2700 E0
G1 F1200 X83.962 Y68.175 E0.02118
G1 X84.219 Y67.891 E0.03392
G1 X84.66 Y67.428 E0.05518
G1 X84.923 Y67.166 E0.06753
G1 X85.384 Y66.726 E0.08873
G1 X85.678 Y66.459 E0.10194
G1 X86.162 Y66.042 E0.12318
G1 X86.451 Y65.805 E0.13561
G1 X86.954 Y65.412 E0.15685
G1 X87.27 Y65.177 E0.16994
G1 X87.792 Y64.81 E0.19117
G1 X88.102 Y64.603 E0.20356
G1 X88.64 Y64.262 E0.22475
G1 X88.971 Y64.063 E0.2376
G1 X89.527 Y63.748 E0.25885
G1 X89.859 Y63.571 E0.27136
G1 X90.428 Y63.284 E0.29256
G1 X90.789 Y63.113 E0.30585
G1 X91.373 Y62.855 E0.32708
G1 X91.709 Y62.716 E0.33917
G1 X92.303 Y62.486 E0.36036
G1 X92.678 Y62.352 E0.37361
G1 X93.285 Y62.152 E0.39486
G1 X93.656 Y62.04 E0.40775
G1 X94.27 Y61.871 E0.42893
G1 X94.621 Y61.783 E0.44097
G1 X95.245 Y61.642 E0.46225
G1 X95.632 Y61.565 E0.47537
G1 X96.261 Y61.456 E0.4966
G1 X96.641 Y61.399 E0.50938
G1 X97.275 Y61.321 E0.53063
G1 X97.651 Y61.284 E0.54319
G1 X98.286 Y61.237 E0.56437
G1 X98.666 Y61.218 E0.57703
G1 X99.304 Y61.202 E0.59825
G1 X135.551 Y61.201 E1.80383
G1 X136.337 Y61.219 E1.82998
G1 X136.713 Y61.237 E1.8425
G1 X137.349 Y61.284 E1.86371
G1 X137.729 Y61.322 E1.87642
G1 X138.361 Y61.4 E1.8976
G1 X138.736 Y61.455 E1.9102
G1 X139.366 Y61.564 E1.93147
G1 X139.744 Y61.639 E1.94429
G1 X140.368 Y61.779 E1.96556
G1 X140.741 Y61.873 E1.97835
G1 X141.355 Y62.043 E1.99954
G1 X141.722 Y62.154 E2.01229
G1 X142.327 Y62.354 E2.03349
G1 X142.687 Y62.483 E2.0462
G1 X143.283 Y62.713 E2.06745
G1 X143.636 Y62.859 E2.08016
G1 X144.218 Y63.117 E2.10133
G1 X144.56 Y63.279 E2.11392
G1 X145.131 Y63.566 E2.13517
G1 X145.478 Y63.751 E2.14825
G1 X146.033 Y64.066 E2.16948
G1 X146.35 Y64.256 E2.18177
G1 X146.888 Y64.596 E2.20294
G1 X147.21 Y64.811 E2.21582
G1 X147.733 Y65.179 E2.23709
G1 X148.046 Y65.412 E2.25006
G1 X148.549 Y65.805 E2.27129
G1 X148.843 Y66.046 E2.28394
G1 X149.325 Y66.462 E2.30512
G1 X149.609 Y66.719 E2.31785
G1 X150.072 Y67.16 E2.33912
G1 X150.334 Y67.423 E2.35147
G1 X150.774 Y67.884 E2.37266
G1 X151.041 Y68.178 E2.38587
G1 X151.458 Y68.662 E2.40712
G1 X151.695 Y68.951 E2.41955
G1 X152.088 Y69.454 E2.44078
G1 X152.323 Y69.77 E2.45388
G1 X152.69 Y70.292 E2.47511
G1 X152.899 Y70.605 E2.48762
G1 X153.241 Y71.145 E2.50888
G1 X153.437 Y71.472 E2.52156
G1 X153.751 Y72.026 E2.54274
G1 X153.929 Y72.359 E2.5553
G1 X154.216 Y72.928 E2.5765
G1 X154.387 Y73.289 E2.58978
G1 X154.645 Y73.873 E2.61102
G1 X154.784 Y74.209 E2.62311
G1 X155.014 Y74.803 E2.6443
G1 X155.148 Y75.178 E2.65754
G1 X155.348 Y75.785 E2.6788
G1 X155.46 Y76.156 E2.69169
G1 X155.717 Y77.118 E2.72481
G1 X155.858 Y77.741 E2.74605
G1 X155.936 Y78.133 E2.75935
G1 X156.045 Y78.763 E2.78061
G1 X156.1 Y79.138 E2.79322
G1 X156.178 Y79.77 E2.8144
G1 X156.216 Y80.151 E2.82713
G1 X156.263 Y80.788 E2.84838
G1 X156.282 Y81.166 E2.86097
G1 X156.298 Y81.803 E2.88216
G1 X156.299 Y153.051 E5.25188
G1 X156.281 Y153.837 E5.27803
G1 X156.263 Y154.213 E5.29055
G1 X156.216 Y154.849 E5.31176
G1 X156.178 Y155.229 E5.32446
G1 X156.1 Y155.861 E5.34564
G1 X156.045 Y156.236 E5.35824
G1 X155.936 Y156.866 E5.37951
G1 X155.861 Y157.244 E5.39233
G1 X155.721 Y157.868 E5.4136
G1 X155.627 Y158.241 E5.42639
G1 X155.457 Y158.855 E5.44758
G1 X155.347 Y159.219 E5.46023
G1 X155.147 Y159.825 E5.48145
G1 X155.015 Y160.192 E5.49443
G1 X154.785 Y160.787 E5.51564
G1 X154.641 Y161.136 E5.5282
G1 X154.383 Y161.718 E5.54937
G1 X154.224 Y162.055 E5.56177
G1 X153.938 Y162.625 E5.58298
G1 X153.747 Y162.981 E5.59642
G1 X153.431 Y163.537 E5.61769
G1 X153.244 Y163.85 E5.62981
G1 X152.904 Y164.388 E5.65098
G1 X152.689 Y164.71 E5.66386
G1 X152.321 Y165.233 E5.68513
G1 X152.088 Y165.546 E5.69811
G1 X151.695 Y166.049 E5.71934
G1 X151.454 Y166.343 E5.73198
G1 X151.038 Y166.825 E5.75316
G1 X150.781 Y167.109 E5.7659
G1 X150.34 Y167.572 E5.78716
G1 X150.077 Y167.834 E5.79951
G1 X149.616 Y168.274 E5.82071
G1 X149.322 Y168.541 E5.83392
G1 X148.838 Y168.958 E5.85517
G1 X148.549 Y169.195 E5.8676
G1 X148.046 Y169.588 E5.88883
G1 X147.73 Y169.823 E5.90192
G1 X147.208 Y170.19 E5.92315
G1 X146.898 Y170.397 E5.93555
G1 X146.36 Y170.738 E5.95673
G1 X146.029 Y170.937 E5.96958
G1 X145.473 Y171.252 E5.99083
G1 X145.141 Y171.429 E6.00335
G1 X144.572 Y171.716 E6.02454
G1 X144.211 Y171.887 E6.03783
G1 X143.627 Y172.145 E6.05906
G1 X143.291 Y172.284 E6.07116
G1 X142.697 Y172.514 E6.09234
G1 X142.322 Y172.648 E6.10559
G1 X141.715 Y172.848 E6.12684
G1 X141.344 Y172.96 E6.13973
G1 X140.73 Y173.129 E6.16091
G1 X140.379 Y173.217 E6.17295
G1 X139.755 Y173.358 E6.19423
G1 X139.368 Y173.435 E6.20735
G1 X138.739 Y173.544 E6.22858
G1 X138.359 Y173.601 E6.24136
G1 X137.725 Y173.679 E6.26261
G1 X137.349 Y173.716 E6.27518
G1 X136.714 Y173.763 E6.29635
G1 X136.334 Y173.782 E6.30901
G1 X135.696 Y173.798 E6.33024
G1 X99.449 Y173.799 E7.53582
G1 X98.663 Y173.781 E7.56196
G1 X98.287 Y173.763 E7.57448
G1 X97.651 Y173.716 E7.5957
G1 X97.271 Y173.678 E7.6084
G1 X96.639 Y173.6 E7.62958
G1 X96.264 Y173.545 E7.64218
G1 X95.634 Y173.436 E7.66345
G1 X95.256 Y173.361 E7.67627
G1 X94.632 Y173.221 E7.69754
G1 X94.259 Y173.127 E7.71033
G1 X93.645 Y172.957 E7.73152
G1 X93.281 Y172.847 E7.74417
G1 X92.675 Y172.647 E7.76539
G1 X92.308 Y172.515 E7.77836
G1 X91.713 Y172.285 E7.79958
G1 X91.363 Y172.14 E7.81218
G1 X90.779 Y171.881 E7.83343
G1 X90.438 Y171.72 E7.84597
G1 X89.869 Y171.434 E7.86715
G1 X89.522 Y171.249 E7.88023
G1 X88.967 Y170.934 E7.90146
G1 X88.65 Y170.744 E7.91375
G1 X88.112 Y170.404 E7.93492
G1 X87.79 Y170.189 E7.9478
G1 X87.267 Y169.821 E7.96907
G1 X86.954 Y169.588 E7.98204
G1 X86.451 Y169.195 E8.00327
G1 X86.155 Y168.952 E8.01601
G1 X85.671 Y168.534 E8.03728
G1 X85.39 Y168.28 E8.04988
G1 X84.929 Y167.841 E8.07105
G1 X84.666 Y167.578 E8.08342
G1 X84.225 Y167.116 E8.10467
G1 X83.957 Y166.82 E8.11795
G1 X83.541 Y166.337 E8.13915
G1 X83.306 Y166.051 E8.15146
G1 X82.912 Y165.547 E8.17274
G1 X82.674 Y165.227 E8.186
G1 X82.308 Y164.706 E8.20718
G1 X82.101 Y164.395 E8.21961
G1 X81.759 Y163.855 E8.24087
G1 X81.563 Y163.528 E8.25355
G1 X81.249 Y162.974 E8.27473
G1 X81.071 Y162.641 E8.28728
G1 X80.783 Y162.07 E8.30856
G1 X80.612 Y161.708 E8.32187
G1 X80.355 Y161.126 E8.34303
G1 X80.216 Y160.791 E8.3551
G1 X79.986 Y160.197 E8.37628
G1 X79.852 Y159.822 E8.38953
G1 X79.652 Y159.215 E8.41078
G1 X79.54 Y158.844 E8.42367
G1 X79.371 Y158.23 E8.44485
G1 X79.283 Y157.879 E8.45689
G1 X79.142 Y157.255 E8.47817
G1 X79.065 Y156.868 E8.49129
G1 X78.956 Y156.239 E8.51252
G1 X78.899 Y155.859 E8.5253
G1 X78.821 Y155.225 E8.54655
G1 X78.784 Y154.849 E8.55912
G1 X78.737 Y154.214 E8.58029
G1 X78.718 Y153.834 E8.59295
G1 X78.702 Y153.197 E8.61414
G1 X78.701 Y81.949 E10.98386
G1 X78.719 Y81.163 E11.01001
G1 X78.737 Y80.787 E11.02253
G1 X78.784 Y80.151 E11.04374
G1 X78.822 Y79.771 E11.05644
G1 X78.9 Y79.139 E11.07762
G1 X78.955 Y78.764 E11.09023
G1 X79.064 Y78.134 E11.11149
G1 X79.139 Y77.756 E11.12431
G1 X79.279 Y77.132 E11.14558
G1 X79.373 Y76.759 E11.15837
G1 X79.543 Y76.145 E11.17956
G1 X79.653 Y75.781 E11.19221
G1 X79.853 Y75.175 E11.21344
G1 X79.985 Y74.808 E11.22641
G1 X80.215 Y74.213 E11.24763
G1 X80.359 Y73.864 E11.26018
G1 X80.617 Y73.282 E11.28136
G1 X80.776 Y72.945 E11.29375
G1 X81.062 Y72.375 E11.31496
G1 X81.253 Y72.019 E11.3284
G1 X81.569 Y71.463 E11.34967
G1 X81.756 Y71.15 E11.3618
G1 X82.096 Y70.612 E11.38296
G1 X82.311 Y70.29 E11.39584
G1 X82.679 Y69.767 E11.41711
G1 X82.912 Y69.454 E11.43009
G1 X83.305 Y68.951 E11.45132
G1 X83.546 Y68.657 E11.46396
G0 F6000 X83.849 Y68.918
G1 F1200 X84.265 Y68.436 E11.48514
G1 X84.509 Y68.167 E11.49722
G1 X84.95 Y67.704 E11.51849
G1 X85.199 Y67.455 E11.5302
G1 X85.66 Y67.015 E11.55139
G1 X85.939 Y66.762 E11.56392
G1 X86.423 Y66.345 E11.58517
G1 X86.697 Y66.12 E11.59696
G1 X87.2 Y65.727 E11.61819
G1 X87.5 Y65.504 E11.63063
G1 X88.022 Y65.137 E11.65185
G1 X88.316 Y64.941 E11.6636
G1 X88.854 Y64.6 E11.68479
G1 X89.168 Y64.412 E11.69696
G1 X89.724 Y64.097 E11.71821
G1 X90.039 Y63.928 E11.7301
G1 X90.608 Y63.641 E11.7513
G1 X90.951 Y63.479 E11.76392
G1 X91.535 Y63.221 E11.78515
G1 X91.853 Y63.089 E11.7966
G1 X92.447 Y62.859 E11.81779
G1 X92.803 Y62.732 E11.83036
G1 X93.41 Y62.532 E11.85162
G1 X93.762 Y62.425 E11.86385
G1 X94.376 Y62.256 E11.88503
G1 X95.333 Y62.032 E11.91772
G1 X95.7 Y61.959 E11.93017
G1 X96.329 Y61.85 E11.9514
G1 X96.689 Y61.796 E11.96351
G1 X97.323 Y61.718 E11.98476
G1 X97.681 Y61.683 E11.99672
G1 X98.316 Y61.636 E12.0179
G1 X98.676 Y61.618 E12.02989
G1 X99.5 Y61.6 E12.0573
G1 X135.74 Y61.603 E13.26265
G1 X136.327 Y61.618 E13.28218
G1 X136.683 Y61.636 E13.29403
G1 X137.319 Y61.683 E13.31524
G1 X137.68 Y61.719 E13.32731
G1 X138.312 Y61.797 E13.34849
G1 X138.668 Y61.849 E13.36046
G1 X139.298 Y61.958 E13.38172
G1 X139.656 Y62.029 E13.39386
G1 X140.28 Y62.169 E13.41513
G1 X140.635 Y62.258 E13.4273
G1 X141.249 Y62.428 E13.44849
G1 X141.597 Y62.534 E13.46059
G1 X142.202 Y62.734 E13.48179
G1 X142.543 Y62.856 E13.49383
G1 X143.139 Y63.086 E13.51508
G1 X143.474 Y63.225 E13.52714
G1 X144.056 Y63.483 E13.54832
G1 X144.38 Y63.636 E13.56024
G1 X144.951 Y63.923 E13.58149
G1 X145.281 Y64.099 E13.59393
G1 X145.836 Y64.414 E13.61516
G1 X146.136 Y64.594 E13.62679
G1 X146.674 Y64.934 E13.64796
G1 X146.979 Y65.138 E13.66016
G1 X147.502 Y65.506 E13.68143
G1 X147.8 Y65.727 E13.69377
G1 X148.303 Y66.12 E13.715
G1 X148.582 Y66.349 E13.72701
G1 X149.064 Y66.765 E13.74819
G1 X149.333 Y67.009 E13.76026
G1 X149.796 Y67.45 E13.78153
G1 X150.045 Y67.699 E13.79324
G1 X150.485 Y68.16 E13.81444
G1 X150.738 Y68.439 E13.82697
G1 X151.155 Y68.923 E13.84822
G1 X151.38 Y69.197 E13.86001
G1 X151.773 Y69.7 E13.88124
G1 X151.996 Y70 E13.89367
G1 X152.363 Y70.522 E13.91489
G1 X152.561 Y70.819 E13.92677
G1 X152.903 Y71.359 E13.94803
G1 X153.089 Y71.669 E13.96005
G1 X153.403 Y72.223 E13.98123
G1 X153.572 Y72.539 E13.99315
G1 X153.859 Y73.108 E14.01434
G1 X154.021 Y73.451 E14.02696
G1 X154.279 Y74.035 E14.0482
G1 X154.411 Y74.353 E14.05965
G1 X154.641 Y74.947 E14.08083
G1 X154.768 Y75.303 E14.09341
G1 X154.968 Y75.91 E14.11466
G1 X155.075 Y76.262 E14.1269
G1 X155.244 Y76.876 E14.14808
G1 X155.467 Y77.83 E14.18067
G1 X155.542 Y78.201 E14.19325
G1 X155.651 Y78.831 E14.21452
G1 X155.703 Y79.187 E14.22649
G1 X155.781 Y79.819 E14.24767
G1 X155.817 Y80.18 E14.25973
G1 X155.864 Y80.817 E14.28098
G1 X155.882 Y81.176 E14.29293
G1 X155.9 Y81.999 E14.32031
G1 X155.897 Y153.24 E16.6898
G1 X155.882 Y153.827 E16.70933
G1 X155.864 Y154.183 E16.72118
G1 X155.817 Y154.819 E16.74239
G1 X155.781 Y155.18 E16.75446
G1 X155.703 Y155.812 E16.77564
G1 X155.651 Y156.168 E16.78761
G1 X155.542 Y156.798 E16.80887
G1 X155.471 Y157.156 E16.82101
G1 X155.331 Y157.78 E16.84228
G1 X155.242 Y158.135 E16.85445
G1 X155.072 Y158.749 E16.87564
G1 X154.967 Y159.093 E16.88761
G1 X154.767 Y159.699 E16.90883
G1 X154.642 Y160.048 E16.92116
G1 X154.412 Y160.643 E16.94238
G1 X154.275 Y160.974 E16.95429
G1 X154.017 Y161.556 E16.97547
G1 X153.866 Y161.876 E16.98724
G1 X153.58 Y162.446 E17.00845
G1 X153.4 Y162.783 E17.02115
G1 X153.084 Y163.339 E17.04242
G1 X152.906 Y163.636 E17.05394
G1 X152.566 Y164.174 E17.07511
G1 X152.362 Y164.479 E17.08731
G1 X151.994 Y165.002 E17.10858
G1 X151.773 Y165.3 E17.12092
G1 X151.38 Y165.803 E17.14215
G1 X151.151 Y166.082 E17.15416
G1 X150.735 Y166.564 E17.17534
G1 X150.491 Y166.833 E17.18741
G1 X150.05 Y167.296 E17.20868
G1 X149.801 Y167.545 E17.22039
G1 X149.34 Y167.985 E17.24159
G1 X149.061 Y168.238 E17.25412
G1 X148.577 Y168.655 E17.27536
G1 X148.303 Y168.88 E17.28716
G1 X147.8 Y169.273 E17.30839
G1 X147.5 Y169.496 E17.32082
G1 X146.978 Y169.863 E17.34204
G1 X146.684 Y170.059 E17.3538
G1 X146.146 Y170.4 E17.37498
G1 X145.832 Y170.588 E17.38715
G1 X145.276 Y170.903 E17.40841
G1 X144.961 Y171.072 E17.4203
G1 X144.392 Y171.359 E17.44149
G1 X144.049 Y171.521 E17.45411
G1 X143.465 Y171.779 E17.47535
G1 X143.147 Y171.911 E17.4868
G1 X142.553 Y172.141 E17.50798
G1 X142.197 Y172.268 E17.52055
G1 X141.59 Y172.468 E17.54181
G1 X141.238 Y172.575 E17.55405
G1 X140.624 Y172.744 E17.57523
G1 X139.667 Y172.968 E17.60792
G1 X139.3 Y173.041 E17.62036
G1 X138.671 Y173.15 E17.6416
G1 X138.311 Y173.204 E17.6537
G1 X137.677 Y173.282 E17.67495
G1 X137.319 Y173.317 E17.68691
G1 X136.684 Y173.364 E17.70809
G1 X136.324 Y173.382 E17.72008
G1 X135.686 Y173.398 E17.74131
G1 X99.26 Y173.397 E18.95284
G1 X98.673 Y173.382 E18.97237
G1 X98.317 Y173.364 E18.98423
G1 X97.681 Y173.317 E19.00544
G1 X97.32 Y173.281 E19.0175
G1 X96.688 Y173.203 E19.03868
G1 X96.332 Y173.151 E19.05065
G1 X95.702 Y173.042 E19.07192
G1 X95.344 Y172.971 E19.08406
G1 X94.72 Y172.831 E19.10533
G1 X94.365 Y172.742 E19.1175
G1 X93.751 Y172.572 E19.13869
G1 X93.407 Y172.467 E19.15065
G1 X92.801 Y172.267 E19.17188
G1 X92.452 Y172.142 E19.18421
G1 X91.857 Y171.912 E19.20542
G1 X91.525 Y171.775 E19.21737
G1 X90.941 Y171.516 E19.23862
G1 X90.618 Y171.363 E19.2505
G1 X90.049 Y171.077 E19.27169
G1 X89.719 Y170.901 E19.28412
G1 X89.164 Y170.586 E19.30535
G1 X88.864 Y170.406 E19.31699
G1 X88.326 Y170.066 E19.33815
G1 X88.021 Y169.862 E19.35036
G1 X87.498 Y169.494 E19.37163
G1 X87.2 Y169.273 E19.38397
G1 X86.697 Y168.88 E19.4052
G1 X86.416 Y168.649 E19.4173
G1 X85.932 Y168.231 E19.43857
G1 X85.666 Y167.99 E19.45051
G1 X85.205 Y167.551 E19.47168
G1 X84.955 Y167.302 E19.48341
G1 X84.514 Y166.84 E19.50466
G1 X84.26 Y166.559 E19.51726
G1 X83.844 Y166.076 E19.53846
G1 X83.621 Y165.805 E19.55013
G1 X83.227 Y165.301 E19.57141
G1 X83.002 Y164.997 E19.58399
G1 X82.636 Y164.476 E19.60516
G1 X82.439 Y164.181 E19.61696
G1 X82.097 Y163.641 E19.63822
G1 X81.911 Y163.331 E19.65025
G1 X81.597 Y162.777 E19.67143
G1 X81.428 Y162.461 E19.68334
G1 X81.14 Y161.89 E19.70462
G1 X80.978 Y161.546 E19.71726
G1 X80.589 Y160.647 E19.74984
G1 X80.359 Y160.053 E19.77103
G1 X80.232 Y159.697 E19.7836
G1 X80.032 Y159.09 E19.80486
G1 X79.925 Y158.738 E19.81709
G1 X79.756 Y158.124 E19.83827
G1 X79.532 Y157.167 E19.87096
G1 X79.459 Y156.8 E19.88341
G1 X79.35 Y156.171 E19.90464
G1 X79.296 Y155.811 E19.91675
G1 X79.218 Y155.177 E19.938
G1 X79.183 Y154.819 E19.94996
G1 X79.136 Y154.184 E19.97114
G1 X79.118 Y153.824 E19.98313
G1 X79.1 Y153.001 E20.01051
G1 X79.103 Y81.76 E22.37999
G1 X79.118 Y81.173 E22.39952
G1 X79.136 Y80.817 E22.41138
G1 X79.183 Y80.181 E22.43259
G1 X79.219 Y79.82 E22.44465
G1 X79.297 Y79.188 E22.46583
G1 X79.349 Y78.832 E22.4778
G1 X79.458 Y78.202 E22.49907
G1 X79.529 Y77.844 E22.5112
G1 X79.669 Y77.22 E22.53248
G1 X79.758 Y76.865 E22.54465
G1 X79.928 Y76.251 E22.56584
G1 X80.033 Y75.907 E22.5778
G1 X80.233 Y75.301 E22.59903
G1 X80.358 Y74.952 E22.61136
G1 X80.588 Y74.357 E22.63257
G1 X80.725 Y74.026 E22.64449
G1 X80.983 Y73.444 E22.66566
G1 X81.134 Y73.124 E22.67743
G1 X81.42 Y72.554 E22.69864
G1 X81.6 Y72.217 E22.71135
G1 X81.916 Y71.661 E22.73262
G1 X82.094 Y71.364 E22.74414
G1 X82.434 Y70.826 E22.7653
G1 X82.638 Y70.521 E22.77751
G1 X83.006 Y69.998 E22.79878
G1 X83.227 Y69.7 E22.81112
G1 X83.62 Y69.197 E22.83235
G1 X83.849 Y68.918 E22.84435
G0 F6000 X84.152 Y69.179
G1 F1200 X84.568 Y68.697 E22.86553
G1 X84.798 Y68.443 E22.87693
G1 X85.239 Y67.98 E22.89819
G1 X85.475 Y67.744 E22.90929
G1 X85.936 Y67.304 E22.93049
G1 X86.2 Y67.065 E22.94233
G1 X86.684 Y66.648 E22.96358
G1 X86.943 Y66.435 E22.97474
G1 X87.446 Y66.042 E22.99597
