;FLAVOR:Marlin
;TIME:191
;Filament used: 0.04127m
;Layer height: 0.1
;MINX:104.5
;MINY:101
;MINZ:0.1
;MAXX:124.5
;MAXY:136
;MAXZ:0.5
;Generated with Cura_SteamEngine 5.2.2
M140 S50
M105
M190 S50
M104 S200
M105
M109 S200
M82 ;absolute extrusion mode
; Ender 3 Custom Start G-code
G92 E0 ; Reset Extruder
G28 ; Home all axes
G1 Z2.0 F3000 ; Move Z Axis up little to prevent scratching of Heat Bed
G1 X0.1 Y20 Z0.3 F5000.0 ; Move to start position
G1 X0.1 Y200.0 Z0.3 F1500.0 E15 ; Draw the first line
G1 X0.4 Y200.0 Z0.3 F5000.0 ; Move to side a little
G1 X0.4 Y20 Z0.3 F1500.0 E30 ; Draw the second line
G92 E0 ; Reset Extruder
G1 Z2.0 F3000 ; Move Z Axis up little to prevent scratching of Heat Bed
G1 X5 Y20 Z0.3 F5000.0 ; Move over to prevent blob squish
G92 E0
G92 E0
G1 F2700 E-5
;LAYER_COUNT:5
;LAYER:0
M107
G0 F6000 X106.785 Y104.285 Z0.1
;TYPE:SKIRT
G1 F2700 E0
G1 F1200 X107.785 Y103.285 E0.02352
G1 X108.371 Y102.755 E0.03666
G1 X109.007 Y102.288 E0.04978
G1 X109.687 Y101.887 E0.06291
G1 X110.405 Y101.557 E0.07605
G1 X111.152 Y101.302 E0.08918
G1 X111.921 Y101.123 E0.10231
G1 X112.705 Y101.023 E0.11545
G1 X113.3 Y101 E0.12535
G1 X115.7 Y101 E0.16526
G1 X116.489 Y101.04 E0.1784
G1 X117.269 Y101.159 E0.19152
G1 X118.034 Y101.357 E0.20467
G1 X118.774 Y101.631 E0.21779
G1 X119.483 Y101.979 E0.23092
G1 X120.154 Y102.397 E0.24407
G1 X120.778 Y102.88 E0.25719
G1 X121.215 Y103.285 E0.2671
G1 X122.215 Y104.285 E0.29062
G1 X122.745 Y104.871 E0.30376
G1 X123.212 Y105.507 E0.31688
G1 X123.613 Y106.187 E0.33001
G1 X123.943 Y106.905 E0.34315
G1 X124.198 Y107.652 E0.35628
G1 X124.377 Y108.421 E0.36941
G1 X124.477 Y109.205 E0.38255
G1 X124.5 Y109.8 E0.39245
G1 X124.5 Y127.2 E0.68182
G1 X124.46 Y127.989 E0.69495
G1 X124.341 Y128.769 E0.70808
G1 X124.143 Y129.534 E0.72122
G1 X123.869 Y130.274 E0.73434
G1 X123.521 Y130.983 E0.74747
G1 X123.103 Y131.654 E0.76062
G1 X122.62 Y132.278 E0.77374
G1 X122.215 Y132.715 E0.78365
G1 X121.215 Y133.715 E0.80717
G1 X120.629 Y134.245 E0.82031
G1 X119.993 Y134.712 E0.83343
G1 X119.313 Y135.113 E0.84656
G1 X118.595 Y135.443 E0.8597
G1 X117.848 Y135.698 E0.87283
G1 X117.079 Y135.877 E0.88596
G1 X116.295 Y135.977 E0.8991
G1 X115.7 Y136 E0.909
G1 X113.3 Y136 E0.94892
G1 X112.511 Y135.96 E0.96205
G1 X111.731 Y135.841 E0.97518
G1 X110.966 Y135.643 E0.98832
G1 X110.226 Y135.369 E1.00144
G1 X109.517 Y135.021 E1.01457
G1 X108.846 Y134.603 E1.02772
G1 X108.222 Y134.12 E1.04084
G1 X107.785 Y133.715 E1.05075
G1 X106.785 Y132.715 E1.07427
G1 X106.255 Y132.129 E1.08741
G1 X105.788 Y131.493 E1.10053
G1 X105.387 Y130.813 E1.11366
G1 X105.057 Y130.095 E1.1268
G1 X104.802 Y129.348 E1.13993
G1 X104.623 Y128.579 E1.15306
G1 X104.523 Y127.795 E1.1662
G1 X104.5 Y127.2 E1.1761
G1 X104.5 Y109.8 E1.46547
G1 X104.54 Y109.011 E1.47861
G1 X104.659 Y108.231 E1.49173
G1 X104.857 Y107.466 E1.50487
G1 X105.131 Y106.726 E1.51799
G1 X105.479 Y106.017 E1.53113
G1 X105.897 Y105.346 E1.54427
G1 X106.38 Y104.722 E1.5574
G1 X106.785 Y104.285 E1.5673
G0 F6000 X107.067 Y104.567
G1 F1200 X108.067 Y103.567 E1.59082
G1 X108.639 Y103.053 E1.60361
G1 X109.261 Y102.6 E1.61641
G1 X109.926 Y102.214 E1.62919
G1 X110.628 Y101.899 E1.64199
G1 X111.359 Y101.659 E1.65478
G1 X112.11 Y101.496 E1.66756
G1 X112.875 Y101.412 E1.68036
G1 X113.3 Y101.4 E1.68743
G1 X115.7 Y101.4 E1.72735
G1 X116.468 Y101.44 E1.74014
G1 X117.228 Y101.559 E1.75293
G1 X117.971 Y101.757 E1.76572
G1 X118.69 Y102.031 E1.77851
G1 X119.376 Y102.378 E1.7913
G1 X120.023 Y102.794 E1.80409
G1 X120.623 Y103.275 E1.81688
G1 X120.933 Y103.567 E1.82396
G1 X121.933 Y104.567 E1.84748
G1 X122.447 Y105.139 E1.86027
G1 X122.9 Y105.761 E1.87306
G1 X123.286 Y106.426 E1.88585
G1 X123.601 Y107.128 E1.89864
G1 X123.841 Y107.859 E1.91144
G1 X124.004 Y108.61 E1.92422
G1 X124.088 Y109.375 E1.93702
G1 X124.1 Y109.8 E1.94409
G1 X124.1 Y127.2 E2.23345
G1 X124.06 Y127.968 E2.24624
G1 X123.941 Y128.728 E2.25903
G1 X123.743 Y129.471 E2.27182
G1 X123.469 Y130.19 E2.28462
G1 X123.122 Y130.876 E2.2974
G1 X122.706 Y131.523 E2.31019
G1 X122.225 Y132.123 E2.32298
G1 X121.933 Y132.433 E2.33006
G1 X120.933 Y133.433 E2.35358
G1 X120.361 Y133.947 E2.36637
G1 X119.739 Y134.4 E2.37917
G1 X119.074 Y134.786 E2.39196
G1 X118.372 Y135.101 E2.40475
G1 X117.641 Y135.341 E2.41755
G1 X116.89 Y135.504 E2.43033
G1 X116.125 Y135.588 E2.44312
G1 X115.7 Y135.6 E2.45019
G1 X113.3 Y135.6 E2.49011
G1 X112.532 Y135.56 E2.5029
G1 X111.772 Y135.441 E2.51569
G1 X111.029 Y135.243 E2.52848
G1 X110.31 Y134.969 E2.54127
G1 X109.624 Y134.622 E2.55406
G1 X108.977 Y134.206 E2.56685
G1 X108.377 Y133.725 E2.57964
G1 X108.067 Y133.433 E2.58672
G1 X107.067 Y132.433 E2.61024
G1 X106.553 Y131.861 E2.62303
G1 X106.1 Y131.239 E2.63582
G1 X105.714 Y130.574 E2.64861
G1 X105.399 Y129.872 E2.66141
G1 X105.159 Y129.141 E2.6742
G1 X104.996 Y128.39 E2.68698
G1 X104.912 Y127.625 E2.69978
G1 X104.9 Y127.2 E2.70685
G1 X104.9 Y109.8 E2.99621
G1 X104.94 Y109.032 E3.009
G1 X105.059 Y108.272 E3.0218
G1 X105.257 Y107.529 E3.03458
G1 X105.531 Y106.81 E3.04738
G1 X105.878 Y106.124 E3.06016
G1 X106.294 Y105.477 E3.07295
G1 X106.775 Y104.877 E3.08574
G1 X107.067 Y104.567 E3.09283
G0 F6000 X107.35 Y104.85
G1 F1200 X108.35 Y103.85 E3.11634
G1 X108.907 Y103.35 E3.12879
G1 X109.513 Y102.913 E3.14122
G1 X110.163 Y102.542 E3.15366
G1 X110.849 Y102.243 E3.16611
G1 X111.563 Y102.019 E3.17855
G1 X112.296 Y101.872 E3.19098
G1 X113.3 Y101.8 E3.20772
G1 X115.7 Y101.8 E3.24764
G1 X116.447 Y101.84 E3.26008
G1 X117.185 Y101.959 E3.27251
G1 X117.907 Y102.157 E3.28496
G1 X118.603 Y102.43 E3.29739
G1 X119.266 Y102.777 E3.30984
G1 X119.889 Y103.192 E3.32228
G1 X120.65 Y103.85 E3.33902
G1 X121.65 Y104.85 E3.36253
G1 X122.15 Y105.407 E3.37498
G1 X122.587 Y106.013 E3.38741
G1 X122.958 Y106.663 E3.39985
G1 X123.257 Y107.349 E3.4123
G1 X123.481 Y108.063 E3.42474
G1 X123.628 Y108.796 E3.43717
G1 X123.7 Y109.8 E3.45391
G1 X123.7 Y127.2 E3.74328
G1 X123.66 Y127.947 E3.75572
G1 X123.541 Y128.685 E3.76815
G1 X123.343 Y129.407 E3.7806
G1 X123.07 Y130.103 E3.79303
G1 X122.723 Y130.766 E3.80548
G1 X122.308 Y131.389 E3.81793
G1 X121.65 Y132.15 E3.83466
G1 X120.65 Y133.15 E3.85817
G1 X120.093 Y133.65 E3.87062
G1 X119.487 Y134.087 E3.88305
G1 X118.837 Y134.458 E3.89549
G1 X118.151 Y134.757 E3.90794
G1 X117.437 Y134.981 E3.92038
G1 X116.704 Y135.128 E3.93281
G1 X115.7 Y135.2 E3.94955
G1 X113.3 Y135.2 E3.98947
G1 X112.553 Y135.16 E4.00191
G1 X111.815 Y135.041 E4.01434
G1 X111.093 Y134.843 E4.02679
G1 X110.397 Y134.57 E4.03922
G1 X109.734 Y134.223 E4.05167
G1 X109.111 Y133.808 E4.06411
G1 X108.35 Y133.15 E4.08085
G1 X107.35 Y132.15 E4.10436
G1 X106.85 Y131.593 E4.11681
G1 X106.413 Y130.987 E4.12924
G1 X106.042 Y130.337 E4.14168
G1 X105.743 Y129.651 E4.15413
G1 X105.519 Y128.937 E4.16657
G1 X105.372 Y128.204 E4.179
G1 X105.3 Y127.2 E4.19574
G1 X105.3 Y109.8 E4.48511
G1 X105.34 Y109.053 E4.49755
G1 X105.459 Y108.315 E4.50998
G1 X105.657 Y107.593 E4.52243
G1 X105.93 Y106.897 E4.53486
G1 X106.277 Y106.234 E4.54731
G1 X106.692 Y105.611 E4.55976
G1 X107.35 Y104.85 E4.57649
G0 F6000 X107.633 Y105.133
G1 F1200 X108.633 Y104.133 E4.6
G1 X109.174 Y103.649 E4.61208
G1 X109.765 Y103.226 E4.62416
G1 X110.399 Y102.872 E4.63624
G1 X111.068 Y102.589 E4.64832
G1 X111.764 Y102.381 E4.6604
G1 X112.479 Y102.251 E4.67248
G1 X113.3 Y102.2 E4.68616
G1 X115.7 Y102.2 E4.72608
G1 X116.425 Y102.24 E4.73815
G1 X117.142 Y102.359 E4.75024
G1 X117.841 Y102.557 E4.76232
G1 X118.514 Y102.83 E4.7744
G1 X119.153 Y103.175 E4.78647
G1 X119.75 Y103.589 E4.79856
G1 X120.367 Y104.133 E4.81223
G1 X121.367 Y105.133 E4.83575
G1 X121.851 Y105.674 E4.84783
G1 X122.274 Y106.265 E4.85991
G1 X122.628 Y106.899 E4.87199
G1 X122.911 Y107.568 E4.88407
G1 X123.119 Y108.264 E4.89615
G1 X123.249 Y108.979 E4.90823
G1 X123.3 Y109.8 E4.92191
G1 X123.3 Y127.2 E5.21128
G1 X123.26 Y127.925 E5.22335
G1 X123.141 Y128.642 E5.23544
G1 X122.943 Y129.341 E5.24752
G1 X122.67 Y130.014 E5.2596
G1 X122.325 Y130.653 E5.27167
G1 X121.911 Y131.25 E5.28376
G1 X121.367 Y131.867 E5.29744
G1 X120.367 Y132.867 E5.32095
G1 X119.826 Y133.351 E5.33303
G1 X119.235 Y133.774 E5.34511
G1 X118.601 Y134.128 E5.35719
G1 X117.932 Y134.411 E5.36927
G1 X117.236 Y134.619 E5.38135
G1 X116.521 Y134.749 E5.39343
G1 X115.7 Y134.8 E5.40711
G1 X113.3 Y134.8 E5.44703
G1 X112.575 Y134.76 E5.4591
G1 X111.858 Y134.641 E5.47119
G1 X111.159 Y134.443 E5.48327
G1 X110.486 Y134.17 E5.49535
G1 X109.847 Y133.825 E5.50742
G1 X109.25 Y133.411 E5.51951
G1 X108.633 Y132.867 E5.53318
G1 X107.633 Y131.867 E5.5567
G1 X107.149 Y131.326 E5.56877
G1 X106.726 Y130.735 E5.58086
G1 X106.372 Y130.101 E5.59294
G1 X106.089 Y129.432 E5.60502
G1 X105.881 Y128.736 E5.6171
G1 X105.751 Y128.021 E5.62918
G1 X105.7 Y127.2 E5.64286
G1 X105.7 Y109.8 E5.93223
G1 X105.74 Y109.075 E5.9443
G1 X105.859 Y108.358 E5.95639
G1 X106.057 Y107.659 E5.96847
G1 X106.33 Y106.986 E5.98055
G1 X106.675 Y106.347 E5.99262
G1 X107.089 Y105.75 E6.00471
G1 X107.633 Y105.133 E6.01838
G0 F6000 X107.916 Y105.416
G1 F1200 X108.916 Y104.416 E6.0419
G1 X109.441 Y103.947 E6.05361
G1 X110.016 Y103.541 E6.06532
G1 X110.634 Y103.203 E6.07703
G1 X111.285 Y102.936 E6.08873
G1 X111.963 Y102.746 E6.10044
G1 X112.658 Y102.633 E6.11215
G1 X113.3 Y102.6 E6.12284
G1 X115.7 Y102.6 E6.16275
G1 X116.403 Y102.64 E6.17446
G1 X117.097 Y102.759 E6.18617
G1 X117.772 Y102.957 E6.19787
G1 X118.421 Y103.229 E6.20957
G1 X119.035 Y103.574 E6.22129
G1 X119.606 Y103.985 E6.23299
G1 X120.084 Y104.416 E6.24369
G1 X121.084 Y105.416 E6.26721
G1 X121.553 Y105.941 E6.27892
G1 X121.959 Y106.516 E6.29062
G1 X122.297 Y107.134 E6.30233
G1 X122.564 Y107.785 E6.31404
G1 X122.754 Y108.463 E6.32575
G1 X122.867 Y109.158 E6.33746
G1 X122.9 Y109.8 E6.34815
G1 X122.9 Y127.2 E6.63751
G1 X122.86 Y127.903 E6.64922
G1 X122.741 Y128.597 E6.66093
G1 X122.543 Y129.272 E6.67263
G1 X122.271 Y129.921 E6.68433
G1 X121.926 Y130.535 E6.69604
G1 X121.515 Y131.106 E6.70774
G1 X121.084 Y131.584 E6.71845
G1 X120.084 Y132.584 E6.74196
G1 X119.559 Y133.053 E6.75367
G1 X118.984 Y133.459 E6.76538
G1 X118.366 Y133.797 E6.77709
G1 X117.715 Y134.064 E6.78879
G1 X117.037 Y134.254 E6.8005
G1 X116.342 Y134.367 E6.81221
G1 X115.7 Y134.4 E6.8229
G1 X113.3 Y134.4 E6.86281
G1 X112.597 Y134.36 E6.87452
G1 X111.903 Y134.241 E6.88623
G1 X111.228 Y134.043 E6.89793
G1 X110.579 Y133.771 E6.90963
G1 X109.965 Y133.426 E6.92135
G1 X109.394 Y133.015 E6.93305
G1 X108.916 Y132.584 E6.94375
G1 X107.916 Y131.584 E6.96727
G1 X107.447 Y131.059 E6.97898
G1 X107.041 Y130.484 E6.99068
G1 X106.703 Y129.866 E7.0024
G1 X106.436 Y129.215 E7.0141
G1 X106.246 Y128.537 E7.02581
G1 X106.133 Y127.842 E7.03752
G1 X106.1 Y127.2 E7.04821
G1 X106.1 Y109.8 E7.33757
G1 X106.14 Y109.097 E7.34928
G1 X106.259 Y108.403 E7.36099
G1 X106.457 Y107.728 E7.37269
G1 X106.729 Y107.079 E7.38439
G1 X107.074 Y106.465 E7.3961
G1 X107.485 Y105.894 E7.4078
G1 X107.916 Y105.416 E7.41851
G0 F6000 X108.199 Y105.699
G1 F1200 X109.199 Y104.699 E7.44202
G1 X109.708 Y104.246 E7.45336
G1 X110.266 Y103.857 E7.46467
G1 X110.866 Y103.535 E7.47599
G1 X111.5 Y103.286 E7.48732
G1 X112.159 Y103.113 E7.49865
G1 X112.833 Y103.019 E7.50997
G1 X113.3 Y103 E7.51774
G1 X115.7 Y103 E7.55765
G1 X116.38 Y103.04 E7.56898
G1 X117.05 Y103.159 E7.5803
G1 X117.702 Y103.356 E7.59162
G1 X118.326 Y103.628 E7.60294
G1 X118.914 Y103.972 E7.61427
G1 X119.458 Y104.382 E7.6256
G1 X119.801 Y104.699 E7.63337
G1 X120.801 Y105.699 E7.65689
G1 X121.254 Y106.208 E7.66822
G1 X121.643 Y106.766 E7.67953
G1 X121.965 Y107.366 E7.69085
G1 X122.214 Y108 E7.70218
G1 X122.387 Y108.659 E7.71351
G1 X122.481 Y109.333 E7.72483
G1 X122.5 Y109.8 E7.7326
G1 X122.5 Y127.2 E8.02197
G1 X122.46 Y127.88 E8.03329
G1 X122.341 Y128.55 E8.04461
G1 X122.144 Y129.202 E8.05594
G1 X121.872 Y129.826 E8.06726
G1 X121.528 Y130.414 E8.07859
G1 X121.118 Y130.958 E8.08991
G1 X120.801 Y131.301 E8.09768
G1 X119.801 Y132.301 E8.1212
G1 X119.292 Y132.754 E8.13253
G1 X118.734 Y133.143 E8.14384
G1 X118.134 Y133.465 E8.15517
G1 X117.5 Y133.714 E8.16649
G1 X116.841 Y133.887 E8.17783
G1 X116.167 Y133.981 E8.18914
G1 X115.7 Y134 E8.19692
G1 X113.3 Y134 E8.23683
G1 X112.62 Y133.96 E8.24816
G1 X111.95 Y133.841 E8.25947
G1 X111.298 Y133.644 E8.2708
G1 X110.674 Y133.372 E8.28212
G1 X110.086 Y133.028 E8.29345
G1 X109.542 Y132.618 E8.30478
G1 X109.199 Y132.301 E8.31254
G1 X108.199 Y131.301 E8.33606
G1 X107.746 Y130.792 E8.34739
G1 X107.357 Y130.234 E8.35871
G1 X107.035 Y129.634 E8.37003
G1 X106.786 Y129 E8.38136
G1 X106.613 Y128.341 E8.39269
G1 X106.519 Y127.667 E8.404
G1 X106.5 Y127.2 E8.41178
G1 X106.5 Y109.8 E8.70114
G1 X106.54 Y109.12 E8.71247
G1 X106.659 Y108.45 E8.72378
G1 X106.856 Y107.798 E8.73511
G1 X107.128 Y107.174 E8.74643
G1 X107.472 Y106.586 E8.75776
G1 X107.882 Y106.042 E8.76909
G1 X108.199 Y105.699 E8.77686
G0 F6000 X108.482 Y105.982
G1 F1200 X109.482 Y104.982 E8.80038
G1 X109.974 Y104.546 E8.81131
G1 X110.515 Y104.174 E8.82223
G1 X111.097 Y103.87 E8.83315
G1 X111.712 Y103.639 E8.84407
G1 X112.351 Y103.484 E8.85501
G1 X113.3 Y103.4 E8.87085
G1 X115.7 Y103.4 E8.91076
G1 X116.356 Y103.44 E8.92169
G1 X117.002 Y103.559 E8.93261
G1 X117.629 Y103.756 E8.94354
G1 X118.227 Y104.028 E8.95447
G1 X118.788 Y104.37 E8.9654
G1 X119.518 Y104.982 E8.98124
G1 X120.518 Y105.982 E9.00476
G1 X120.954 Y106.474 E9.01569
G1 X121.326 Y107.015 E9.02661
G1 X121.63 Y107.597 E9.03753
G1 X121.861 Y108.212 E9.04845
G1 X122.016 Y108.851 E9.05939
G1 X122.1 Y109.8 E9.07523
G1 X122.1 Y127.2 E9.36459
G1 X122.06 Y127.856 E9.37552
G1 X121.941 Y128.502 E9.38645
G1 X121.744 Y129.129 E9.39738
G1 X121.472 Y129.727 E9.4083
G1 X121.13 Y130.288 E9.41923
G1 X120.518 Y131.018 E9.43507
G1 X119.518 Y132.018 E9.45859
G1 X119.026 Y132.454 E9.46952
G1 X118.485 Y132.826 E9.48044
G1 X117.903 Y133.13 E9.49136
G1 X117.288 Y133.361 E9.50228
G1 X116.649 Y133.516 E9.51322
G1 X115.7 Y133.6 E9.52906
G1 X113.3 Y133.6 E9.56897
G1 X112.644 Y133.56 E9.5799
G1 X111.998 Y133.441 E9.59083
G1 X111.371 Y133.244 E9.60176
G1 X110.773 Y132.972 E9.61268
G1 X110.212 Y132.63 E9.62361
G1 X109.482 Y132.018 E9.63945
G1 X108.482 Y131.018 E9.66297
G1 X108.046 Y130.526 E9.6739
G1 X107.674 Y129.985 E9.68482
G1 X107.37 Y129.403 E9.69574
G1 X107.139 Y128.788 E9.70666
G1 X106.984 Y128.149 E9.7176
G1 X106.9 Y127.2 E9.73344
G1 X106.9 Y109.8 E10.02281
G1 X106.94 Y109.144 E10.03374
G1 X107.059 Y108.498 E10.04466
G1 X107.256 Y107.871 E10.05559
G1 X107.528 Y107.273 E10.06651
G1 X107.87 Y106.712 E10.07744
G1 X108.482 Y105.982 E10.09328
G0 F6000 X108.764 Y106.264
G1 F1200 X109.764 Y105.264 E10.1168
G1 X110.239 Y104.847 E10.12731
G1 X110.762 Y104.492 E10.13782
G1 X111.326 Y104.206 E10.14834
G1 X111.921 Y103.994 E10.15885
G1 X112.539 Y103.858 E10.16937
G1 X113.3 Y103.8 E10.18206
G1 X115.7 Y103.8 E10.22197
G1 X116.331 Y103.84 E10.23249
G1 X116.952 Y103.959 E10.243
G1 X117.552 Y104.156 E10.2535
G1 X118.124 Y104.427 E10.26403
G1 X118.656 Y104.767 E10.27453
G1 X119.236 Y105.264 E10.28723
G1 X120.236 Y106.264 E10.31075
G1 X120.653 Y106.739 E10.32126
G1 X121.008 Y107.262 E10.33177
G1 X121.294 Y107.826 E10.34229
G1 X121.506 Y108.421 E10.35279
G1 X121.642 Y109.039 E10.36332
G1 X121.7 Y109.8 E10.37601
G1 X121.7 Y127.2 E10.66537
G1 X121.66 Y127.831 E10.67589
G1 X121.541 Y128.452 E10.6864
G1 X121.344 Y129.052 E10.69691
G1 X121.073 Y129.624 E10.70743
G1 X120.733 Y130.156 E10.71793
G1 X120.236 Y130.736 E10.73063
G1 X119.236 Y131.736 E10.75415
G1 X118.761 Y132.153 E10.76466
G1 X118.238 Y132.508 E10.77518
G1 X117.674 Y132.794 E10.78569
G1 X117.079 Y133.006 E10.7962
G1 X116.461 Y133.142 E10.80672
G1 X115.7 Y133.2 E10.81941
G1 X113.3 Y133.2 E10.85932
G1 X112.669 Y133.16 E10.86984
G1 X112.048 Y133.041 E10.88035
G1 X111.448 Y132.844 E10.89086
G1 X110.876 Y132.573 E10.90138
G1 X110.344 Y132.233 E10.91188
G1 X109.764 Y131.736 E10.92458
G1 X108.764 Y130.736 E10.9481
G1 X108.347 Y130.261 E10.95861
G1 X107.992 Y129.738 E10.96912
G1 X107.706 Y129.174 E10.97964
G1 X107.494 Y128.579 E10.99015
G1 X107.358 Y127.961 E11.00067
G1 X107.3 Y127.2 E11.01336
G1 X107.3 Y109.8 E11.30272
G1 X107.34 Y109.169 E11.31324
G1 X107.459 Y108.548 E11.32375
G1 X107.656 Y107.948 E11.33426
